;FLAVOR:Marlin
;TIME:5724
;Filament used: 9.8839m
;Layer height: 0.4
;MINX:49.335
;MINY:69.585
;MINZ:0.3
;MAXX:150.653
;MAXY:141.767
;MAXZ:50.3
;POSTPROCESSED
;Generated with Cura_SteamEngine 5.0.0
M140 S60
M105
M190 S60
M104 S210
M105
M109 S210
M82 ;absolute extrusion mode
G21 ;metric values
 G90 ;absolute positioning
 M82 ;set extruder to absolute mode
 M107 ;start with the fan off
 G28 X0 Y0 ;move X/Y to min endstops
 G28 Z0 ;move Z to min endstops
 G1 Z10.0 F120 ;move the platform down 10mm
 G92 E0 ;zero the extruded length
 G1 F200 E3 ;extrude 3 mm of feed stock
 G92 E0 ;zero the extruded length again
 G1 F120 
 ;Put printing message on LCD screen
 M117 Printing...
G92 E0
G92 E0
G1 F2400 E-0.8
;LAYER_COUNT:126
;LAYER:0
M107
G0 F3600 X106.118 Y71.102 Z0.3
G0 X105.659 Y72.152
;TYPE:SKIRT
G1 F2400 E0
G1 F1800 X105.676 Y71.934 E0.01091
G1 X106.118 Y71.102 E0.05791
G1 X106.257 Y70.934 E0.06879
G1 X106.447 Y70.827 E0.07967
G1 X106.642 Y70.794 E0.08954
G1 X107.555 Y70.794 E0.13509
G1 X107.941 Y70.606 E0.15651
G1 X108.071 Y70.592 E0.16303
G1 X111.959 Y70.592 E0.357
G1 X112.248 Y70.666 E0.37189
G1 X112.482 Y70.795 E0.38522
G1 X113.361 Y70.795 E0.42907
G1 X113.576 Y70.835 E0.43998
G1 X113.762 Y70.948 E0.45084
G1 X113.887 Y71.106 E0.46089
G1 X114.275 Y71.812 E0.50108
G1 X114.343 Y72.019 E0.51195
G1 X114.333 Y72.237 E0.52284
G1 X113.817 Y73.263 E0.58013
G1 X113.683 Y73.434 E0.59097
G1 X113.495 Y73.546 E0.60189
G1 X113.286 Y73.584 E0.61249
G1 X112.61 Y73.584 E0.64621
G1 X112.34 Y73.52 E0.66006
G1 X112.068 Y73.383 E0.67525
G1 X111.442 Y73.383 E0.70648
G1 X111.145 Y73.304 E0.72182
G1 X110.943 Y73.189 E0.73341
G1 X110.475 Y73.019 E0.75825
G1 X109.996 Y72.962 E0.78232
G1 X109.548 Y73.005 E0.80477
G1 X109.08 Y73.182 E0.82974
G1 X108.875 Y73.301 E0.84156
G1 X108.573 Y73.382 E0.85716
G1 X107.919 Y73.382 E0.88979
G1 X107.666 Y73.517 E0.9041
G1 X107.391 Y73.583 E0.91821
G1 X106.715 Y73.583 E0.95193
G1 X106.5 Y73.543 E0.96284
G1 X106.314 Y73.43 E0.9737
G1 X106.181 Y73.257 E0.98459
G1 X105.722 Y72.361 E1.03481
G1 X105.659 Y72.152 E1.0457
G0 F3600 X106.078 Y72.178
G1 F1800 X106.081 Y71.99 E1.05508
G1 X106.467 Y71.297 E1.09466
G1 X106.559 Y71.212 E1.10091
G1 X106.642 Y71.194 E1.10515
G1 X107.653 Y71.194 E1.15558
G1 X108.071 Y70.992 E1.17875
G1 X111.959 Y70.992 E1.37272
G1 X112.379 Y71.195 E1.39599
G1 X113.361 Y71.195 E1.44498
G1 X113.48 Y71.234 E1.45123
G1 X113.924 Y72.005 E1.49562
G1 X113.926 Y72.194 E1.50505
G1 X113.463 Y73.077 E1.55479
G1 X113.373 Y73.164 E1.56104
G1 X112.61 Y73.184 E1.59912
G1 X112.163 Y72.983 E1.62357
G1 X111.442 Y72.983 E1.65954
G1 X110.568 Y72.628 E1.7066
G1 X110 Y72.559 E1.73515
G1 X109.457 Y72.612 E1.76237
G1 X108.905 Y72.821 E1.79181
G1 X108.573 Y72.982 E1.81022
G1 X107.834 Y72.982 E1.84709
G1 X107.391 Y73.183 E1.87136
G1 X106.715 Y73.183 E1.90509
G1 X106.596 Y73.144 E1.91133
G1 X106.537 Y73.074 E1.9159
G1 X106.078 Y72.178 E1.96613
G1 F2400 E1.16613
G0 F3600 X101.5 Y79.127
G1 F2400 E1.96613
G1 F1800 X101.715 Y79.167 E1.97704
G1 X101.901 Y79.28 E1.9879
G1 X102.034 Y79.453 E1.99878
G1 X102.1 Y79.727 E2.01284
G1 X102.1 Y80.049 E2.02891
G1 X150 Y80.049 E4.41865
G1 X150.215 Y80.089 E4.42956
G1 X150.401 Y80.202 E4.44042
G1 X150.534 Y80.375 E4.4513
G1 X150.6 Y80.649 E4.46537
G1 X150.6 Y84.144 E4.63973
G1 X150.56 Y84.359 E4.65064
G1 X150.447 Y84.545 E4.6615
G1 X150.274 Y84.678 E4.67239
G1 X150 Y84.744 E4.68645
G1 X50 Y84.744 E9.67547
G1 X49.785 Y84.704 E9.68638
G1 X49.599 Y84.591 E9.69724
G1 X49.466 Y84.418 E9.70812
G1 X49.4 Y84.144 E9.72218
G1 X49.4 Y80.648 E9.8966
G1 X49.44 Y80.433 E9.90751
G1 X49.553 Y80.247 E9.91837
G1 X49.726 Y80.114 E9.92925
G1 X50 Y80.048 E9.94332
G1 X97.9 Y80.048 E12.33306
G1 X97.94 Y79.512 E12.35987
G1 X98.053 Y79.326 E12.37073
G1 X98.226 Y79.193 E12.38162
G1 X98.5 Y79.127 E12.39568
G1 X101.5 Y79.127 E12.54535
G1 F2400 E11.74535
G0 F3600 X98.136 Y80.448
G1 F2400 E12.54535
G1 F1800 X98.3 Y80.284 E12.55692
G1 X98.3 Y79.727 E12.58471
G1 X98.339 Y79.608 E12.59096
G1 X98.5 Y79.527 E12.59995
G1 X101.5 Y79.527 E12.74962
G1 X101.619 Y79.566 E12.75587
G1 X101.7 Y79.727 E12.76486
G1 X101.7 Y80.285 E12.7927
G1 X101.864 Y80.449 E12.80427
G1 X150 Y80.449 E15.20578
G1 X150.119 Y80.488 E15.21203
G1 X150.2 Y80.649 E15.22102
G1 X150.2 Y84.144 E15.39539
G1 X150.161 Y84.263 E15.40163
G1 X150 Y84.344 E15.41063
G1 X50 Y84.344 E20.39965
G1 X49.881 Y84.305 E20.40589
G1 X49.8 Y84.144 E20.41489
G1 X49.8 Y80.648 E20.5893
G1 X49.839 Y80.529 E20.59555
G1 X50 Y80.448 E20.60454
G1 X98.136 Y80.448 E23.00606
G1 F2400 E22.20606
G0 F3600 X91.145 Y73.304
G1 F2400 E23.00606
G1 F1800 X90.943 Y73.189 E23.01765
G1 X90.475 Y73.019 E23.04249
G1 X89.996 Y72.962 E23.06656
G1 X89.548 Y73.005 E23.08901
G1 X89.08 Y73.182 E23.11398
G1 X88.875 Y73.301 E23.1258
G1 X88.573 Y73.382 E23.1414
G1 X87.919 Y73.382 E23.17403
G1 X87.666 Y73.517 E23.18834
G1 X87.391 Y73.583 E23.20245
G1 X86.715 Y73.583 E23.23617
G1 X86.5 Y73.543 E23.24708
G1 X86.314 Y73.43 E23.25794
G1 X86.181 Y73.257 E23.26883
G1 X85.722 Y72.361 E23.31905
G1 X85.659 Y72.152 E23.32994
G1 X85.676 Y71.934 E23.34085
G1 X86.118 Y71.102 E23.38785
G1 X86.257 Y70.934 E23.39873
G1 X86.447 Y70.827 E23.40961
G1 X86.642 Y70.794 E23.41948
G1 X87.555 Y70.794 E23.46503
G1 X87.941 Y70.606 E23.48645
G1 X88.071 Y70.592 E23.49297
G1 X91.959 Y70.592 E23.68695
G1 X92.248 Y70.666 E23.70183
G1 X92.482 Y70.795 E23.71516
G1 X93.361 Y70.795 E23.75901
G1 X93.576 Y70.835 E23.76992
G1 X93.762 Y70.948 E23.78078
G1 X93.887 Y71.106 E23.79083
G1 X94.275 Y71.812 E23.83102
G1 X94.343 Y72.019 E23.84189
G1 X94.333 Y72.237 E23.85278
G1 X93.817 Y73.263 E23.91008
G1 X93.683 Y73.434 E23.92092
G1 X93.495 Y73.546 E23.93183
G1 X93.286 Y73.584 E23.94243
G1 X92.61 Y73.584 E23.97616
G1 X92.34 Y73.52 E23.99
G1 X92.068 Y73.383 E24.0052
G1 X91.442 Y73.383 E24.03643
G1 X91.145 Y73.304 E24.05176
G1 F2400 E23.25176
G0 F3600 X86.537 Y73.074
G1 F2400 E24.05176
G1 F1800 X86.078 Y72.178 E24.10199
G1 X86.081 Y71.99 E24.11137
G1 X86.467 Y71.297 E24.15094
G1 X86.559 Y71.212 E24.15719
G1 X86.642 Y71.194 E24.16143
G1 X87.653 Y71.194 E24.21187
G1 X88.071 Y70.992 E24.23503
G1 X91.959 Y70.992 E24.429
G1 X92.379 Y71.195 E24.45227
G1 X93.361 Y71.195 E24.50127
G1 X93.48 Y71.234 E24.50751
G1 X93.924 Y72.005 E24.5519
G1 X93.926 Y72.194 E24.56133
G1 X93.463 Y73.077 E24.61107
G1 X93.373 Y73.164 E24.61732
G1 X92.61 Y73.184 E24.6554
G1 X92.163 Y72.983 E24.67985
G1 X91.442 Y72.983 E24.71582
G1 X90.568 Y72.628 E24.76288
G1 X90 Y72.559 E24.79143
G1 X89.457 Y72.612 E24.81865
G1 X88.905 Y72.821 E24.8481
G1 X88.573 Y72.982 E24.8665
G1 X87.834 Y72.982 E24.90337
G1 X87.391 Y73.183 E24.92764
G1 X86.715 Y73.183 E24.96137
G1 X86.596 Y73.144 E24.96762
G1 X86.537 Y73.074 E24.97218
G1 F2400 E24.17218
G0 F3600 X71.959 Y70.992
G1 F2400 E24.97218
G1 F1800 X72.379 Y71.195 E24.99546
G1 X73.359 Y71.195 E25.04435
G1 X73.478 Y71.234 E25.0506
G1 X73.923 Y72.004 E25.09497
G1 X73.925 Y72.194 E25.10445
G1 X73.463 Y73.077 E25.15416
G1 X73.374 Y73.164 E25.16037
G1 X72.61 Y73.184 E25.1985
G1 X72.163 Y72.983 E25.22295
G1 X71.442 Y72.983 E25.25893
G1 X70.568 Y72.628 E25.30599
G1 X70 Y72.559 E25.33454
G1 X69.457 Y72.612 E25.36175
G1 X68.905 Y72.821 E25.3912
G1 X68.573 Y72.982 E25.40961
G1 X67.834 Y72.982 E25.44648
G1 X67.391 Y73.183 E25.47075
G1 X66.714 Y73.183 E25.50452
G1 X66.595 Y73.144 E25.51077
G1 X66.536 Y73.074 E25.51534
G1 X66.078 Y72.181 E25.56541
G1 X66.081 Y71.993 E25.57479
G1 X66.464 Y71.298 E25.61438
G1 X66.555 Y71.213 E25.62059
G1 X66.639 Y71.195 E25.62488
G1 X67.645 Y71.195 E25.67507
G1 X68.044 Y70.992 E25.6974
G1 X71.959 Y70.992 E25.89272
G1 F2400 E25.09272
G0 F3600 X66.441 Y70.829
G1 F2400 E25.89272
G1 F1800 X66.639 Y70.795 E25.90275
G1 X67.536 Y70.795 E25.9475
G1 X67.739 Y70.675 E25.95926
G1 X68.044 Y70.592 E25.97503
G1 X71.959 Y70.592 E26.17035
G1 X72.248 Y70.666 E26.18524
G1 X72.482 Y70.795 E26.19857
G1 X73.359 Y70.795 E26.24232
G1 X73.574 Y70.835 E26.25323
G1 X73.76 Y70.948 E26.26409
G1 X73.885 Y71.105 E26.2741
G1 X74.274 Y71.811 E26.31432
G1 X74.342 Y72.018 E26.32519
G1 X74.333 Y72.236 E26.33607
G1 X73.818 Y73.262 E26.39334
G1 X73.683 Y73.434 E26.40425
G1 X73.496 Y73.546 E26.41513
G1 X73.286 Y73.584 E26.42578
G1 X72.61 Y73.584 E26.4595
G1 X72.34 Y73.52 E26.47334
G1 X72.068 Y73.383 E26.48854
G1 X71.442 Y73.383 E26.51977
G1 X71.145 Y73.304 E26.5351
G1 X70.943 Y73.189 E26.5467
G1 X70.475 Y73.019 E26.57154
G1 X69.996 Y72.962 E26.59561
G1 X69.548 Y73.005 E26.61806
G1 X69.08 Y73.182 E26.64302
G1 X68.875 Y73.301 E26.65485
G1 X68.573 Y73.382 E26.67045
G1 X67.919 Y73.382 E26.70308
G1 X67.666 Y73.517 E26.71738
G1 X67.391 Y73.583 E26.73149
G1 X66.714 Y73.583 E26.76527
G1 X66.499 Y73.543 E26.77618
G1 X66.313 Y73.43 E26.78704
G1 X66.18 Y73.257 E26.79792
G1 X65.722 Y72.364 E26.84799
G1 X65.66 Y72.155 E26.85887
G1 X65.676 Y71.937 E26.86977
G1 X66.114 Y71.105 E26.91668
G1 X66.252 Y70.937 E26.92753
G1 X66.441 Y70.829 E26.93839
G1 F2400 E26.13839
G0 F3600 X49.8 Y84.839
G0 X49.8 Y85.504
G1 F2400 E26.93839
G1 F1800 X49.839 Y85.385 E26.94464
G1 X50 Y85.304 E26.95363
G1 X150 Y85.304 E31.94265
G1 X150.119 Y85.343 E31.9489
G1 X150.2 Y85.504 E31.95789
G1 X150.2 Y133.259 E34.3404
G1 X150.161 Y133.378 E34.34664
G1 X150 Y133.459 E34.35564
G1 X50 Y133.46 E39.34466
G1 X49.881 Y133.421 E39.3509
G1 X49.8 Y133.26 E39.35989
G1 X49.8 Y85.504 E41.74245
G0 F3600 X49.4 Y85.504
G1 F1800 X49.44 Y85.289 E41.75336
G1 X49.553 Y85.103 E41.76422
G1 X49.726 Y84.97 E41.77511
G1 X50 Y84.904 E41.78917
G1 X150 Y84.904 E46.77819
G1 X150.215 Y84.944 E46.7891
G1 X150.401 Y85.057 E46.79996
G1 X150.534 Y85.23 E46.81084
G1 X150.6 Y85.504 E46.8249
G1 X150.6 Y133.259 E49.20741
G1 X150.56 Y133.474 E49.21832
G1 X150.447 Y133.66 E49.22918
G1 X150.274 Y133.793 E49.24007
G1 X150 Y133.859 E49.25413
G1 X50 Y133.86 E54.24315
G1 X49.785 Y133.82 E54.25406
G1 X49.599 Y133.707 E54.26491
G1 X49.466 Y133.534 E54.2758
G1 X49.4 Y133.26 E54.28986
G1 X49.4 Y85.504 E56.67242
G1 F2400 E55.87242
G0 F3600 X49.335 Y85.504
G0 X49.347 Y133.913
G0 X49.4 Y134.876
G1 F2400 E56.67242
G1 F1800 X49.44 Y134.661 E56.68333
G1 X49.553 Y134.475 E56.69419
G1 X49.726 Y134.342 E56.70507
G1 X50 Y134.276 E56.71914
G1 X150 Y134.275 E61.70816
G1 X150.215 Y134.315 E61.71907
G1 X150.401 Y134.428 E61.72992
G1 X150.534 Y134.601 E61.74081
G1 X150.6 Y134.875 E61.75487
G1 X150.6 Y138.507 E61.93607
G1 X150.56 Y138.722 E61.94698
G1 X150.447 Y138.908 E61.95784
G1 X150.274 Y139.041 E61.96873
G1 X150 Y139.107 E61.98279
G1 X102.1 Y139.107 E64.37253
G1 X102.1 Y140.007 E64.41743
G1 X102.06 Y140.222 E64.42834
G1 X101.947 Y140.408 E64.4392
G1 X101.774 Y140.541 E64.45009
G1 X101.5 Y140.607 E64.46415
G1 X98.5 Y140.607 E64.61382
G1 X98.285 Y140.567 E64.62473
G1 X98.099 Y140.454 E64.63559
G1 X97.966 Y140.281 E64.64647
G1 X97.9 Y140.007 E64.66053
G1 X97.9 Y139.107 E64.70543
G1 X50 Y139.107 E67.09517
G1 X49.785 Y139.067 E67.10609
G1 X49.599 Y138.954 E67.11694
G1 X49.466 Y138.781 E67.12783
G1 X49.4 Y138.507 E67.14189
G1 X49.4 Y134.876 E67.32304
G0 F3600 X49.8 Y134.876
G1 F1800 X49.839 Y134.757 E67.32929
G1 X50 Y134.676 E67.33828
G1 X150 Y134.675 E72.3273
G1 X150.119 Y134.714 E72.33355
G1 X150.2 Y134.875 E72.34254
G1 X150.2 Y138.507 E72.52374
G1 X150.161 Y138.626 E72.52999
G1 X150 Y138.707 E72.53898
G1 X101.864 Y138.707 E74.9405
G1 X101.7 Y138.871 E74.95207
G1 X101.7 Y140.007 E75.00874
G1 X101.661 Y140.126 E75.01499
G1 X101.5 Y140.207 E75.02398
G1 X98.5 Y140.207 E75.17365
G1 X98.381 Y140.168 E75.1799
G1 X98.3 Y140.007 E75.18889
G1 X98.3 Y138.871 E75.24557
G1 X98.136 Y138.707 E75.25714
G1 X50 Y138.707 E77.65865
G1 X49.881 Y138.668 E77.6649
G1 X49.8 Y138.507 E77.67389
G1 X49.8 Y134.876 E77.85504
G1 F2400 E77.05504
G0 F3600 X49.347 Y133.913
G0 X49.347 Y84.851
G0 X126.181 Y73.257
G1 F2400 E77.85504
G1 F1800 X125.722 Y72.361 E77.90527
G1 X125.659 Y72.152 E77.91616
G1 X125.676 Y71.934 E77.92707
G1 X126.118 Y71.102 E77.97407
G1 X126.257 Y70.934 E77.98495
G1 X126.447 Y70.827 E77.99583
G1 X126.642 Y70.794 E78.0057
G1 X127.555 Y70.794 E78.05125
G1 X127.941 Y70.606 E78.07267
G1 X128.071 Y70.592 E78.07919
G1 X131.959 Y70.592 E78.27316
G1 X132.248 Y70.666 E78.28805
G1 X132.482 Y70.795 E78.30138
G1 X133.359 Y70.795 E78.34513
G1 X133.574 Y70.835 E78.35604
G1 X133.76 Y70.948 E78.3669
G1 X133.885 Y71.105 E78.37691
G1 X134.274 Y71.811 E78.41713
G1 X134.342 Y72.018 E78.428
G1 X134.333 Y72.236 E78.43888
G1 X133.818 Y73.262 E78.49615
G1 X133.683 Y73.434 E78.50706
G1 X133.496 Y73.546 E78.51794
G1 X133.286 Y73.584 E78.52859
G1 X132.61 Y73.584 E78.56231
G1 X132.34 Y73.52 E78.57615
G1 X132.068 Y73.383 E78.59135
G1 X131.442 Y73.383 E78.62258
G1 X131.145 Y73.304 E78.63791
G1 X130.943 Y73.189 E78.64951
G1 X130.475 Y73.019 E78.67435
G1 X129.996 Y72.962 E78.69842
G1 X129.548 Y73.005 E78.72087
G1 X129.08 Y73.182 E78.74583
G1 X128.875 Y73.301 E78.75766
G1 X128.573 Y73.382 E78.77326
G1 X127.919 Y73.382 E78.80589
G1 X127.666 Y73.517 E78.82019
G1 X127.391 Y73.583 E78.8343
G1 X126.715 Y73.583 E78.86803
G1 X126.5 Y73.543 E78.87894
G1 X126.314 Y73.43 E78.8898
G1 X126.181 Y73.257 E78.90068
G0 F3600 X126.078 Y72.178
G1 F1800 X126.081 Y71.99 E78.91006
G1 X126.467 Y71.297 E78.94964
G1 X126.559 Y71.212 E78.95589
G1 X126.642 Y71.194 E78.96013
G1 X127.653 Y71.194 E79.01056
G1 X128.071 Y70.992 E79.03373
G1 X131.959 Y70.992 E79.2277
G1 X132.379 Y71.195 E79.25097
G1 X133.359 Y71.195 E79.29986
G1 X133.478 Y71.234 E79.30611
G1 X133.923 Y72.004 E79.35048
G1 X133.925 Y72.194 E79.35996
G1 X133.463 Y73.077 E79.40968
G1 X133.374 Y73.164 E79.41589
G1 X132.61 Y73.184 E79.45402
G1 X132.163 Y72.983 E79.47847
G1 X131.442 Y72.983 E79.51444
G1 X130.568 Y72.628 E79.5615
G1 X130 Y72.559 E79.59005
G1 X129.457 Y72.612 E79.61727
G1 X128.905 Y72.821 E79.64672
G1 X128.573 Y72.982 E79.66513
G1 X127.834 Y72.982 E79.70199
G1 X127.391 Y73.183 E79.72626
G1 X126.715 Y73.183 E79.75999
G1 X126.596 Y73.144 E79.76624
G1 X126.537 Y73.074 E79.7708
G1 X126.078 Y72.178 E79.82103
G0 F3600 X126.207 Y72.009
;TYPE:SUPPORT
G1 F1800 X133.787 Y72.009 E80.1992
G0 F3600 X133.35 Y71.315
G1 F1800 X133.35 Y73.034 E80.28496
G0 F3600 X130.683 Y72.541
G1 F1800 X130.683 Y71.112 E80.35625
G0 F3600 X128.016 Y71.119
G1 F1800 X128.016 Y72.862 E80.44321
G1 F2400 E79.64321
G0 F3600 X113.789 Y72.009
G1 F2400 E80.44321
G1 F1800 X106.207 Y72.009 E80.82148
G0 F3600 X106.68 Y71.314
G1 F1800 X106.68 Y73.063 E80.90874
G0 F3600 X109.347 Y72.526
G1 F1800 X109.347 Y71.112 E80.97928
G0 F3600 X112.014 Y71.12
G1 F1800 X112.014 Y72.863 E81.06624
G1 F2400 E80.26624
G0 F3600 X112.014 Y80.569
G1 F2400 E81.06624
G1 F1800 X112.014 Y84.224 E81.24859
G0 F3600 X109.347 Y84.224
G1 F1800 X109.347 Y80.569 E81.43094
G0 F3600 X106.68 Y80.569
G1 F1800 X106.68 Y84.224 E81.61329
G0 F3600 X104.013 Y84.224
G1 F1800 X104.013 Y80.569 E81.79564
G0 F3600 X101.579 Y80.01
G1 F1800 X98.419 Y80.01 E81.95329
G0 F3600 X98.679 Y79.647
G1 F1800 X98.679 Y84.224 E82.18164
G0 F3600 X96.012 Y84.224
G1 F1800 X96.012 Y80.568 E82.36403
G0 F3600 X93.345 Y80.568
G1 F1800 X93.345 Y84.224 E82.54643
G0 F3600 X90.678 Y84.224
G1 F1800 X90.678 Y80.568 E82.72883
G0 F3600 X88.011 Y80.568
G1 F1800 X88.011 Y84.224 E82.91123
G0 F3600 X85.344 Y84.224
G1 F1800 X85.344 Y80.568 E83.09363
G0 F3600 X82.677 Y80.568
G1 F1800 X82.677 Y84.224 E83.27603
G0 F3600 X80.01 Y84.224
G1 F1800 X80.01 Y80.568 E83.45843
G0 F3600 X77.343 Y80.568
G1 F1800 X77.343 Y84.224 E83.64082
G0 F3600 X74.676 Y84.224
G1 F1800 X74.676 Y80.568 E83.82322
G0 F3600 X72.009 Y80.568
G1 F1800 X72.009 Y84.224 E84.00562
G0 F3600 X69.342 Y84.224
G1 F1800 X69.342 Y80.568 E84.18802
G0 F3600 X66.675 Y80.568
