;FLAVOR:Marlin
;TIME:1667
;Filament used: 1.30539m
;Layer height: 0.15
;MINX:55.986
;MINY:90.4
;MINZ:0.3
;MAXX:144.014
;MAXY:110.014
;MAXZ:9.6
;Generated with Cura_SteamEngine 5.0.0
M140 S60
M105
M190 S60
M104 S210
M105
M109 S210
M82 ;absolute extrusion mode
G21 ;metric values
 G90 ;absolute positioning
 M82 ;set extruder to absolute mode
 M107 ;start with the fan off
 G28 X0 Y0 ;move X/Y to min endstops
 G28 Z0 ;move Z to min endstops
 G1 Z10.0 F120 ;move the platform down 10mm
 G92 E0 ;zero the extruded length
 G1 F200 E3 ;extrude 3 mm of feed stock
 G92 E0 ;zero the extruded length again
 G1 F120 
 ;Put printing message on LCD screen
 M117 Printing...
G92 E0
G92 E0
G1 F2400 E-1
;LAYER_COUNT:63
;LAYER:0
M107
G0 F3600 X58.131 Y90.938 Z0.3
G0 X55.986 Y97.902
;TYPE:SKIRT
G1 F2400 E0
G1 F3000 X55.997 Y97.184 E0.03583
G1 X56.028 Y96.766 E0.05674
G1 X56.196 Y95.496 E0.12065
G1 X56.438 Y93.552 E0.21838
G1 X56.546 Y93.026 E0.24517
G1 X56.73 Y92.523 E0.2719
G1 X56.987 Y92.052 E0.29866
G1 X57.311 Y91.625 E0.32541
G1 X57.696 Y91.251 E0.35218
G1 X58.131 Y90.938 E0.37892
G1 X58.608 Y90.693 E0.40567
G1 X59.116 Y90.521 E0.43243
G1 X59.908 Y90.41 E0.47233
G1 X60.33 Y90.4 E0.49339
G1 X139.345 Y90.4 E4.43546
G1 X140.043 Y90.41 E4.47029
G1 X140.577 Y90.458 E4.49704
G1 X141.098 Y90.584 E4.52378
G1 X141.595 Y90.787 E4.55057
G1 X142.056 Y91.061 E4.57732
G1 X142.471 Y91.4 E4.60406
G1 X142.831 Y91.798 E4.63083
G1 X143.128 Y92.244 E4.65756
G1 X143.356 Y92.73 E4.68435
G1 X143.508 Y93.244 E4.71109
G1 X143.562 Y93.556 E4.72688
G1 X143.968 Y96.752 E4.88761
G1 X144.01 Y97.417 E4.92086
G1 X144.014 Y97.627 E4.93134
G1 X143.992 Y99.302 E5.01491
G1 X143.958 Y100.524 E5.0759
G1 X143.958 Y103.248 E5.2118
G1 X144.014 Y105.723 E5.33531
G1 X144.005 Y106.45 E5.37158
G1 X143.958 Y106.984 E5.39833
G1 X143.833 Y107.505 E5.42506
G1 X143.631 Y108.002 E5.45182
G1 X143.358 Y108.464 E5.4786
G1 X143.02 Y108.88 E5.50534
G1 X142.623 Y109.241 E5.53211
G1 X142.177 Y109.539 E5.55887
G1 X141.692 Y109.767 E5.58561
G1 X141.178 Y109.921 E5.61237
G1 X140.506 Y110.004 E5.64616
G1 X140.084 Y110.014 E5.66722
G1 X136.091 Y110.014 E5.86643
G1 X135.394 Y110.004 E5.9012
G1 X135.149 Y109.992 E5.91344
G1 X132.659 Y109.786 E6.03809
G1 X129.982 Y109.635 E6.17186
G1 X127.217 Y109.558 E6.30986
G1 X124.341 Y109.561 E6.45335
G1 X121.873 Y109.6 E6.57649
G1 X113.491 Y109.597 E6.99467
G1 X112.432 Y109.582 E7.04751
G1 X110.29 Y109.521 E7.15442
G1 X107.572 Y109.521 E7.29002
G1 X105.941 Y109.571 E7.37143
G1 X104.093 Y109.6 E7.46364
G1 X95.711 Y109.597 E7.88182
G1 X94.652 Y109.582 E7.93465
G1 X92.51 Y109.521 E8.04156
G1 X89.792 Y109.521 E8.17716
G1 X88.161 Y109.571 E8.25857
G1 X86.313 Y109.6 E8.35078
G1 X77.929 Y109.597 E8.76906
G1 X76.065 Y109.57 E8.86207
G1 X75.538 Y109.555 E8.88837
G1 X72.844 Y109.555 E9.02277
G1 X70.079 Y109.633 E9.16077
G1 X67.381 Y109.786 E9.29559
G1 X64.655 Y110.004 E9.43203
G1 X64.234 Y110.014 E9.45304
G1 X60.241 Y110.014 E9.65225
G1 X59.543 Y110.004 E9.68708
G1 X59.009 Y109.956 E9.71383
G1 X58.488 Y109.83 E9.74057
G1 X57.991 Y109.627 E9.76735
G1 X57.53 Y109.353 E9.79411
G1 X57.115 Y109.014 E9.82084
G1 X56.755 Y108.616 E9.84762
G1 X56.458 Y108.17 E9.87435
G1 X56.23 Y107.684 E9.90113
G1 X56.078 Y107.17 E9.92787
G1 X55.996 Y106.472 E9.96294
G1 X55.986 Y105.878 E9.99257
G1 X56.008 Y104.339 E10.06936
G1 X56.042 Y103.137 E10.12936
G1 X56.042 Y100.414 E10.26521
G1 X55.986 Y97.902 E10.39056
G0 F3600 X56.386 Y97.908
G1 F3000 X56.397 Y97.19 E10.42639
G1 X56.425 Y96.819 E10.44495
G1 X56.594 Y95.545 E10.50907
G1 X56.661 Y94.962 E10.53834
G1 X56.835 Y93.603 E10.6067
G1 X56.939 Y93.108 E10.63193
G1 X57.119 Y92.635 E10.65718
G1 X57.371 Y92.197 E10.68239
G1 X57.689 Y91.805 E10.70757
G1 X58.066 Y91.467 E10.73284
G1 X58.49 Y91.192 E10.75805
G1 X58.953 Y90.988 E10.78329
G1 X59.442 Y90.86 E10.80851
G1 X60.24 Y90.801 E10.84843
G1 X139.339 Y90.8 E14.7947
G1 X140.037 Y90.81 E14.82952
G1 X140.54 Y90.857 E14.85473
G1 X141.03 Y90.983 E14.87997
G1 X141.494 Y91.185 E14.90522
G1 X141.92 Y91.457 E14.93043
G1 X142.298 Y91.792 E14.95563
G1 X142.618 Y92.183 E14.98084
G1 X142.873 Y92.62 E15.00608
G1 X143.056 Y93.091 E15.03129
G1 X143.165 Y93.607 E15.0576
G1 X143.571 Y96.803 E15.21833
G1 X143.611 Y97.435 E15.24993
G1 X143.593 Y99.243 E15.34013
G1 X143.558 Y100.513 E15.40352
G1 X143.558 Y103.257 E15.54041
G1 X143.614 Y105.718 E15.66323
G1 X143.605 Y106.445 E15.6995
G1 X143.559 Y106.948 E15.7247
G1 X143.434 Y107.438 E15.74993
G1 X143.233 Y107.902 E15.77516
G1 X142.962 Y108.329 E15.80039
G1 X142.627 Y108.708 E15.82562
G1 X142.237 Y109.029 E15.85082
G1 X141.801 Y109.285 E15.87605
G1 X141.33 Y109.468 E15.90126
G1 X140.836 Y109.576 E15.92648
G1 X140.174 Y109.613 E15.95956
G1 X136.097 Y109.614 E16.16297
G1 X135.4 Y109.604 E16.19774
G1 X135.182 Y109.593 E16.20863
G1 X132.715 Y109.389 E16.33213
G1 X129.978 Y109.235 E16.4689
G1 X127.229 Y109.158 E16.6061
G1 X124.335 Y109.161 E16.75048
G1 X121.873 Y109.2 E16.87333
G1 X113.497 Y109.197 E17.29121
G1 X112.443 Y109.182 E17.3438
G1 X110.301 Y109.121 E17.45071
G1 X107.593 Y109.121 E17.58581
G1 X105.935 Y109.171 E17.66856
G1 X104.093 Y109.2 E17.76047
G1 X95.717 Y109.197 E18.17835
G1 X94.663 Y109.182 E18.23094
G1 X92.521 Y109.121 E18.33785
G1 X89.813 Y109.121 E18.47295
G1 X88.155 Y109.171 E18.55571
G1 X86.313 Y109.2 E18.64762
G1 X77.935 Y109.197 E19.0656
G1 X76.076 Y109.17 E19.15835
G1 X75.549 Y109.155 E19.18466
G1 X72.832 Y109.155 E19.32021
G1 X70.08 Y109.233 E19.45756
G1 X67.325 Y109.389 E19.59523
G1 X64.644 Y109.604 E19.72941
G1 X64.234 Y109.614 E19.74988
G1 X60.247 Y109.614 E19.94879
G1 X59.549 Y109.604 E19.98361
G1 X59.046 Y109.557 E20.00882
G1 X58.556 Y109.431 E20.03406
G1 X58.092 Y109.229 E20.05931
G1 X57.666 Y108.957 E20.08452
G1 X57.288 Y108.622 E20.10972
G1 X56.968 Y108.231 E20.13493
G1 X56.713 Y107.794 E20.16017
G1 X56.53 Y107.323 E20.18538
G1 X56.423 Y106.829 E20.2106
G1 X56.387 Y105.99 E20.2525
G1 X56.408 Y104.35 E20.33432
G1 X56.442 Y103.148 E20.39431
G1 X56.442 Y100.405 E20.53116
G1 X56.386 Y97.908 E20.65577
G1 F2400 E19.65577
G0 F3600 X59.746 Y97.41
;TYPE:SUPPORT
G1 F2400 E20.65577
G1 F3000 X59.746 Y98.254 E20.69788
G1 X64.404 Y98.254 E20.93027
G1 X64.404 Y97.832 E20.95132
G1 X64.404 Y97.41 E20.97237
G1 X59.746 Y97.41 E21.20476
G1 F2400 E20.20476
G0 F3600 X64 Y97.57
G1 F2400 E21.20476
G1 F3000 X64 Y98.094 E21.2309
G1 F2400 E20.2309
G0 F3600 X59.347 Y101.347
G0 X59.347 Y105.203
G0 X59.746 Y105.41
G1 F2400 E21.2309
G1 F3000 X59.746 Y106.254 E21.27301
G1 X64.404 Y106.254 E21.5054
G1 X64.404 Y105.832 E21.52645
G1 X64.404 Y105.41 E21.54751
G1 X59.746 Y105.41 E21.7799
G1 F2400 E20.7799
G0 F3600 X64 Y105.57
G1 F2400 E21.7799
G1 F3000 X64 Y106.094 E21.80604
G1 F2400 E20.80604
G0 F3600 X67.247 Y106.653
G0 X132.753 Y106.654
G0 X135.596 Y105.41
G1 F2400 E21.80604
G1 F3000 X135.596 Y106.254 E21.84815
G1 X140.254 Y106.254 E22.08053
G1 X140.254 Y105.832 E22.10159
G1 X140.254 Y105.41 E22.12264
G1 X135.596 Y105.41 E22.35503
G0 F3600 X136 Y105.57
G1 F3000 X136 Y106.094 E22.38117
G0 F3600 X136.239 Y106.094
G1 F3000 X137.148 Y105.569 E22.43354
G1 F2400 E21.43354
G0 F3600 X140.653 Y105.203
G0 X140.653 Y101.347
G0 X135.596 Y97.41
G1 F2400 E22.43354
G1 F3000 X135.596 Y98.254 E22.47565
G1 X140.254 Y98.254 E22.70804
G1 X140.254 Y97.832 E22.72909
G1 X140.254 Y97.41 E22.75015
G1 X135.596 Y97.41 E22.98253
G0 F3600 X136 Y97.57
G1 F3000 X136 Y98.094 E23.00868
G0 F3600 X136.996 Y97.569
G1 F3000 X137.901 Y98.092 E23.06083
G1 F2400 E22.06083
;MESH:HarriettBox-Strips-Proto6.stl
G0 F3600 X132.753 Y98.654
G0 X130.858 Y98.657
G0 X123.298 Y98.361
G0 X122.537 Y97.572
G0 X108.877 Y96.149
G0 X67.9 Y95.94
G1 F2400 E23.06083
G0 F3600 X67.9 Y96.35
;TYPE:WALL-OUTER
G1 F3000 X68.015 Y96.385 E23.06682
G1 X68.096 Y96.507 E23.07413
G1 X68.1 Y97.8 E23.13864
G1 X69.276 Y97.8 E23.19731
G1 X69.769 Y97.451 E23.22744
G1 X70.215 Y97.188 E23.25327
G1 X70.644 Y96.972 E23.27724
G1 X71.29 Y96.725 E23.31174
G1 X71.954 Y96.545 E23.34606
G1 X72.638 Y96.437 E23.38061
G1 X73.329 Y96.4 E23.41514
G1 X74.017 Y96.437 E23.44951
G1 X74.702 Y96.544 E23.4841
G1 X75.346 Y96.717 E23.51737
G1 X75.994 Y96.963 E23.55195
G1 X76.604 Y97.269 E23.58599
G1 X77.372 Y97.797 E23.63249
G1 X87.056 Y97.8 E24.11563
G1 X87.467 Y97.505 E24.14087
G1 X87.812 Y97.28 E24.16142
G1 X88.424 Y96.972 E24.1956
G1 X89.07 Y96.725 E24.2301
G1 X89.734 Y96.545 E24.26443
G1 X90.418 Y96.437 E24.29897
G1 X91.109 Y96.4 E24.3335
G1 X91.797 Y96.437 E24.36787
G1 X92.482 Y96.544 E24.40246
G1 X93.126 Y96.717 E24.43573
G1 X93.774 Y96.963 E24.47031
G1 X94.384 Y97.269 E24.50436
G1 X95.151 Y97.797 E24.55081
G1 X104.836 Y97.8 E25.034
G1 X105.247 Y97.505 E25.05924
G1 X105.592 Y97.28 E25.07979
G1 X106.204 Y96.972 E25.11397
G1 X106.85 Y96.725 E25.14847
G1 X107.514 Y96.545 E25.1828
G1 X108.198 Y96.437 E25.21735
G1 X108.889 Y96.4 E25.25187
G1 X109.577 Y96.437 E25.28624
G1 X110.262 Y96.544 E25.32083
G1 X110.906 Y96.717 E25.3541
G1 X111.554 Y96.963 E25.38868
G1 X112.164 Y97.269 E25.42273
G1 X112.931 Y97.797 E25.46918
G1 X122.616 Y97.8 E25.95237
G1 X123.027 Y97.505 E25.97761
G1 X123.372 Y97.28 E25.99816
G1 X123.984 Y96.972 E26.03234
G1 X124.63 Y96.725 E26.06685
G1 X125.294 Y96.545 E26.10117
G1 X125.978 Y96.437 E26.13572
G1 X126.669 Y96.4 E26.17024
G1 X127.357 Y96.437 E26.20461
G1 X128.042 Y96.544 E26.2392
G1 X128.686 Y96.717 E26.27247
G1 X129.334 Y96.963 E26.30705
G1 X129.944 Y97.269 E26.3411
G1 X130.48 Y97.637 E26.37354
G1 X130.712 Y97.797 E26.3876
G1 X131.9 Y97.799 E26.44687
G1 X131.9 Y96.55 E26.50918
G1 X131.919 Y96.463 E26.51362
G1 X132.065 Y96.352 E26.52277
G1 X132.1 Y96.35 E26.52452
G1 X139.8 Y96.35 E26.90868
G1 X139.8 Y95.275 E26.96231
G1 X139.8 Y94.2 E27.01594
G1 X60.2 Y94.2 E30.9872
G1 X60.2 Y96.35 E31.09446
G1 X67.9 Y96.35 E31.47862
G0 F3600 X68.015 Y96.385
G0 X68.059 Y96.451
G0 X67.9 Y95.95
;TYPE:WALL-INNER
G1 F3000 X68.244 Y96.057 E31.49659
G1 X68.47 Y96.357 E31.51533
G1 X68.5 Y96.924 E31.54366
G1 X68.5 Y97.4 E31.5674
G1 X69.135 Y97.4 E31.59909
G1 X69.549 Y97.117 E31.6241
G1 X70.035 Y96.831 E31.65224
G1 X70.5 Y96.598 E31.67819
G1 X71.127 Y96.357 E31.7117
G1 X71.828 Y96.164 E31.74797
G1 X72.555 Y96.044 E31.78473
G1 X73.284 Y96 E31.82117
G1 X74.018 Y96.035 E31.85783
G1 X74.742 Y96.144 E31.89436
G1 X75.45 Y96.331 E31.93089
G1 X76.136 Y96.589 E31.96746
G1 X76.784 Y96.911 E32.00356
G1 X77.497 Y97.397 E32.04661
G1 X86.915 Y97.4 E32.51647
G1 X87.573 Y96.956 E32.55607
G1 X88.224 Y96.623 E32.59256
G1 X88.907 Y96.357 E32.62912
G1 X89.608 Y96.164 E32.6654
G1 X90.335 Y96.044 E32.70216
G1 X91.064 Y96 E32.7386
G1 X91.798 Y96.035 E32.77526
G1 X92.522 Y96.144 E32.81178
G1 X93.23 Y96.331 E32.84832
G1 X93.916 Y96.589 E32.88488
G1 X94.564 Y96.911 E32.92098
G1 X95.276 Y97.397 E32.96399
G1 X104.695 Y97.4 E33.43391
G1 X105.353 Y96.956 E33.47351
G1 X106.004 Y96.623 E33.50999
G1 X106.687 Y96.357 E33.54656
G1 X107.388 Y96.164 E33.58283
G1 X108.115 Y96.044 E33.61959
G1 X108.844 Y96 E33.65603
G1 X109.578 Y96.035 E33.69269
G1 X110.302 Y96.144 E33.72922
G1 X111.01 Y96.331 E33.76575
G1 X111.696 Y96.589 E33.80232
G1 X112.344 Y96.911 E33.83842
G1 X113.056 Y97.397 E33.88143
G1 X122.475 Y97.4 E34.35134
G1 X123.133 Y96.956 E34.39094
G1 X123.784 Y96.623 E34.42742
G1 X124.467 Y96.357 E34.46399
G1 X125.168 Y96.164 E34.50027
G1 X125.895 Y96.044 E34.53703
G1 X126.624 Y96 E34.57346
G1 X127.358 Y96.035 E34.61012
G1 X128.082 Y96.144 E34.64665
G1 X128.79 Y96.331 E34.68319
G1 X129.476 Y96.589 E34.71975
G1 X129.966 Y96.832 E34.74704
G1 X130.426 Y97.113 E34.77393
G1 X130.837 Y97.397 E34.79885
G1 X131.5 Y97.398 E34.83193
G1 X131.5 Y96.55 E34.87424
G1 X131.559 Y96.289 E34.88759
G1 X131.756 Y96.057 E34.90277
G1 X132.1 Y95.95 E34.92075
G1 X139.4 Y95.95 E35.28494
G1 X139.4 Y95.275 E35.31862
G1 X139.4 Y94.6 E35.3523
G1 X60.6 Y94.6 E39.28364
G1 X60.6 Y95.95 E39.351
G1 X67.9 Y95.95 E39.71519
G0 F3600 X68.756 Y96.085
;TYPE:SKIN
G1 F3000 X68.881 Y96.548 E39.73912
G1 X68.881 Y97.019 E39.76262
G1 X69.028 Y97.003 E39.77
G1 X69.679 Y96.583 E39.80865
G1 X70.363 Y96.243 E39.84676
G1 X71.087 Y95.97 E39.88536
G1 X71.59 Y95.835 E39.91134
G1 F2419.4 X71.918 Y95.663 E39.93425
G1 F2116.4 X72.564 Y95.59 E39.98023
G1 F2259.9 X73.376 Y95.56 E40.03404
G1 F2255.6 X74.151 Y95.594 E40.08552
G1 F2116.4 X74.712 Y95.662 E40.12548
G1 F2429.1 X75.041 Y95.827 E40.14816
G1 F3000 X75.645 Y95.996 E40.17945
G1 X76.365 Y96.275 E40.21797
G1 X77.05 Y96.628 E40.25642
G1 X77.615 Y97.017 E40.29064
G1 X86.786 Y97.019 E40.74819
G1 X87.44 Y96.594 E40.7871
G1 X88.124 Y96.251 E40.82527
G1 X88.848 Y95.976 E40.86391
G1 X89.37 Y95.835 E40.89089
G1 F2419.4 X89.698 Y95.663 E40.9138
G1 F2116.4 X90.344 Y95.59 E40.95978
G1 F2259.9 X91.156 Y95.56 E41.01359
G1 F2255.6 X91.931 Y95.594 E41.06506
G1 F2116.4 X92.492 Y95.662 E41.10503
G1 F2429.1 X92.821 Y95.827 E41.12771
G1 F3000 X93.425 Y95.996 E41.159
G1 X94.145 Y96.275 E41.19752
G1 X94.854 Y96.641 E41.23733
G1 X95.394 Y97.017 E41.27016
G1 X104.566 Y97.019 E41.72775
G1 X105.22 Y96.594 E41.76666
G1 X105.904 Y96.251 E41.80484
G1 X106.628 Y95.976 E41.84347
G1 X107.15 Y95.835 E41.87045
G1 F2419.4 X107.478 Y95.663 E41.89336
G1 F2116.4 X108.124 Y95.59 E41.93934
G1 F2259.9 X108.936 Y95.56 E41.99315
G1 F2255.6 X109.711 Y95.594 E42.04463
G1 F2116.4 X110.272 Y95.662 E42.08459
G1 F2429.1 X110.601 Y95.827 E42.10727
G1 F3000 X111.205 Y95.996 E42.13856
G1 X111.925 Y96.275 E42.17708
G1 X112.634 Y96.641 E42.21689
G1 X113.174 Y97.017 E42.24972
G1 X122.346 Y97.019 E42.70731
G1 X123 Y96.594 E42.74622
G1 X123.684 Y96.251 E42.7844
G1 X124.408 Y95.976 E42.82304
G1 X124.93 Y95.835 E42.85001
G1 F2419.4 X125.258 Y95.663 E42.87293
G1 F2116.4 X125.904 Y95.59 E42.9189
G1 F2259.9 X126.716 Y95.56 E42.97272
G1 F2255.6 X127.491 Y95.594 E43.02419
G1 F2116.4 X128.052 Y95.662 E43.06415
G1 F2429.1 X128.381 Y95.827 E43.08683
G1 F3000 X128.985 Y95.996 E43.11812
G1 X129.705 Y96.275 E43.15665
G1 X130.395 Y96.63 E43.19536
G1 X130.955 Y97.017 E43.22932
G1 X131.12 Y97.017 E43.23755
G1 X131.154 Y96.326 E43.27207
G1 X131.204 Y96.167 E43.28038
G1 X131.577 Y95.724 E43.30927
G1 F2666.7 X131.944 Y95.531 E43.33255
G1 F2409.6 X132.104 Y95.523 E43.3425
G1 F2424.2 X138.973 Y95.523 E43.76658
G1 X138.973 Y95.275 E43.7819
G1 X138.973 Y95.027 E43.79721
G1 X132.065 Y95.028 E44.2237
G1 F2684.6 X131.43 Y94.981 E44.2592
G1 F3000 X128.496 Y94.981 E44.40558
G1 F2429.1 X128.099 Y95.075 E44.43072
G1 F2116.4 X127.534 Y95.052 E44.47071
G1 F2255.6 X126.674 Y95.04 E44.52778
G1 F2259.9 X125.864 Y95.051 E44.58143
G1 F2116.4 X125.214 Y95.075 E44.62742
G1 F2419.4 X124.817 Y94.98 E44.65268
G1 F3000 X110.716 Y94.981 E45.35618
G1 F2429.1 X110.319 Y95.075 E45.38132
G1 F2116.4 X109.754 Y95.052 E45.42131
G1 F2255.6 X108.894 Y95.04 E45.47838
G1 F2259.9 X108.084 Y95.051 E45.53203
G1 F2116.4 X107.434 Y95.075 E45.57803
G1 F2419.4 X107.037 Y94.98 E45.60328
G1 F3000 X92.936 Y94.981 E46.30678
G1 F2429.1 X92.539 Y95.075 E46.33192
G1 F2116.4 X91.974 Y95.052 E46.37191
G1 F2255.6 X91.114 Y95.04 E46.42898
G1 F2259.9 X90.304 Y95.051 E46.48263
G1 F2116.4 X89.654 Y95.075 E46.52863
G1 F2419.4 X89.257 Y94.98 E46.55388
G1 F3000 X75.156 Y94.981 E47.25738
G1 F2429.1 X74.759 Y95.075 E47.28252
G1 F2116.4 X74.194 Y95.052 E47.32251
G1 F2255.6 X73.334 Y95.04 E47.37958
G1 F2259.9 X72.524 Y95.051 E47.43323
G1 F2116.4 X71.874 Y95.075 E47.47923
G1 F2419.4 X71.477 Y94.98 E47.50448
G1 F3000 X68.517 Y94.98 E47.65216
G1 F2684.6 X67.897 Y95.027 E47.68682
G1 F2424.2 X61.027 Y95.027 E48.11097
G1 X61.027 Y95.523 E48.14159
G1 X67.897 Y95.523 E48.56574
G1 F2684.6 X68.406 Y95.717 E48.59611
G1 F3000 X68.756 Y96.085 E48.62145
G0 F3600 X68.117 Y95.269
G1 F3000 X68.26 Y95.413 E48.63157
