;FLAVOR:Marlin
;TIME:2975
;Filament used: 3.70807m
;Layer height: 0.15
;MINX:43.275
;MINY:66.275
;MINZ:0.3
;MAXX:156.725
;MAXY:133.725
;MAXZ:2.7
;Generated with Cura_SteamEngine 5.0.0
M140 S60
M105
M190 S60
M104 S210
M105
M109 S210
M82 ;absolute extrusion mode
G21 ;metric values
 G90 ;absolute positioning
 M82 ;set extruder to absolute mode
 M107 ;start with the fan off
 G28 X0 Y0 ;move X/Y to min endstops
 G28 Z0 ;move Z to min endstops
 G1 Z10.0 F120 ;move the platform down 10mm
 G92 E0 ;zero the extruded length
 G1 F200 E3 ;extrude 3 mm of feed stock
 G92 E0 ;zero the extruded length again
 G1 F120 
 ;Put printing message on LCD screen
 M117 Printing...
G92 E0
G92 E0
G1 F2400 E-1
;LAYER_COUNT:17
;LAYER:0
M107
G0 F3600 X44.655 Y66.858 Z0.3
G0 X43.275 Y70.106
;TYPE:SKIRT
G1 F2400 E0
G1 F3000 X43.284 Y69.441 E0.03318
G1 X43.331 Y68.937 E0.05843
G1 X43.457 Y68.448 E0.08363
G1 X43.658 Y67.984 E0.10885
G1 X43.929 Y67.557 E0.13409
G1 X44.264 Y67.179 E0.15928
G1 X44.655 Y66.858 E0.18452
G1 X45.092 Y66.603 E0.20977
G1 X45.563 Y66.419 E0.23499
G1 X46.057 Y66.313 E0.2602
G1 X46.715 Y66.276 E0.29308
G1 X152.864 Y66.275 E5.58888
G1 X153.562 Y66.285 E5.6237
G1 X154.065 Y66.332 E5.64891
G1 X154.555 Y66.458 E5.67415
G1 X155.019 Y66.66 E5.6994
G1 X155.445 Y66.932 E5.72461
G1 X155.823 Y67.267 E5.74981
G1 X156.143 Y67.658 E5.77502
G1 X156.398 Y68.095 E5.80026
G1 X156.581 Y68.566 E5.82547
G1 X156.688 Y69.06 E5.85069
G1 X156.724 Y69.715 E5.88341
G1 X156.725 Y129.829 E8.88251
G1 X156.716 Y130.556 E8.91879
G1 X156.67 Y131.059 E8.94399
G1 X156.545 Y131.549 E8.96921
G1 X156.344 Y132.013 E8.99444
G1 X156.073 Y132.44 E9.01967
G1 X155.738 Y132.819 E9.04491
G1 X155.348 Y133.14 E9.07011
G1 X154.912 Y133.396 E9.09533
G1 X154.441 Y133.579 E9.12054
G1 X153.947 Y133.687 E9.14577
G1 X153.285 Y133.724 E9.17885
G1 X47.141 Y133.725 E14.4744
G1 X46.443 Y133.716 E14.50922
G1 X45.939 Y133.669 E14.53448
G1 X45.449 Y133.544 E14.55971
G1 X44.985 Y133.343 E14.58493
G1 X44.559 Y133.072 E14.61012
G1 X44.18 Y132.737 E14.63536
G1 X43.859 Y132.346 E14.6606
G1 X43.604 Y131.91 E14.6858
G1 X43.42 Y131.439 E14.71102
G1 X43.313 Y130.945 E14.73624
G1 X43.276 Y130.269 E14.77002
G1 X43.275 Y70.106 E17.77156
G1 F2400 E16.77156
;MESH:HarriettBox-Back-Proto6.stl
G0 F3600 X45.81 Y70.106
G0 X46.905 Y70.106
G1 F2400 E17.77156
G0 F3600 X46.675 Y69.675
;TYPE:WALL-OUTER
G1 F3000 X46.675 Y130.325 E20.7974
G1 X153.325 Y130.325 E26.11819
G1 X153.325 Y70.49 E29.10337
G1 X153.325 Y69.675 E29.14403
G1 X46.675 Y69.675 E34.46482
G0 F3600 X46.675 Y69.875
G0 X47.055 Y70.055
G0 X47.224 Y72.189
G0 X47.631 Y72.142
G1 F3000 X47.724 Y71.558 E34.49433
G1 X48.008 Y71.099 E34.52126
G1 X48.288 Y70.858 E34.53969
G1 X48.555 Y70.724 E34.55459
G1 X49.075 Y70.625 E34.581
G1 F3007.5 X49.397 Y70.665 E34.59715
G1 X49.908 Y70.892 E34.62497
G1 F3000 X50.28 Y71.279 E34.65176
G1 X50.493 Y71.781 E34.67896
G1 X50.52 Y72.089 E34.69439
G1 X50.426 Y72.591 E34.71987
G1 X50.143 Y73.05 E34.74677
G1 X49.862 Y73.292 E34.76527
G1 X49.595 Y73.426 E34.78017
G1 X49.115 Y73.522 E34.8046
G1 X48.555 Y73.426 E34.83294
G1 X48.079 Y73.126 E34.86101
G1 X47.766 Y72.688 E34.88787
G1 X47.631 Y72.142 E34.91593
G0 F3600 X47.662 Y71.945
G0 X47.232 Y71.91
G0 X47.224 Y128.039
G0 X47.631 Y127.992
G1 F3000 X47.657 Y127.62 E34.93454
G1 X47.753 Y127.334 E34.94959
G1 X48.046 Y126.907 E34.97542
G1 X48.288 Y126.708 E34.99105
G1 X48.555 Y126.574 E35.00596
G1 X49.095 Y126.475 E35.03335
G1 X49.397 Y126.514 E35.04854
G1 X49.867 Y126.711 E35.07396
G1 X49.884 Y126.722 E35.07497
G1 X50.248 Y127.077 E35.10034
G1 X50.477 Y127.574 E35.12764
G1 X50.52 Y127.939 E35.14598
G1 X50.426 Y128.441 E35.17146
G1 X50.143 Y128.901 E35.1984
G1 X49.862 Y129.142 E35.21687
G1 X49.595 Y129.276 E35.23178
G1 X49.075 Y129.375 E35.25819
G1 X48.555 Y129.276 E35.28459
G1 X48.079 Y128.976 E35.31266
G1 X47.766 Y128.538 E35.33952
G1 X47.631 Y127.992 E35.36758
G0 F3600 X47.644 Y127.792
G0 X47.232 Y127.759
G0 X47.563 Y126.953
G0 X48.07 Y126.429
G0 X48.724 Y126.157
G0 X149.074 Y128.039
G0 X149.481 Y127.992
G1 F3000 X149.507 Y127.62 E35.38619
G1 X149.604 Y127.334 E35.40125
G1 X149.883 Y126.918 E35.42624
G1 X150.138 Y126.708 E35.44273
G1 X150.405 Y126.574 E35.45763
G1 X150.945 Y126.475 E35.48502
G1 X151.247 Y126.514 E35.50021
G1 X151.758 Y126.742 E35.52813
G1 X152.131 Y127.128 E35.55491
G1 X152.343 Y127.631 E35.58214
G1 X152.371 Y127.937 E35.59747
G1 X152.276 Y128.441 E35.62306
G1 X151.993 Y128.9 E35.64996
G1 X151.712 Y129.142 E35.66846
G1 X151.445 Y129.276 E35.68337
G1 X150.925 Y129.375 E35.70977
G1 X150.405 Y129.276 E35.73618
G1 X149.929 Y128.976 E35.76425
G1 X149.617 Y128.538 E35.79108
G1 X149.481 Y127.992 E35.81916
G0 F3600 X149.494 Y127.792
G0 X149.082 Y127.759
G0 X149.074 Y72.189
G0 X149.481 Y72.142
G1 F3000 X149.574 Y71.558 E35.84866
G1 X149.857 Y71.099 E35.87556
G1 X150.138 Y70.858 E35.89403
G1 X150.405 Y70.724 E35.90893
G1 X150.925 Y70.625 E35.93534
G1 F3007.5 X151.247 Y70.665 E35.95149
G1 X151.758 Y70.892 E35.97932
G1 F3000 X152.131 Y71.278 E36.0061
G1 X152.343 Y71.781 E36.03333
G1 X152.371 Y72.087 E36.04866
G1 X152.276 Y72.591 E36.07425
G1 X151.993 Y73.05 E36.10115
G1 X151.712 Y73.292 E36.11965
G1 X151.445 Y73.426 E36.13455
G1 X150.885 Y73.522 E36.1629
G1 X150.375 Y73.417 E36.18888
G1 X149.929 Y73.126 E36.21545
G1 X149.617 Y72.688 E36.24228
G1 X149.481 Y72.142 E36.27035
G0 F3600 X149.512 Y71.945
G0 X149.082 Y71.91
G0 X149.413 Y71.103
G0 X149.869 Y70.632
G0 X150.791 Y70.157
;TYPE:WALL-INNER
G1 F2109 X151.237 Y70.164 E36.302
G0 F3600 X152.241 Y70.758
G0 X152.219 Y70.785
G1 F3000 X152.497 Y71.116 E36.32357
G1 F2434.1 X152.832 Y71.724 E36.36625
G1 X152.925 Y71.026 E36.40955
G1 F3000 X152.925 Y70.49 E36.43629
G1 X152.925 Y70.075 E36.457
G1 X151.929 Y70.075 E36.50669
G1 F2459 X151.237 Y70.164 E36.54916
G1 X151.848 Y70.48 E36.59102
G1 F3000 X152.219 Y70.785 E36.61499
G0 F3600 X152.241 Y70.758
G0 X152.832 Y71.724
G1 F2090.6 X152.844 Y72.169 E36.64686
G0 F3600 X152.437 Y73.047
G0 X151.93 Y73.571
G0 X151.276 Y73.843
G0 X50.9 Y71.735
G0 X50.89 Y71.735
G1 F3000 X50.913 Y72.163 E36.66824
G1 X50.819 Y72.665 E36.69372
G1 X50.731 Y72.884 E36.70549
G1 X50.436 Y73.325 E36.73197
G1 X50.052 Y73.644 E36.75687
G1 X49.673 Y73.818 E36.77768
G1 X49.193 Y73.914 E36.8021
G1 X48.957 Y73.914 E36.81387
G1 X48.477 Y73.818 E36.83829
G1 X48.261 Y73.729 E36.84995
G1 X47.857 Y73.458 E36.87422
G1 X47.693 Y73.295 E36.88576
G1 X47.434 Y72.912 E36.90882
G1 F2531.6 X47.168 Y72.244 E36.95133
G1 F2162.2 X47.156 Y72.215 E36.9535
G1 F2494.8 X47.076 Y72.736 E36.98513
G1 F3000 X47.076 Y80.521 E37.37352
G1 X47.076 Y88.306 E37.76192
G1 X47.076 Y96.091 E38.15031
G1 X47.076 Y103.876 E38.53871
G1 X47.076 Y111.661 E38.9271
G1 X47.076 Y119.446 E39.3155
G1 X47.075 Y127.231 E39.70389
G1 F2459 X47.163 Y127.623 E39.72835
G1 X47.419 Y127.114 E39.76302
G1 F3000 X47.788 Y126.601 E39.79455
G1 X48.098 Y126.356 E39.81426
G1 X48.477 Y126.182 E39.83507
G1 X49.134 Y126.077 E39.86826
G1 X49.551 Y126.144 E39.88933
G1 X50.065 Y126.363 E39.91721
G1 X50.519 Y126.782 E39.94803
G1 X50.646 Y126.967 E39.95923
G1 X50.89 Y127.585 E39.99237
G1 X50.913 Y128.013 E40.01376
G1 X50.819 Y128.515 E40.03924
G1 X50.731 Y128.734 E40.05101
G1 X50.362 Y129.25 E40.08266
G1 X50.052 Y129.495 E40.10238
G1 F2494.8 X49.209 Y129.843 E40.15709
G1 X49.698 Y129.925 E40.18684
G1 F3000 X51.372 Y129.924 E40.27035
G1 X142.611 Y129.925 E44.82228
G1 X150.302 Y129.925 E45.20599
G1 F2494.8 X150.791 Y129.843 E45.23574
G1 X150.111 Y129.578 E45.27952
G1 F3000 X149.707 Y129.308 E45.30376
G1 X149.543 Y129.145 E45.3153
G1 X149.285 Y128.762 E45.33834
G1 X149.197 Y128.557 E45.34947
G1 X149.078 Y127.899 E45.38283
G1 X149.125 Y127.502 E45.40277
G1 X149.27 Y127.114 E45.42344
G1 X149.564 Y126.675 E45.4498
G1 X149.948 Y126.356 E45.4747
G1 X150.327 Y126.182 E45.49551
G1 X150.984 Y126.077 E45.5287
G1 X151.401 Y126.144 E45.54977
G1 X151.848 Y126.33 E45.57393
G1 X152.039 Y126.457 E45.58537
G1 X152.369 Y126.782 E45.60848
G1 F2708.8 X152.733 Y127.394 E45.64782
G1 F2238.8 X152.832 Y127.574 E45.66156
G1 F2434.1 X152.925 Y126.876 E45.70485
G1 F3000 X152.925 Y72.688 E48.4083
G1 F2505.2 X152.843 Y72.177 E48.43922
G1 X152.67 Y72.665 E48.47016
G1 F3000 X152.581 Y72.884 E48.48195
G1 X152.212 Y73.399 E48.51356
G1 X151.902 Y73.644 E48.53327
G1 X151.523 Y73.818 E48.55408
G1 X151.043 Y73.914 E48.5785
G1 X150.807 Y73.914 E48.59027
G1 X150.236 Y73.792 E48.6194
G1 X149.707 Y73.458 E48.65062
G1 X149.543 Y73.295 E48.66215
G1 X149.238 Y72.828 E48.68998
G1 X149.091 Y72.228 E48.7208
G1 X149.087 Y71.987 E48.73282
G1 X149.181 Y71.484 E48.75835
G1 X149.27 Y71.264 E48.77019
G1 X149.638 Y70.75 E48.80173
G1 X149.948 Y70.505 E48.82144
G1 F2494.8 X150.791 Y70.157 E48.87616
G1 X150.302 Y70.075 E48.9059
G1 F3000 X50.079 Y70.075 E53.90605
G1 F2459 X49.387 Y70.164 E53.94852
G1 X49.998 Y70.48 E53.99038
G1 F3000 X50.189 Y70.607 E54.00183
G1 X50.519 Y70.932 E54.02494
G1 X50.646 Y71.117 E54.03613
G1 X50.89 Y71.735 E54.06928
G0 F3600 X50.9 Y71.735
G0 X50.554 Y71.05
G0 X49.387 Y70.164
G1 F2109 X48.941 Y70.157 E54.10094
G0 F3600 X47.756 Y70.767
G0 X47.761 Y70.775
G1 F3000 X48.098 Y70.505 E54.12248
G1 F2494.8 X48.941 Y70.157 E54.17719
G1 X48.452 Y70.075 E54.20694
G1 F3000 X47.075 Y70.075 E54.27564
G1 X47.075 Y71.461 E54.34479
G1 F2494.8 X47.157 Y71.973 E54.37589
G1 X47.33 Y71.484 E54.40701
G1 F3000 X47.419 Y71.264 E54.41885
G1 X47.761 Y70.775 E54.44862
G0 F3600 X47.756 Y70.767
G0 X47.157 Y71.973
G1 F2135.2 X47.156 Y72.215 E54.46559
G0 F3600 X47.163 Y127.623
G1 F2109 X47.156 Y128.065 E54.49696
G0 F3600 X47.759 Y129.242
G0 X47.766 Y129.234
G1 F3000 X47.434 Y128.762 E54.52575
G1 F2531.6 X47.168 Y128.094 E54.56826
G1 F2162.2 X47.156 Y128.065 E54.57043
G1 F2494.8 X47.076 Y128.586 E54.60205
G1 F3000 X47.075 Y129.925 E54.66885
G1 X48.452 Y129.925 E54.73755
G1 F2494.8 X48.941 Y129.843 E54.7673
G1 X48.261 Y129.578 E54.81108
G1 F3000 X47.766 Y129.234 E54.84116
G0 F3600 X47.759 Y129.242
G0 X48.941 Y129.843
G1 F2135.2 X49.209 Y129.843 E54.85994
G0 F3600 X150.791 Y129.843
G1 F2135.2 X151.059 Y129.843 E54.87873
G0 F3600 X152.244 Y129.233
G0 X152.239 Y129.225
G1 F3000 X151.902 Y129.495 E54.90027
G1 F2494.8 X151.059 Y129.843 E54.95499
G1 X151.548 Y129.925 E54.98473
G1 F3000 X152.925 Y129.925 E55.05343
G1 X152.925 Y128.538 E55.12263
G1 F2505.2 X152.843 Y128.027 E55.15355
G1 X152.67 Y128.515 E55.18448
G1 F3000 X152.581 Y128.734 E55.19627
G1 X152.239 Y129.225 E55.22613
G0 F3600 X152.244 Y129.233
G0 X152.844 Y128.019
G1 F2090.6 X152.832 Y127.574 E55.258
G0 F3600 X152.545 Y129.467
;TYPE:SKIN
G1 F2631.6 X152.489 Y129.467 E55.26118
G1 X152.461 Y129.516 E55.26439
G1 X152.489 Y129.565 E55.2676
G1 X152.545 Y129.565 E55.27079
G1 X152.574 Y129.516 E55.27402
G0 F3600 X150.925 Y129.727
G0 X150.304 Y129.603
G0 X51.256 Y71.64
G1 F3000 X51.29 Y72.186 E55.30132
G1 X51.19 Y72.749 E55.32985
G1 X51.047 Y73.095 E55.34852
G1 X50.728 Y73.568 E55.37699
G1 X50.277 Y73.949 E55.40644
G1 X49.805 Y74.174 E55.43253
G1 X49.265 Y74.287 E55.46005
G1 X48.885 Y74.287 E55.47901
G1 X48.362 Y74.179 E55.50565
G1 X48.051 Y74.046 E55.52253
G1 X47.617 Y73.752 E55.54868
G1 X47.457 Y73.592 E55.55997
G1 X47.456 Y118.688 E57.80982
G1 X47.456 Y126.416 E58.19537
G1 X47.777 Y126.115 E58.21732
G1 X48.188 Y125.885 E58.24082
G1 X48.875 Y125.715 E58.27613
G1 X49.404 Y125.722 E58.30252
G1 X50.141 Y125.977 E58.34143
G1 X50.412 Y126.147 E58.35739
G1 X50.796 Y126.522 E58.38417
G1 X50.998 Y126.824 E58.4023
G1 X51.256 Y127.489 E58.43788
G1 X51.29 Y128.035 E58.46518
G1 X51.194 Y128.584 E58.49298
G1 X51.046 Y128.949 E58.51263
G1 X50.643 Y129.505 E58.54689
G1 X50.603 Y129.543 E58.54964
G1 X143.442 Y129.544 E63.1814
G1 X147.332 Y129.543 E63.37547
G1 X149.409 Y129.543 E63.47909
G1 X149.225 Y129.356 E63.49218
G1 X148.952 Y128.942 E63.51692
G1 X148.822 Y128.627 E63.53392
G1 X148.701 Y127.92 E63.56971
G1 X148.766 Y127.375 E63.59709
G1 X148.954 Y126.903 E63.62244
G1 X149.273 Y126.431 E63.65086
G1 X149.723 Y126.051 E63.68025
G1 X150.195 Y125.826 E63.70633
G1 X150.735 Y125.713 E63.73386
G1 X151.254 Y125.722 E63.75975
G1 X151.981 Y125.972 E63.79811
G1 X152.309 Y126.186 E63.81765
G1 X152.545 Y126.422 E63.8343
G1 X152.545 Y73.581 E66.47055
G1 X152.224 Y73.883 E66.49254
G1 X151.828 Y74.109 E66.51528
G1 X151.125 Y74.285 E66.55144
G1 X150.726 Y74.285 E66.57134
G1 X150.032 Y74.115 E66.60699
G1 X149.495 Y73.776 E66.63868
G1 X149.225 Y73.503 E66.65783
G1 X148.908 Y73.016 E66.68682
G1 X148.721 Y72.32 E66.72278
G1 X148.713 Y71.92 E66.74274
G1 X148.806 Y71.417 E66.76826
G1 X148.958 Y71.046 E66.78826
G1 X149.357 Y70.495 E66.8222
G1 X149.397 Y70.457 E66.82495
G1 X50.579 Y70.456 E71.755
G1 X50.808 Y70.687 E71.77123
G1 X51 Y70.975 E71.7885
G1 X51.256 Y71.64 E71.82405
G0 F3600 X47.806 Y125.87
G1 F3000 X47.656 Y125.72 E71.83463
G0 F3600 X48.181 Y125.68
G1 F3000 X47.656 Y125.155 E71.87167
G0 F3600 X47.656 Y124.589
G1 F3000 X48.642 Y125.575 E71.94124
G0 F3600 X49.154 Y125.522
G1 F3000 X47.656 Y124.023 E72.04697
G0 F3600 X47.656 Y123.458
G1 F3000 X49.86 Y125.662 E72.20247
G1 X49.93 Y125.732
G0 F3600 X51.315 Y127.117
G1 F3000 X53.54 Y129.341 E72.35942
G0 F3600 X54.105 Y129.341
G1 F3000 X47.656 Y122.892 E72.81444
G0 F3600 X47.656 Y122.326
G1 F3000 X54.671 Y129.341 E73.30938
G0 F3600 X55.237 Y129.341
G1 F3000 X47.656 Y121.76 E73.84426
G0 F3600 X47.656 Y121.195
G1 F3000 X55.802 Y129.341 E74.41901
G0 F3600 X56.368 Y129.341
G1 F3000 X47.656 Y120.629 E75.03368
G0 F3600 X47.656 Y120.063
G1 F3000 X56.934 Y129.341 E75.6883
G0 F3600 X57.499 Y129.341
G1 F3000 X47.656 Y119.498 E76.38277
G0 F3600 X47.656 Y118.932
G1 F3000 X58.065 Y129.341 E77.11719
G0 F3600 X58.631 Y129.341
G1 F3000 X47.656 Y118.366 E77.89153
G0 F3600 X47.656 Y117.801
G1 F3000 X59.196 Y129.341 E78.70574
G0 F3600 X59.762 Y129.341
G1 F3000 X47.656 Y117.235 E79.55988
G0 F3600 X47.656 Y116.669
G1 F3000 X60.328 Y129.341 E80.45396
G0 F3600 X60.893 Y129.341
G1 F3000 X47.656 Y116.104 E81.3879
G0 F3600 X47.656 Y115.538
G1 F3000 X61.459 Y129.341 E82.36178
G0 F3600 X62.025 Y129.341
G1 F3000 X47.656 Y114.972 E83.37559
G0 F3600 X47.656 Y114.407
G1 F3000 X62.59 Y129.341 E84.42927
G0 F3600 X63.156 Y129.341
G1 F3000 X47.656 Y113.841 E85.52287
G0 F3600 X47.656 Y113.275
G1 F3000 X63.722 Y129.341 E86.65642
G0 F3600 X64.288 Y129.341
G1 F3000 X47.656 Y112.709 E87.82989
G0 F3600 X47.656 Y112.144
G1 F3000 X64.853 Y129.341 E89.04324
G0 F3600 X65.419 Y129.341
G1 F3000 X47.656 Y111.578 E90.29651
G0 F3600 X47.656 Y111.012
G1 F3000 X65.985 Y129.341 E91.58972
G0 F3600 X66.55 Y129.341
G1 F3000 X47.656 Y110.447 E92.92279
G0 F3600 X47.656 Y109.881
G1 F3000 X67.116 Y129.341 E94.2958
G0 F3600 X67.682 Y129.341
G1 F3000 X47.656 Y109.315 E95.70875
G0 F3600 X47.656 Y108.75
G1 F3000 X68.247 Y129.341 E97.16155
G0 F3600 X68.813 Y129.341
G1 F3000 X47.656 Y108.184 E98.65429
G0 F3600 X47.656 Y107.618
G1 F3000 X69.379 Y129.341 E100.18697
G0 F3600 X69.944 Y129.341
G1 F3000 X47.656 Y107.053 E101.75951
G0 F3600 X47.656 Y106.487
G1 F3000 X70.51 Y129.341 E103.37198
G0 F3600 X71.076 Y129.341
G1 F3000 X47.656 Y105.921 E105.02439
G0 F3600 X47.656 Y105.356
G1 F3000 X71.641 Y129.341 E106.71666
G0 F3600 X72.207 Y129.341
G1 F3000 X47.656 Y104.79 E108.44886
G0 F3600 X47.656 Y104.224
G1 F3000 X72.773 Y129.341 E110.221
G0 F3600 X73.338 Y129.341
G1 F3000 X47.656 Y103.659 E112.03301
G0 F3600 X47.656 Y103.093
G1 F3000 X73.904 Y129.341 E113.88495
G0 F3600 X74.47 Y129.341
G1 F3000 X47.656 Y102.527 E115.77682
G0 F3600 X47.656 Y101.961
G1 F3000 X75.036 Y129.341 E117.70863
G0 F3600 X75.601 Y129.341
G1 F3000 X47.656 Y101.396 E119.6803
G0 F3600 X47.656 Y100.83
G1 F3000 X76.167 Y129.341 E121.6919
