;FLAVOR:Marlin
;TIME:10433
;Filament used: 12.2361m
;Layer height: 0.3
;MINX:40.2
;MINY:58.142
;MINZ:0.3
;MAXX:159.8
;MAXY:135.568
;MAXZ:50.1
;Generated with Cura_SteamEngine 5.0.0
M140 S60
M105
M190 S60
M104 S210
M105
M109 S210
M82 ;absolute extrusion mode
G21 ;metric values
 G90 ;absolute positioning
 M82 ;set extruder to absolute mode
 M107 ;start with the fan off
 G28 X0 Y0 ;move X/Y to min endstops
 G28 Z0 ;move Z to min endstops
 G1 Z10.0 F120 ;move the platform down 10mm
 G92 E0 ;zero the extruded length
 G1 F200 E3 ;extrude 3 mm of feed stock
 G92 E0 ;zero the extruded length again
 G1 F120 
 ;Put printing message on LCD screen
 M117 Printing...
G92 E0
G92 E0
G1 F2400 E-3
;LAYER_COUNT:167
;LAYER:0
M107
G0 F3600 X59.345 Y60.532 Z0.3
G0 X56.511 Y66.836
;TYPE:SKIRT
G1 F2400 E0
G1 F1800 X56.571 Y66.048 E0.03943
G1 X56.71 Y65.271 E0.07881
G1 X56.927 Y64.511 E0.11824
G1 X57.22 Y63.778 E0.15762
G1 X57.524 Y63.089 E0.19519
G1 X57.88 Y62.384 E0.2346
G1 X58.305 Y61.718 E0.27401
G1 X58.795 Y61.099 E0.3134
G1 X59.345 Y60.532 E0.35281
G1 X59.95 Y60.024 E0.39222
G1 X60.602 Y59.58 E0.43158
G1 X61.297 Y59.204 E0.471
G1 X62.026 Y58.901 E0.51039
G1 X62.782 Y58.672 E0.54979
G1 X63.853 Y58.42 E0.60469
G1 X64.687 Y58.27 E0.64696
G1 X65.47 Y58.167 E0.68636
G1 X66.102 Y58.142 E0.71792
G1 X69.919 Y58.147 E0.90835
G1 X70.708 Y58.188 E0.94777
G1 X71.488 Y58.309 E0.98715
G1 X72.311 Y58.452 E1.02882
G1 X73.674 Y58.8 E1.099
G1 X74.414 Y59.074 E1.13837
G1 X75.123 Y59.422 E1.17777
G1 X75.794 Y59.84 E1.21721
G1 X76.418 Y60.323 E1.25658
G1 X76.991 Y60.866 E1.29597
G1 X77.506 Y61.465 E1.33538
G1 X77.957 Y62.113 E1.37477
G1 X78.003 Y62.195 E1.37946
G1 X78.281 Y61.753 E1.40551
G1 X78.768 Y61.131 E1.44492
G1 X79.315 Y60.561 E1.48433
G1 X79.917 Y60.05 E1.52373
G1 X80.567 Y59.602 E1.56311
G1 X81.26 Y59.222 E1.60254
G1 X81.987 Y58.914 E1.64193
G1 X82.741 Y58.682 E1.68129
G1 X83.854 Y58.419 E1.73835
G1 X84.631 Y58.269 E1.77783
G1 X85.414 Y58.167 E1.81722
G1 X86.043 Y58.142 E1.84863
G1 X89.919 Y58.147 E2.042
G1 X90.708 Y58.188 E2.08142
G1 X91.488 Y58.309 E2.1208
G1 X92.311 Y58.452 E2.16247
G1 X93.674 Y58.8 E2.23266
G1 X94.414 Y59.074 E2.27202
G1 X95.123 Y59.422 E2.31143
G1 X95.794 Y59.84 E2.35087
G1 X96.418 Y60.323 E2.39024
G1 X96.991 Y60.866 E2.42962
G1 X97.506 Y61.465 E2.46903
G1 X97.957 Y62.113 E2.50842
G1 X98.003 Y62.195 E2.51311
G1 X98.281 Y61.753 E2.53916
G1 X98.768 Y61.131 E2.57857
G1 X99.315 Y60.561 E2.61799
G1 X99.917 Y60.05 E2.65738
G1 X100.567 Y59.602 E2.69677
G1 X101.26 Y59.222 E2.7362
G1 X101.987 Y58.914 E2.77559
G1 X102.741 Y58.682 E2.81494
G1 X103.854 Y58.419 E2.872
G1 X104.631 Y58.269 E2.91148
G1 X105.414 Y58.167 E2.95088
G1 X106.043 Y58.142 E2.98228
G1 X109.919 Y58.147 E3.17566
G1 X110.708 Y58.188 E3.21507
G1 X111.488 Y58.309 E3.25445
G1 X112.311 Y58.452 E3.29613
G1 X113.674 Y58.8 E3.36631
G1 X114.414 Y59.074 E3.40568
G1 X115.123 Y59.422 E3.44508
G1 X115.794 Y59.84 E3.48452
G1 X116.418 Y60.323 E3.52389
G1 X116.991 Y60.866 E3.56327
G1 X117.506 Y61.465 E3.60268
G1 X117.957 Y62.113 E3.64207
G1 X118.003 Y62.195 E3.64676
G1 X118.281 Y61.753 E3.67281
G1 X118.768 Y61.131 E3.71223
G1 X119.315 Y60.561 E3.75164
G1 X119.917 Y60.05 E3.79103
G1 X120.567 Y59.602 E3.83042
G1 X121.26 Y59.222 E3.86985
G1 X121.987 Y58.914 E3.90924
G1 X122.741 Y58.682 E3.9486
G1 X123.854 Y58.419 E4.00566
G1 X124.631 Y58.269 E4.04514
G1 X125.414 Y58.167 E4.08453
G1 X126.043 Y58.142 E4.11594
G1 X129.919 Y58.147 E4.30931
G1 X130.708 Y58.188 E4.34873
G1 X131.488 Y58.309 E4.38811
G1 X132.311 Y58.452 E4.42978
G1 X133.674 Y58.8 E4.49996
G1 X134.414 Y59.074 E4.53933
G1 X135.123 Y59.422 E4.57873
G1 X135.794 Y59.84 E4.61818
G1 X136.418 Y60.323 E4.65754
G1 X136.991 Y60.866 E4.69693
G1 X137.506 Y61.465 E4.73634
G1 X137.957 Y62.113 E4.77573
G1 X138.341 Y62.804 E4.81517
G1 X138.64 Y63.491 E4.85255
G1 X138.966 Y64.21 E4.89193
G1 X139.218 Y64.958 E4.93131
G1 X139.393 Y65.728 E4.97071
G1 X139.489 Y66.512 E5.01011
G1 X139.506 Y67.301 E5.04948
G1 X139.442 Y68.089 E5.08893
G1 X139.299 Y68.865 E5.12829
G1 X139.079 Y69.624 E5.16772
G1 X138.783 Y70.356 E5.20711
G1 X138.481 Y70.94 E5.23991
G1 X138.149 Y71.52 E5.27325
G1 X152 Y71.52 E5.96428
G1 X152.789 Y71.56 E6.0037
G1 X153.569 Y71.679 E6.04306
G1 X154.334 Y71.877 E6.08249
G1 X155.074 Y72.151 E6.12185
G1 X155.783 Y72.499 E6.16126
G1 X156.454 Y72.917 E6.2007
G1 X157.078 Y73.4 E6.24007
G1 X157.651 Y73.943 E6.27945
G1 X158.166 Y74.542 E6.31886
G1 X158.617 Y75.19 E6.35825
G1 X159.001 Y75.881 E6.39769
G1 X159.313 Y76.606 E6.43707
G1 X159.55 Y77.359 E6.47645
G1 X159.709 Y78.133 E6.51587
G1 X159.79 Y78.918 E6.55524
G1 X159.8 Y79.32 E6.57531
G1 X159.8 Y127.485 E8.97827
G1 X159.76 Y128.274 E9.01768
G1 X159.641 Y129.054 E9.05705
G1 X159.443 Y129.819 E9.09647
G1 X159.169 Y130.559 E9.13584
G1 X158.821 Y131.268 E9.17524
G1 X158.403 Y131.939 E9.21468
G1 X157.92 Y132.563 E9.25405
G1 X157.377 Y133.136 E9.29343
G1 X156.778 Y133.651 E9.33284
G1 X156.13 Y134.102 E9.37223
G1 X155.439 Y134.486 E9.41167
G1 X154.714 Y134.798 E9.45105
G1 X153.961 Y135.035 E9.49043
G1 X153.187 Y135.194 E9.52986
G1 X152.402 Y135.275 E9.56923
G1 X152 Y135.285 E9.58929
G1 X48 Y135.286 E14.77787
G1 X47.211 Y135.246 E14.81728
G1 X46.431 Y135.127 E14.85665
G1 X45.666 Y134.929 E14.89607
G1 X44.926 Y134.655 E14.93544
G1 X44.217 Y134.307 E14.97484
G1 X43.546 Y133.89 E15.01426
G1 X42.922 Y133.406 E15.05366
G1 X42.349 Y132.863 E15.09304
G1 X41.834 Y132.264 E15.13245
G1 X41.383 Y131.616 E15.17184
G1 X40.999 Y130.926 E15.21124
G1 X40.687 Y130.2 E15.25066
G1 X40.45 Y129.447 E15.29004
G1 X40.291 Y128.673 E15.32947
G1 X40.21 Y127.888 E15.36884
G1 X40.2 Y127.486 E15.3889
G1 X40.2 Y79.32 E17.79191
G1 X40.24 Y78.531 E17.83132
G1 X40.359 Y77.751 E17.87069
G1 X40.557 Y76.986 E17.91011
G1 X40.831 Y76.246 E17.94948
G1 X41.179 Y75.537 E17.98888
G1 X41.597 Y74.866 E18.02832
G1 X42.08 Y74.242 E18.06769
G1 X42.623 Y73.669 E18.10708
G1 X43.222 Y73.154 E18.14649
G1 X43.87 Y72.703 E18.18588
G1 X44.561 Y72.319 E18.22532
G1 X45.286 Y72.007 E18.26469
G1 X46.039 Y71.77 E18.30408
G1 X46.813 Y71.611 E18.3435
G1 X47.598 Y71.53 E18.38287
G1 X48 Y71.52 E18.40293
G1 X57.862 Y71.52 E18.89495
G1 X57.395 Y70.642 E18.94456
G1 X57.065 Y69.925 E18.98394
G1 X56.81 Y69.178 E19.02332
G1 X56.631 Y68.408 E19.06276
G1 X56.532 Y67.625 E19.10214
G1 X56.511 Y66.836 E19.14151
G0 F3600 X56.915 Y66.746
G1 F1800 X56.984 Y65.98 E19.17988
G1 X57.133 Y65.225 E19.21828
G1 X57.359 Y64.49 E19.25664
G1 X57.661 Y63.782 E19.29504
G1 X57.906 Y63.214 E19.3259
G1 X58.257 Y62.53 E19.36426
G1 X58.677 Y61.885 E19.40266
G1 X59.162 Y61.288 E19.44103
G1 X59.706 Y60.744 E19.47942
G1 X60.303 Y60.26 E19.51776
G1 X60.948 Y59.84 E19.55616
G1 X61.633 Y59.49 E19.59454
G1 X62.35 Y59.212 E19.6329
G1 X63.092 Y59.011 E19.67126
G1 X63.964 Y58.806 E19.71595
G1 X64.798 Y58.656 E19.75822
G1 X65.561 Y58.561 E19.79658
G1 X66.102 Y58.542 E19.82359
G1 X69.919 Y58.547 E20.01402
G1 X70.687 Y58.588 E20.05239
G1 X71.446 Y58.708 E20.09073
G1 X72.27 Y58.852 E20.13246
G1 X72.783 Y58.989 E20.15895
G1 X73.611 Y59.2 E20.20158
G1 X74.33 Y59.474 E20.23997
G1 X75.016 Y59.821 E20.27832
G1 X75.663 Y60.237 E20.3167
G1 X76.263 Y60.718 E20.35506
G1 X76.81 Y61.259 E20.39345
G1 X77.298 Y61.854 E20.43184
G1 X77.721 Y62.496 E20.47019
G1 X78.001 Y63.034 E20.50045
G1 X78.238 Y62.564 E20.52671
G1 X78.655 Y61.918 E20.56507
G1 X79.136 Y61.318 E20.60344
G1 X79.677 Y60.771 E20.64182
G1 X80.272 Y60.283 E20.68021
G1 X80.914 Y59.86 E20.71857
G1 X81.597 Y59.506 E20.75695
G1 X82.313 Y59.224 E20.79534
G1 X83.054 Y59.018 E20.83371
G1 X83.965 Y58.805 E20.88039
G1 X84.742 Y58.655 E20.91987
G1 X85.506 Y58.561 E20.95827
G1 X86.043 Y58.542 E20.98508
G1 X89.919 Y58.547 E21.17846
G1 X90.687 Y58.588 E21.21683
G1 X91.446 Y58.708 E21.25516
G1 X92.27 Y58.852 E21.2969
G1 X92.783 Y58.989 E21.32339
G1 X93.611 Y59.2 E21.36602
G1 X94.33 Y59.474 E21.4044
G1 X95.016 Y59.821 E21.44276
G1 X95.663 Y60.237 E21.48113
G1 X96.263 Y60.718 E21.5195
G1 X96.81 Y61.259 E21.55788
G1 X97.298 Y61.854 E21.59627
G1 X97.721 Y62.496 E21.63463
G1 X98.001 Y63.034 E21.66489
G1 X98.238 Y62.564 E21.69115
G1 X98.655 Y61.918 E21.72951
G1 X99.136 Y61.318 E21.76787
G1 X99.677 Y60.771 E21.80626
G1 X100.272 Y60.283 E21.84465
G1 X100.914 Y59.86 E21.88301
G1 X101.597 Y59.506 E21.92139
G1 X102.313 Y59.224 E21.95978
G1 X103.054 Y59.018 E21.99815
G1 X103.965 Y58.805 E22.04482
G1 X104.742 Y58.655 E22.08431
G1 X105.506 Y58.561 E22.12271
G1 X106.043 Y58.542 E22.14952
G1 X109.919 Y58.547 E22.34289
G1 X110.687 Y58.588 E22.38126
G1 X111.446 Y58.708 E22.4196
G1 X112.27 Y58.852 E22.46133
G1 X112.783 Y58.989 E22.48782
G1 X113.611 Y59.2 E22.53045
G1 X114.33 Y59.474 E22.56884
G1 X115.016 Y59.821 E22.60719
G1 X115.663 Y60.237 E22.64557
G1 X116.263 Y60.718 E22.68393
G1 X116.81 Y61.259 E22.72232
G1 X117.298 Y61.854 E22.76071
G1 X117.721 Y62.496 E22.79906
G1 X118.001 Y63.034 E22.82932
G1 X118.238 Y62.564 E22.85558
G1 X118.655 Y61.918 E22.89394
G1 X119.136 Y61.318 E22.93231
G1 X119.677 Y60.771 E22.97069
G1 X120.272 Y60.283 E23.00908
G1 X120.914 Y59.86 E23.04744
G1 X121.597 Y59.506 E23.08582
G1 X122.313 Y59.224 E23.12421
G1 X123.054 Y59.018 E23.16258
G1 X123.965 Y58.805 E23.20926
G1 X124.742 Y58.655 E23.24874
G1 X125.506 Y58.561 E23.28714
G1 X126.043 Y58.542 E23.31395
G1 X129.919 Y58.547 E23.50733
G1 X130.687 Y58.588 E23.5457
G1 X131.446 Y58.708 E23.58403
G1 X132.27 Y58.852 E23.62577
G1 X132.783 Y58.989 E23.65226
G1 X133.611 Y59.2 E23.69489
G1 X134.33 Y59.474 E23.73327
G1 X135.016 Y59.821 E23.77163
G1 X135.663 Y60.237 E23.81
G1 X136.263 Y60.718 E23.84837
G1 X136.81 Y61.259 E23.88675
G1 X137.298 Y61.854 E23.92514
G1 X137.721 Y62.496 E23.9635
G1 X138.076 Y63.179 E24.0019
G1 X138.293 Y63.692 E24.02969
G1 X138.608 Y64.394 E24.06808
G1 X138.849 Y65.124 E24.10643
G1 X139.012 Y65.876 E24.14482
G1 X139.097 Y66.64 E24.18317
G1 X139.101 Y67.409 E24.22154
G1 X139.026 Y68.175 E24.25994
G1 X138.872 Y68.928 E24.29828
G1 X138.64 Y69.662 E24.33669
G1 X138.333 Y70.367 E24.37505
G1 X137.754 Y71.404 E24.4343
G1 X137.422 Y71.92 E24.46492
G1 X152 Y71.92 E25.19222
G1 X152.768 Y71.96 E25.23058
G1 X153.528 Y72.079 E25.26896
G1 X154.271 Y72.277 E25.30732
G1 X154.99 Y72.551 E25.34571
G1 X155.676 Y72.898 E25.38406
G1 X156.323 Y73.314 E25.42244
G1 X156.923 Y73.795 E25.46081
G1 X157.47 Y74.336 E25.49919
G1 X157.958 Y74.931 E25.53758
G1 X158.381 Y75.573 E25.57594
G1 X158.736 Y76.256 E25.61434
G1 X159.017 Y76.971 E25.65267
G1 X159.223 Y77.713 E25.69109
G1 X159.351 Y78.471 E25.72944
G1 X159.4 Y79.32 E25.77187
G1 X159.4 Y127.485 E28.17483
G1 X159.36 Y128.253 E28.21319
G1 X159.241 Y129.013 E28.25157
G1 X159.043 Y129.756 E28.28994
G1 X158.769 Y130.475 E28.32832
G1 X158.422 Y131.161 E28.36668
G1 X158.006 Y131.808 E28.40505
G1 X157.525 Y132.408 E28.44342
G1 X156.984 Y132.955 E28.4818
G1 X156.389 Y133.443 E28.52019
G1 X155.747 Y133.866 E28.55855
G1 X155.064 Y134.221 E28.59695
G1 X154.349 Y134.502 E28.63528
G1 X153.607 Y134.708 E28.6737
G1 X152.849 Y134.836 E28.71205
G1 X152 Y134.885 E28.75448
G1 X48 Y134.886 E33.94306
G1 X47.232 Y134.846 E33.98143
G1 X46.472 Y134.727 E34.0198
G1 X45.729 Y134.529 E34.05817
G1 X45.01 Y134.255 E34.09655
G1 X44.324 Y133.908 E34.13491
G1 X43.677 Y133.492 E34.17328
G1 X43.077 Y133.011 E34.21165
G1 X42.53 Y132.47 E34.25003
G1 X42.042 Y131.875 E34.28842
G1 X41.619 Y131.233 E34.32678
G1 X41.264 Y130.55 E34.36518
G1 X40.983 Y129.835 E34.40351
G1 X40.777 Y129.094 E34.44188
G1 X40.649 Y128.335 E34.48028
G1 X40.6 Y127.486 E34.52271
G1 X40.6 Y79.32 E36.92572
G1 X40.64 Y78.552 E36.96409
G1 X40.759 Y77.792 E37.00247
G1 X40.957 Y77.049 E37.04083
G1 X41.231 Y76.33 E37.07922
G1 X41.578 Y75.644 E37.11757
G1 X41.994 Y74.997 E37.15595
G1 X42.475 Y74.397 E37.19431
G1 X43.016 Y73.85 E37.2327
G1 X43.611 Y73.362 E37.27109
G1 X44.253 Y72.939 E37.30944
G1 X44.936 Y72.584 E37.34785
G1 X45.651 Y72.303 E37.38617
G1 X46.393 Y72.097 E37.42459
G1 X47.151 Y71.969 E37.46295
G1 X48 Y71.92 E37.50537
G1 X58.591 Y71.92 E38.03376
G1 X58.114 Y71.156 E38.07869
G1 X57.749 Y70.457 E38.11804
G1 X57.429 Y69.758 E38.15639
G1 X57.184 Y69.029 E38.19476
G1 X57.015 Y68.279 E38.23311
G1 X56.925 Y67.515 E38.27149
G1 X56.915 Y66.746 E38.30986
G0 F3600 X57.319 Y66.659
G1 F1800 X57.399 Y65.915 E38.3472
G1 X57.557 Y65.184 E38.38451
G1 X57.793 Y64.474 E38.42184
G1 X58.126 Y63.755 E38.46137
G1 X58.288 Y63.34 E38.48359
G1 X58.634 Y62.677 E38.5209
G1 X59.049 Y62.055 E38.55821
G1 X59.528 Y61.48 E38.59554
G1 X60.066 Y60.96 E38.63287
G1 X60.656 Y60.5 E38.6702
G1 X61.291 Y60.106 E38.70748
G1 X61.966 Y59.781 E38.74486
G1 X62.671 Y59.531 E38.78218
G1 X63.241 Y59.395 E38.81141
G1 X64.075 Y59.193 E38.85422
G1 X64.908 Y59.043 E38.89645
G1 X65.651 Y58.956 E38.93377
G1 X66.101 Y58.942 E38.95623
G1 X69.918 Y58.947 E39.14666
G1 X70.665 Y58.988 E39.18399
G1 X71.403 Y59.108 E39.22129
G1 X72.227 Y59.252 E39.26302
G1 X72.825 Y59.402 E39.29378
G1 X73.547 Y59.6 E39.33113
G1 X74.243 Y59.873 E39.36843
G1 X74.906 Y60.22 E39.40577
G1 X75.529 Y60.635 E39.44311
G1 X76.103 Y61.114 E39.48041
G1 X76.624 Y61.651 E39.51774
G1 X77.083 Y62.241 E39.55503
G1 X77.478 Y62.877 E39.59238
G1 X77.802 Y63.551 E39.62969
G1 X78.004 Y64.022 E39.65526
G1 X78.274 Y63.375 E39.69024
G1 X78.616 Y62.71 E39.72755
G1 X79.028 Y62.085 E39.76489
G1 X79.504 Y61.508 E39.80221
G1 X80.038 Y60.985 E39.8395
G1 X80.626 Y60.522 E39.87684
G1 X81.259 Y60.124 E39.91414
G1 X81.931 Y59.796 E39.95145
G1 X82.635 Y59.541 E39.98881
G1 X83.254 Y59.389 E40.0206
G1 X84.076 Y59.192 E40.06278
G1 X84.853 Y59.042 E40.10226
G1 X85.596 Y58.956 E40.13957
G1 X86.042 Y58.942 E40.16183
G1 X89.918 Y58.947 E40.35521
G1 X90.665 Y58.988 E40.39253
G1 X91.403 Y59.108 E40.42984
G1 X92.227 Y59.252 E40.47157
G1 X92.825 Y59.402 E40.50233
G1 X93.547 Y59.6 E40.53968
G1 X94.243 Y59.873 E40.57698
G1 X94.906 Y60.22 E40.61431
G1 X95.529 Y60.635 E40.65166
G1 X96.103 Y61.114 E40.68895
G1 X96.624 Y61.651 E40.72628
G1 X97.083 Y62.241 E40.76358
G1 X97.478 Y62.877 E40.80093
G1 X97.802 Y63.551 E40.83824
G1 X98.004 Y64.022 E40.86381
G1 X98.274 Y63.375 E40.89878
G1 X98.616 Y62.71 E40.93609
G1 X99.028 Y62.085 E40.97344
G1 X99.504 Y61.508 E41.01075
G1 X100.038 Y60.985 E41.04805
G1 X100.626 Y60.522 E41.08538
G1 X101.259 Y60.124 E41.12269
G1 X101.931 Y59.796 E41.15999
G1 X102.635 Y59.541 E41.19735
G1 X103.254 Y59.389 E41.22915
G1 X104.076 Y59.192 E41.27132
G1 X104.853 Y59.042 E41.3108
G1 X105.596 Y58.956 E41.34812
G1 X106.042 Y58.942 E41.37038
G1 X109.918 Y58.947 E41.56375
G1 X110.665 Y58.988 E41.60108
G1 X111.403 Y59.108 E41.63838
G1 X112.227 Y59.252 E41.68011
G1 X112.825 Y59.402 E41.71087
G1 X113.547 Y59.6 E41.74822
G1 X114.243 Y59.873 E41.78552
G1 X114.906 Y60.22 E41.82285
G1 X115.529 Y60.635 E41.8602
G1 X116.103 Y61.114 E41.8975
G1 X116.624 Y61.651 E41.93483
G1 X117.083 Y62.241 E41.97212
G1 X117.478 Y62.877 E42.00947
G1 X117.802 Y63.551 E42.04678
G1 X118.004 Y64.022 E42.07235
G1 X118.274 Y63.375 E42.10733
G1 X118.616 Y62.71 E42.14463
G1 X119.028 Y62.085 E42.18198
G1 X119.504 Y61.508 E42.2193
G1 X120.038 Y60.985 E42.25659
G1 X120.626 Y60.522 E42.29393
G1 X121.259 Y60.124 E42.33123
G1 X121.931 Y59.796 E42.36854
G1 X122.635 Y59.541 E42.40589
G1 X123.254 Y59.389 E42.43769
G1 X124.076 Y59.192 E42.47987
G1 X124.853 Y59.042 E42.51935
G1 X125.596 Y58.956 E42.55666
G1 X126.042 Y58.942 E42.57892
G1 X129.918 Y58.947 E42.7723
G1 X130.665 Y58.988 E42.80962
G1 X131.403 Y59.108 E42.84692
G1 X132.227 Y59.252 E42.88866
G1 X132.825 Y59.402 E42.91942
G1 X133.547 Y59.6 E42.95677
G1 X134.243 Y59.873 E42.99407
G1 X134.906 Y60.22 E43.0314
G1 X135.529 Y60.635 E43.06875
G1 X136.103 Y61.114 E43.10604
