;FLAVOR:Marlin
;TIME:500
;Filament used: 0.329023m
;Layer height: 0.15
;MINX:80.641
;MINY:73.2
;MINZ:0.3
;MAXX:110.098
;MAXY:125.6
;MAXZ:4.95
;Generated with Cura_SteamEngine 5.0.0
M140 S60
M105
M190 S60
M104 S210
M105
M109 S210
M82 ;absolute extrusion mode
G21 ;metric values
 G90 ;absolute positioning
 M82 ;set extruder to absolute mode
 M107 ;start with the fan off
 G28 X0 Y0 ;move X/Y to min endstops
 G28 Z0 ;move Z to min endstops
 G1 Z10.0 F120 ;move the platform down 10mm
 G92 E0 ;zero the extruded length
 G1 F200 E3 ;extrude 3 mm of feed stock
 G92 E0 ;zero the extruded length again
 G1 F120 
 ;Put printing message on LCD screen
 M117 Printing...
G92 E0
G92 E0
G1 F2400 E-1
;LAYER_COUNT:32
;LAYER:0
M107
G0 F3600 X81.642 Y74.328 Z0.3
G0 X80.641 Y77.43
;TYPE:SKIRT
G1 F2400 E0
G1 F3000 X80.651 Y76.756 E0.03363
G1 X80.699 Y76.221 E0.06043
G1 X80.826 Y75.7 E0.08718
G1 X81.029 Y75.204 E0.11392
G1 X81.303 Y74.743 E0.14068
G1 X81.642 Y74.328 E0.16741
G1 X82.04 Y73.968 E0.19418
G1 X82.487 Y73.671 E0.22096
G1 X82.972 Y73.444 E0.24767
G1 X83.486 Y73.291 E0.27443
G1 X84.149 Y73.21 E0.30775
G1 X84.57 Y73.2 E0.32876
G1 X94.651 Y73.201 E0.83171
G1 X95.298 Y73.21 E0.86399
G1 X95.836 Y73.245 E0.89089
G1 X96.083 Y73.273 E0.90329
G1 X98.971 Y73.701 E1.04894
G1 X101.665 Y74.019 E1.18428
G1 X104.401 Y74.265 E1.32133
G1 X105.424 Y74.325 E1.37246
G1 X106.747 Y74.42 E1.43863
G1 X107.277 Y74.498 E1.46536
G1 X107.79 Y74.654 E1.49211
G1 X108.275 Y74.885 E1.51891
G1 X108.719 Y75.185 E1.54564
G1 X109.114 Y75.548 E1.57241
G1 X109.451 Y75.965 E1.59916
G1 X109.722 Y76.428 E1.62592
G1 X109.921 Y76.926 E1.65268
G1 X110.045 Y77.448 E1.67944
G1 X110.097 Y78.228 E1.71845
G1 X110.098 Y121.309 E3.86777
G1 X110.089 Y122.036 E3.90404
G1 X110.042 Y122.57 E3.93078
G1 X109.917 Y123.091 E3.95751
G1 X109.715 Y123.588 E3.98428
G1 X109.442 Y124.05 E4.01105
G1 X109.104 Y124.466 E4.03779
G1 X108.707 Y124.827 E4.06456
G1 X108.261 Y125.125 E4.09132
G1 X107.776 Y125.353 E4.11806
G1 X107.262 Y125.507 E4.14483
G1 X106.59 Y125.59 E4.17861
G1 X106.169 Y125.6 E4.19962
G1 X96.09 Y125.599 E4.70246
G1 X95.277 Y125.581 E4.74304
G1 X94.63 Y125.522 E4.77545
G1 X92.145 Y125.149 E4.90081
G1 X89.394 Y124.814 E5.03908
G1 X86.715 Y124.563 E5.17332
G1 X85.404 Y124.481 E5.23885
G1 X83.995 Y124.381 E5.30932
G1 X83.465 Y124.303 E5.33605
G1 X82.951 Y124.148 E5.36283
G1 X82.467 Y123.917 E5.38959
G1 X82.022 Y123.618 E5.41634
G1 X81.627 Y123.256 E5.44307
G1 X81.29 Y122.838 E5.46986
G1 X81.018 Y122.376 E5.4966
G1 X80.818 Y121.878 E5.52338
G1 X80.695 Y121.356 E5.55013
G1 X80.642 Y120.556 E5.59013
G1 X80.641 Y77.43 E7.7417
G0 F3600 X81.041 Y77.436
G1 F3000 X81.051 Y76.762 E7.77533
G1 X81.099 Y76.258 E7.80059
G1 X81.225 Y75.769 E7.82578
G1 X81.426 Y75.305 E7.85101
G1 X81.699 Y74.879 E7.87625
G1 X82.034 Y74.501 E7.90145
G1 X82.426 Y74.181 E7.92669
G1 X82.862 Y73.926 E7.95189
G1 X83.334 Y73.743 E7.97715
G1 X83.828 Y73.637 E8.00236
G1 X84.48 Y73.601 E8.03493
G1 X94.646 Y73.601 E8.54212
G1 X95.293 Y73.61 E8.5744
G1 X95.805 Y73.644 E8.6
G1 X96.025 Y73.669 E8.61105
G1 X98.903 Y74.095 E8.75619
G1 X101.654 Y74.42 E8.8944
G1 X104.373 Y74.664 E9.03059
G1 X105.395 Y74.724 E9.08167
G1 X106.718 Y74.819 E9.14784
G1 X107.218 Y74.895 E9.17308
G1 X107.7 Y75.049 E9.19832
G1 X108.151 Y75.277 E9.22353
G1 X108.561 Y75.572 E9.24873
G1 X108.919 Y75.929 E9.27396
G1 X109.217 Y76.338 E9.2992
G1 X109.446 Y76.788 E9.32439
G1 X109.602 Y77.269 E9.34962
G1 X109.688 Y77.921 E9.38243
G1 X109.698 Y78.33 E9.40284
G1 X109.698 Y121.304 E11.54682
G1 X109.689 Y122.031 E11.5831
G1 X109.643 Y122.534 E11.6083
G1 X109.518 Y123.024 E11.63352
G1 X109.317 Y123.488 E11.65875
G1 X109.046 Y123.915 E11.68398
G1 X108.711 Y124.294 E11.70922
G1 X108.321 Y124.615 E11.73442
G1 X107.885 Y124.871 E11.75964
G1 X107.414 Y125.054 E11.78485
G1 X106.92 Y125.162 E11.81008
G1 X106.259 Y125.199 E11.84311
G1 X96.096 Y125.199 E12.35015
G1 X95.307 Y125.182 E12.38952
G1 X94.689 Y125.127 E12.42047
G1 X92.18 Y124.751 E12.54704
G1 X89.44 Y124.417 E12.68476
G1 X86.747 Y124.165 E12.8197
G1 X85.432 Y124.082 E12.88543
G1 X84.023 Y123.982 E12.9559
G1 X83.524 Y123.906 E12.98109
G1 X83.042 Y123.753 E13.00632
G1 X82.59 Y123.526 E13.03155
G1 X82.18 Y123.23 E13.05678
G1 X81.822 Y122.874 E13.08197
G1 X81.524 Y122.465 E13.10721
G1 X81.294 Y122.015 E13.13243
G1 X81.138 Y121.534 E13.15766
G1 X81.051 Y120.877 E13.19072
G1 X81.041 Y120.458 E13.21163
G1 X81.041 Y77.436 E15.35801
G1 F2400 E14.35801
;MESH:HarriettBox-DisplayStrips-Proto6.stl(1)
G0 F3600 X83.576 Y77.436
G0 X84.671 Y77.436
G0 X85.031 Y78.9
G1 F2400 E15.35801
G0 F3600 X85.441 Y78.9
;TYPE:WALL-OUTER
G1 F3000 X85.606 Y78.702 E15.37086
G1 X86.601 Y78.7 E15.42051
G1 X87.391 Y78.7 E15.45992
G1 X87.391 Y78.2 E15.48486
G1 X87.402 Y78.133 E15.48825
G1 X87.591 Y78 E15.49978
G1 X95.75 Y78.001 E15.90684
G1 X96.088 Y78.076 E15.92411
G1 X96.346 Y78.218 E15.9388
G1 F2948.4 X96.579 Y78.444 E15.95528
G1 F3108.8 X96.705 Y78.752 E15.9713
G1 F3582.1 X96.739 Y79.114 E15.98649
G1 F4067.8 X96.639 Y79.52 E16.00188
G1 F4285.7 X96.478 Y79.778 E16.0125
G1 F4095.6 X96.193 Y80.015 E16.02604
G1 F3692.3 X95.786 Y80.168 E16.04367
G1 F3217.2 X95.224 Y80.198 E16.06985
G1 F2992.5 X88.191 Y80.2 E16.42161
G1 X87.841 Y80.574 E16.44723
G1 X87.86 Y80.6 E16.44884
G1 X95.239 Y80.599 E16.8179
G1 F3183 X95.798 Y80.521 E16.84444
G1 F3636.4 X96.212 Y80.353 E16.86283
G1 F4067.8 X96.502 Y80.144 E16.87598
G1 F4301.1 X96.749 Y79.873 E16.88874
G1 X96.929 Y79.566 E16.90112
G1 F4040.4 X97.051 Y79.124 E16.91811
G1 F3582.1 X97.056 Y78.714 E16.93524
G1 F3108.8 X96.936 Y78.233 E16.95911
G1 F2948.4 X96.751 Y77.832 E16.98152
G1 F3000 X96.46 Y77.485 E17.00412
G1 X96.046 Y77.203 E17.02911
G1 X95.677 Y77.063 E17.0488
G1 X95.25 Y77.002 E17.07032
G1 X84.441 Y77 E17.60958
G1 X84.441 Y80.1 E17.76424
G1 F3200 X84.416 Y80.8 E17.797
G1 F3428.6 X84.416 Y83.376 E17.90945
G1 X84.416 Y85.952 E18.02191
G1 X84.416 Y88.528 E18.13436
G1 X84.416 Y91.104 E18.24681
G1 X84.416 Y93.68 E18.35926
G1 F3418.8 X84.416 Y96.256 E18.47204
G1 X84.416 Y98.832 E18.58481
G1 X84.416 Y101.408 E18.69759
G1 X84.416 Y103.984 E18.81036
G1 F3409.1 X84.416 Y106.56 E18.92346
G1 X84.416 Y109.136 E19.03655
G1 X84.416 Y111.712 E19.14965
G1 X84.416 Y114.288 E19.26274
G1 X84.417 Y116.864 E19.37584
G1 F3191.5 X84.441 Y117.5 E19.40568
G1 F3000 X84.441 Y120.6 E19.56034
G1 X90.032 Y120.6 E19.83928
G1 X90.526 Y120.517 E19.86427
G1 X90.741 Y120.456 E19.87542
G1 X91.126 Y120.234 E19.89759
G1 X91.438 Y119.932 E19.91926
G1 X91.672 Y119.556 E19.94135
G1 X91.807 Y119.134 E19.96346
G1 X91.836 Y118.694 E19.98545
G1 X91.762 Y118.274 E20.00673
G1 X91.572 Y117.858 E20.02955
G1 X91.297 Y117.512 E20.0516
G1 X90.941 Y117.244 E20.07383
G1 X90.535 Y117.071 E20.09585
G1 X89.949 Y117.002 E20.12528
G1 X87.841 Y117.001 E20.23045
G1 X87.841 Y118.711 E20.31576
G1 X87.797 Y118.827 E20.32195
G1 X87.641 Y118.9 E20.33055
G1 X85.641 Y118.9 E20.43033
G1 X85.58 Y118.891 E20.4334
G1 X85.441 Y118.7 E20.44519
G1 X85.441 Y117 E20.53
G1 X84.941 Y117 E20.55495
G1 F3200 X84.766 Y116.8 E20.56738
G1 F3428.6 X84.766 Y80.8 E22.13892
G1 F3200 X84.941 Y80.6 E22.15135
G1 F3000 X85.441 Y80.6 E22.17629
G1 X85.441 Y78.9 E22.26111
G0 F3600 X85.569 Y78.746
G0 X84.941 Y78.9
;TYPE:WALL-INNER
G1 F2000 X84.941 Y80.1 E22.35091
G0 F3600 X84.851 Y77.4
G0 X84.841 Y77.4
G1 F3000 X84.841 Y77.875 E22.37461
G1 F2666.7 X84.891 Y78.387 E22.40348
G1 F2181.8 X84.941 Y78.9 E22.43884
G1 F2400 X85.459 Y78.327 E22.48701
G1 F3000 X86.601 Y78.3 E22.544
G1 X86.991 Y78.3 E22.56346
G1 X87.025 Y78 E22.57852
G1 F2376.2 X87.47 Y77.505 E22.62045
G1 X86.601 Y77.401 E22.67557
G1 F3000 X84.841 Y77.4 E22.76338
G0 F3600 X84.851 Y77.4
G0 X87.47 Y77.505
G1 F1983.5 X87.591 Y77.5 E22.77252
G1 F2003.3 X91.421 Y77.5 E23.05866
G1 F2006.7 X95.251 Y77.501 E23.34432
G1 F2097.9 X95.604 Y77.529 E23.36959
G1 F2400 E22.36959
G0 F3600 X87.167 Y77.776
G0 X85.217 Y117.224
G0 X84.941 Y117.5
G1 F2400 E23.36959
G1 F2000 X84.941 Y118.7 E23.45939
G1 F1983.5 X84.946 Y118.821 E23.46853
G0 F3600 X88.179 Y119.238
G0 X88.241 Y118.731
G1 F3000 X88.107 Y119.08 E23.48718
G1 X87.745 Y119.292 E23.50811
G1 X87.641 Y119.3 E23.51331
G1 X85.641 Y119.3 E23.61309
G1 X85.459 Y119.273 E23.62227
G1 F2376.2 X84.946 Y118.821 E23.66533
G1 X84.841 Y119.725 E23.72266
G1 F3000 X84.841 Y120.2 E23.74636
G1 X90.016 Y120.2 E24.00454
G1 X90.42 Y120.131 E24.02498
G1 X90.738 Y119.996 E24.04222
G1 X91.004 Y119.796 E24.05882
G1 X91.216 Y119.531 E24.07575
G1 X91.359 Y119.218 E24.09292
G1 X91.423 Y118.876 E24.11028
G1 X91.406 Y118.56 E24.12607
G1 X91.298 Y118.22 E24.14387
G1 X91.125 Y117.938 E24.16037
G1 X90.874 Y117.695 E24.1778
G1 X90.583 Y117.527 E24.19457
G1 X90.208 Y117.426 E24.21394
G1 X89.638 Y117.401 E24.24241
G1 X88.241 Y117.401 E24.3121
G1 X88.241 Y118.731 E24.37846
G0 F3600 X88.621 Y118.747
;TYPE:SKIN
G1 F3000 X88.432 Y119.266 E24.40601
G1 X88.346 Y119.367 E24.41263
G1 F2666.7 X87.901 Y119.686 E24.44336
G1 F2307.7 X87.821 Y119.75 E24.45001
G1 F2553.2 X88.468 Y119.82 E24.48816
G1 F3000 X89.303 Y119.819 E24.52981
G1 X89.987 Y119.82 E24.56394
G1 X90.445 Y119.726 E24.58727
G1 X90.717 Y119.528 E24.60405
G1 X90.887 Y119.335 E24.61688
G1 X91.032 Y118.987 E24.63569
G1 X91.031 Y118.753 E24.64736
G1 X90.952 Y118.383 E24.66624
G1 X90.747 Y118.08 E24.68449
G1 X90.422 Y117.874 E24.70369
G1 X89.904 Y117.782 E24.72994
G1 X88.621 Y117.782 E24.79395
G1 X88.621 Y118.747 E24.84209
G0 F3600 X87.796 Y119.744
G1 F2201.8 X87.659 Y119.75 E24.85141
G1 F2222.2 X85.645 Y119.75 E24.98706
G1 F2123.9 X85.317 Y119.724 E25.01024
G0 F3600 X88.435 Y119.547
G1 F3000 X88.505 Y119.618 E25.01522
G0 F3600 X88.662 Y119.209
G1 F3000 X89.071 Y119.618 E25.04408
G0 F3600 X89.637 Y119.618
G1 F3000 X88.809 Y118.79 E25.1025
G0 F3600 X88.821 Y118.236
G1 F3000 X90.153 Y119.569 E25.19651
G0 F3600 X90.544 Y119.394
G1 F3000 X89.13 Y117.98 E25.29628
G0 F3600 X89.696 Y117.98
G1 F3000 X90.781 Y119.066 E25.37286
G0 F3600 X90.74 Y118.458
G1 F3000 X90.342 Y118.06 E25.40094
G1 F2400 E24.40094
G0 F3600 X88.065 Y117.224
G0 X88.065 Y116.135
G0 X86.979 Y80.232
G0 X87.167 Y79.565
G0 X87.167 Y78.476
G0 X86.602 Y77.85
G1 F2400 E25.40094
G1 F2173.9 X85.958 Y77.862 E25.44529
G1 F2079.7 X85.314 Y77.874 E25.49165
G1 F2400 E24.49165
;MESH:HarriettBox-DisplayStrips-Proto6.stl
G0 F3600 X85.217 Y80.376
G0 X85.594 Y81.453
G0 X105.145 Y117.347
G0 X105.522 Y118.424
G0 X105.708 Y119.9
G1 F2400 E25.49165
G0 F3600 X105.298 Y119.9
;TYPE:WALL-OUTER
G1 F3000 X105.159 Y120.091 E25.50343
G1 X104.138 Y120.1 E25.55437
G1 X103.348 Y120.1 E25.59378
G1 X103.348 Y120.6 E25.61873
G1 X103.337 Y120.667 E25.62212
G1 X103.148 Y120.8 E25.63365
G1 X94.99 Y120.799 E26.04065
G1 X94.649 Y120.722 E26.05809
G1 X94.393 Y120.582 E26.07265
G1 F2948.4 X94.161 Y120.356 E26.08909
G1 F3108.8 X94.035 Y120.047 E26.10516
G1 F3582.1 X94.001 Y119.685 E26.12035
G1 F4067.8 X94.101 Y119.278 E26.13577
G1 F4285.7 X94.261 Y119.023 E26.14628
G1 F4095.6 X94.546 Y118.786 E26.15983
G1 F3692.3 X94.954 Y118.632 E26.1775
G1 F3217.2 X95.515 Y118.602 E26.20364
G1 F3000 X102.549 Y118.6 E26.55457
G1 X102.898 Y118.226 E26.58009
G1 X102.879 Y118.2 E26.5817
G1 X95.5 Y118.201 E26.94984
G1 F3183 X94.942 Y118.279 E26.97633
G1 F3636.4 X94.528 Y118.446 E26.9947
G1 F4054.1 X94.237 Y118.656 E27.00795
G1 F4301.1 X93.992 Y118.926 E27.02064
G1 X93.81 Y119.236 E27.03315
G1 F4026.8 X93.688 Y119.675 E27.05008
G1 F3560.8 X93.7 Y120.198 E27.07207
G1 F3116.9 X93.851 Y120.678 E27.09624
G1 F2970.3 X93.988 Y120.97 E27.11249
G1 F3000 X94.281 Y121.317 E27.13515
G1 X94.694 Y121.597 E27.16004
G1 X95.062 Y121.737 E27.17968
G1 X95.492 Y121.799 E27.20136
G1 X106.298 Y121.8 E27.74047
G1 X106.298 Y118.7 E27.89513
G1 F3191.5 X106.322 Y118.06 E27.92517
G1 F3418.8 X106.322 Y114.454 E28.08303
G1 X106.322 Y110.848 E28.2409
G1 X106.322 Y107.242 E28.39876
G1 X106.322 Y103.636 E28.55663
G1 X106.322 Y100.03 E28.71449
G1 F3428.6 X106.322 Y96.424 E28.87191
G1 X106.322 Y92.818 E29.02933
G1 X106.322 Y89.212 E29.18674
G1 X106.322 Y85.606 E29.34416
G1 X106.323 Y82 E29.50158
G1 F3200 X106.298 Y81.3 E29.53434
G1 F3000 X106.298 Y79.075 E29.64534
G1 X106.298 Y78.2 E29.689
G1 X100.707 Y78.2 E29.96793
G1 X100.211 Y78.284 E29.99303
G1 X99.999 Y78.344 E30.00402
G1 X99.614 Y78.565 E30.02617
G1 X99.301 Y78.868 E30.0479
G1 X99.067 Y79.244 E30.07
G1 X98.933 Y79.665 E30.09204
G1 X98.904 Y80.106 E30.11409
G1 X98.977 Y80.525 E30.13531
G1 X99.166 Y80.941 E30.1581
G1 X99.441 Y81.286 E30.18012
G1 X99.798 Y81.555 E30.20242
G1 X100.205 Y81.728 E30.22448
G1 X100.793 Y81.799 E30.25403
G1 X102.898 Y81.799 E30.35905
G1 X102.898 Y80.089 E30.44436
G1 X102.942 Y79.973 E30.45055
G1 X103.098 Y79.9 E30.45914
G1 X105.098 Y79.9 E30.55892
G1 X105.159 Y79.909 E30.562
G1 X105.298 Y80.1 E30.57378
G1 X105.298 Y81.8 E30.6586
G1 X105.798 Y81.8 E30.68354
G1 F3200 X105.973 Y82 E30.69597
G1 F3428.6 X105.973 Y85.603 E30.85326
G1 X105.973 Y89.206 E31.01054
G1 X105.973 Y92.809 E31.16783
G1 X105.973 Y96.412 E31.32511
G1 X105.973 Y100.015 E31.4824
G1 F3418.8 X105.973 Y103.618 E31.64013
G1 X105.973 Y107.221 E31.79787
G1 X105.973 Y110.824 E31.9556
G1 X105.973 Y114.427 E32.11334
G1 X105.972 Y118.03 E32.27107
G1 F3191.5 X105.798 Y118.2 E32.28248
G1 F3000 X105.298 Y118.2 E32.30742
G1 X105.298 Y119.9 E32.39224
G0 F3600 X105.181 Y120.061
G0 X105.793 Y120.021
;TYPE:WALL-INNER
G1 F1983.5 X105.798 Y119.9 E32.40138
G1 F2000 X105.798 Y118.7 E32.49118
G0 F3600 X105.636 Y120.438
G0 X103.269 Y121.295
G1 F1983.5 X103.148 Y121.3 E32.50032
G1 F2000 X95.492 Y121.299 E33.07325
G1 F2097.9 X95.135 Y121.271 E33.0988
G0 F3600 X103.269 Y121.295
G1 F2376.2 X104.138 Y121.399 E33.15393
G1 F3000 X105.898 Y121.4 E33.24174
G1 X105.898 Y120.925 E33.26543
G1 F2376.2 X105.793 Y120.021 E33.32276
G1 X105.28 Y120.473 E33.36582
G1 F3000 X104.138 Y120.5 E33.42281
G1 X103.748 Y120.5 E33.44227
G1 X103.714 Y120.8 E33.45733
G1 F2376.2 X103.269 Y121.295 E33.49926
G1 F2400 E32.49926
G0 F3600 X105.522 Y120.324
G0 X104.445 Y119.247
G0 X105.145 Y82.653
G0 X105.522 Y81.57
G0 X105.798 Y81.3
G1 F2400 E33.49926
G1 F2000 X105.798 Y80.1 E33.58906
G0 F3600 X102.56 Y79.562
G0 X102.498 Y80.069
G1 F3000 X102.632 Y79.72 E33.60771
G1 X102.994 Y79.508 E33.62864
G1 X103.098 Y79.5 E33.63384
G1 X105.098 Y79.5 E33.73362
G1 X105.28 Y79.527 E33.7428
G1 F2400 X105.798 Y80.1 E33.79097
G1 F2181.8 X105.848 Y79.588 E33.82626
G1 F2666.7 X105.898 Y79.075 E33.85519
G1 F3000 X105.898 Y78.6 E33.87889
G1 X100.723 Y78.6 E34.13707
G1 X100.32 Y78.669 E34.15747
G1 X100.002 Y78.803 E34.17469
G1 X99.735 Y79.005 E34.19139
G1 X99.524 Y79.268 E34.20821
G1 X99.381 Y79.577 E34.2252
G1 X99.317 Y79.926 E34.2429
G1 X99.333 Y80.239 E34.25854
G1 X99.44 Y80.576 E34.27618
G1 X99.615 Y80.862 E34.2929
G1 X99.864 Y81.102 E34.31016
G1 X100.156 Y81.272 E34.32702
G1 X100.579 Y81.382 E34.34882
G1 X101.101 Y81.399 E34.37488
G1 X102.498 Y81.399 E34.44457
G1 X102.498 Y80.069 E34.51093
G0 F3600 X102.118 Y80.053
;TYPE:SKIN
G1 F3000 X102.307 Y79.534 E34.53848
G1 X102.393 Y79.433 E34.5451
G1 F2666.7 X102.838 Y79.114 E34.57583
G1 F2285.7 X102.943 Y79.056 E34.58369
G1 F2526.3 X102.271 Y78.98 E34.62375
G1 F3000 X101.1 Y78.981 E34.68218
G1 X100.641 Y79.003 E34.7051
G1 X100.296 Y79.074 E34.72267
G1 X100.093 Y79.191 E34.73436
G1 X99.849 Y79.47 E34.75286
G1 X99.708 Y79.811 E34.77127
G1 X99.71 Y80.176 E34.78948
G1 X99.849 Y80.504 E34.80725
G1 X99.992 Y80.718 E34.82009
G1 X100.305 Y80.918 E34.83862
G1 X100.844 Y81.019 E34.86598
G1 X102.118 Y81.019 E34.92954
G1 X102.118 Y80.053 E34.97773
G0 F3600 X102.943 Y79.056
G1 F2201.8 X103.102 Y79.05 E34.98855
G1 F2222.2 X105.094 Y79.05 E35.12271
G1 F2120.1 X105.422 Y79.076 E35.14594
