;FLAVOR:Marlin
;TIME:634
;Filament used: 0.346135m
;Layer height: 0.15
;MINX:89.802
;MINY:73.872
;MINZ:0.3
;MAXX:119.634
;MAXY:124.85
;MAXZ:4.95
;Generated with Cura_SteamEngine 5.0.0
M140 S60
M105
M190 S60
M104 S210
M105
M109 S210
M82 ;absolute extrusion mode
G21 ;metric values
 G90 ;absolute positioning
 M82 ;set extruder to absolute mode
 M107 ;start with the fan off
 G28 X0 Y0 ;move X/Y to min endstops
 G28 Z0 ;move Z to min endstops
 G1 Z10.0 F120 ;move the platform down 10mm
 G92 E0 ;zero the extruded length
 G1 F200 E3 ;extrude 3 mm of feed stock
 G92 E0 ;zero the extruded length again
 G1 F120 
 ;Put printing message on LCD screen
 M117 Printing...
G92 E0
G92 E0
G1 F2400 E-1
;LAYER_COUNT:32
;LAYER:0
M107
G0 F3600 X90.803 Y76.279 Z0.3
G0 X89.802 Y79.396
;TYPE:SKIRT
G1 F2400 E0
G1 F1800 X89.812 Y78.707 E0.03438
G1 X89.86 Y78.173 E0.06113
G1 X89.987 Y77.651 E0.08793
G1 X90.189 Y77.155 E0.11465
G1 X90.463 Y76.694 E0.1414
G1 X90.803 Y76.279 E0.16817
G1 X91.2 Y75.919 E0.19491
G1 X91.647 Y75.622 E0.22168
G1 X92.132 Y75.394 E0.24842
G1 X92.646 Y75.241 E0.27517
G1 X93.157 Y75.168 E0.30093
G1 X96.049 Y74.962 E0.44557
G1 X98.767 Y74.69 E0.58185
G1 X101.437 Y74.346 E0.71616
G1 X103.964 Y73.95 E0.84377
G1 X104.53 Y73.894 E0.87215
G1 X105.277 Y73.873 E0.90943
G1 X115.379 Y73.872 E1.41342
G1 X116.077 Y73.882 E1.44825
G1 X116.611 Y73.93 E1.475
G1 X117.132 Y74.056 E1.50174
G1 X117.629 Y74.259 E1.52852
G1 X118.09 Y74.533 E1.55528
G1 X118.505 Y74.872 E1.58201
G1 X118.865 Y75.27 E1.60879
G1 X119.162 Y75.716 E1.63552
G1 X119.39 Y76.202 E1.6623
G1 X119.542 Y76.716 E1.68904
G1 X119.624 Y77.381 E1.72247
G1 X119.634 Y77.802 E1.74348
G1 X119.634 Y119.281 E3.81288
G1 X119.625 Y120.007 E3.8491
G1 X119.578 Y120.541 E3.87584
G1 X119.453 Y121.062 E3.90257
G1 X119.251 Y121.559 E3.92934
G1 X118.978 Y122.021 E3.95611
G1 X118.64 Y122.437 E3.98285
G1 X118.243 Y122.798 E4.00962
G1 X117.797 Y123.096 E4.03639
G1 X117.312 Y123.324 E4.06312
G1 X116.798 Y123.478 E4.08989
G1 X116.281 Y123.553 E4.11596
G1 X113.394 Y123.758 E4.26035
G1 X110.697 Y124.03 E4.39559
G1 X107.976 Y124.38 E4.53246
G1 X105.471 Y124.772 E4.65895
G1 X104.907 Y124.828 E4.68723
G1 X104.09 Y124.85 E4.728
G1 X94.057 Y124.85 E5.22855
G1 X93.359 Y124.84 E5.26338
G1 X92.825 Y124.792 E5.29013
G1 X92.304 Y124.666 E5.31687
G1 X91.807 Y124.463 E5.34366
G1 X91.346 Y124.189 E5.37041
G1 X90.931 Y123.85 E5.39714
G1 X90.571 Y123.452 E5.42392
G1 X90.274 Y123.006 E5.45065
G1 X90.046 Y122.52 E5.47743
G1 X89.894 Y122.006 E5.50418
G1 X89.812 Y121.338 E5.53775
G1 X89.802 Y120.908 E5.55921
G1 X89.802 Y79.396 E7.63025
G0 F3600 X90.202 Y79.402
G1 F1800 X90.212 Y78.713 E7.66463
G1 X90.26 Y78.209 E7.68989
G1 X90.386 Y77.72 E7.71508
G1 X90.587 Y77.256 E7.74031
G1 X90.859 Y76.83 E7.76553
G1 X91.195 Y76.452 E7.79076
G1 X91.586 Y76.131 E7.816
G1 X92.022 Y75.876 E7.8412
G1 X92.494 Y75.694 E7.86643
G1 X93.185 Y75.567 E7.90149
G1 X96.084 Y75.361 E8.04648
G1 X98.791 Y75.09 E8.18221
G1 X101.51 Y74.739 E8.31899
G1 X104.026 Y74.345 E8.44604
G1 X104.563 Y74.293 E8.47296
G1 X105.346 Y74.272 E8.51204
G1 X115.373 Y74.272 E9.01228
G1 X116.071 Y74.282 E9.04711
G1 X116.574 Y74.329 E9.07232
G1 X117.064 Y74.455 E9.09756
G1 X117.528 Y74.657 E9.1228
G1 X117.954 Y74.929 E9.14802
G1 X118.332 Y75.264 E9.17322
G1 X118.652 Y75.655 E9.19843
G1 X118.907 Y76.092 E9.22367
G1 X119.09 Y76.563 E9.24888
G1 X119.197 Y77.057 E9.2741
G1 X119.233 Y77.712 E9.30682
G1 X119.234 Y119.276 E11.38046
G1 X119.225 Y120.002 E11.41668
G1 X119.179 Y120.505 E11.44188
G1 X119.054 Y120.995 E11.46711
G1 X118.853 Y121.459 E11.49234
G1 X118.582 Y121.886 E11.51757
G1 X118.247 Y122.265 E11.54281
G1 X117.857 Y122.586 E11.56801
G1 X117.421 Y122.842 E11.59323
G1 X116.95 Y123.025 E11.61844
G1 X116.252 Y123.154 E11.65385
G1 X113.361 Y123.36 E11.79845
G1 X110.642 Y123.633 E11.93479
G1 X107.899 Y123.986 E12.07276
G1 X105.409 Y124.376 E12.1985
G1 X104.874 Y124.429 E12.22533
G1 X104.09 Y124.45 E12.26445
G1 X94.063 Y124.45 E12.7647
G1 X93.365 Y124.44 E12.79953
G1 X92.862 Y124.393 E12.82473
G1 X92.372 Y124.267 E12.84998
G1 X91.908 Y124.065 E12.87522
G1 X91.482 Y123.793 E12.90044
G1 X91.104 Y123.458 E12.92564
G1 X90.784 Y123.067 E12.95084
G1 X90.529 Y122.63 E12.97609
G1 X90.346 Y122.159 E13.0013
G1 X90.239 Y121.665 E13.02651
G1 X90.203 Y120.995 E13.05999
G1 X90.202 Y79.402 E15.13507
G1 F2400 E14.13507
;MESH:HarriettBox-DisplayStrip-Proto7.stl
G0 F3600 X92.737 Y79.402
G0 X93.832 Y79.402
G0 X94.002 Y82.14
G1 F2400 E15.13507
G0 F3600 X94.002 Y82.75
;TYPE:WALL-OUTER
G1 F1800 X94.202 Y82.55 E15.14918
G1 X94.802 Y82.55 E15.17912
G1 X94.802 Y80.55 E15.2789
G1 X94.882 Y80.39 E15.28782
G1 X95.002 Y80.35 E15.29413
G1 X97.002 Y80.35 E15.39391
G1 X97.162 Y80.43 E15.40284
G1 X97.202 Y80.75 E15.41893
G1 X97.202 Y82.55 E15.50873
G1 X99.393 Y82.55 E15.61804
G1 X99.889 Y82.466 E15.64314
G1 X100.101 Y82.406 E15.65413
G1 X100.486 Y82.184 E15.6763
G1 X100.799 Y81.882 E15.698
G1 X101.032 Y81.506 E15.72007
G1 X101.167 Y81.084 E15.74217
G1 X101.196 Y80.644 E15.76417
G1 X101.123 Y80.225 E15.78539
G1 X100.932 Y79.807 E15.80832
G1 X100.657 Y79.462 E15.83033
G1 X100.478 Y79.327 E15.84152
G1 X100.302 Y79.194 E15.85252
G1 X99.895 Y79.021 E15.87459
G1 X99.307 Y78.952 E15.90412
G1 X93.602 Y78.95 E16.18875
G1 X93.602 Y121.05 E18.28912
G1 X104.593 Y121.05 E18.83747
G1 X104.918 Y121.015 E18.85377
G1 X105.348 Y120.879 E18.87628
G1 X105.738 Y120.634 E18.89925
G1 X106.056 Y120.289 E18.92266
G1 X106.267 Y119.896 E18.94492
G1 X106.373 Y119.502 E18.96527
G1 F1392.6 X106.264 Y119.065 E18.99431
G1 X105.928 Y119.614 E19.03582
G1 F1800 X105.663 Y119.863 E19.05396
G1 X105.374 Y119.996 E19.06983
G1 X105.11 Y120.048 E19.08326
G1 X96.952 Y120.05 E19.49026
G1 X96.785 Y119.962 E19.49968
G1 X96.752 Y119.65 E19.51533
G1 X95.002 Y119.65 E19.60264
G1 X94.882 Y119.61 E19.60895
G1 X94.802 Y119.45 E19.61787
G1 X94.802 Y117.45 E19.71765
G1 X94.202 Y117.45 E19.74759
G1 X94.002 Y117.25 E19.7617
G1 X94.002 Y82.75 E21.48291
G0 F3600 X94.143 Y82.609
G1 F2400 E20.48291
G0 F3600 X94.143 Y82.14
G0 X94.855 Y83.403
G0 X97.202 Y116.585
G0 X97.202 Y117.45
G1 F2400 E21.48291
G1 F1800 X97.551 Y117.85 E21.5094
G1 F1804.5 X104.631 Y117.851 E21.86174
G1 F1860.5 X104.95 Y117.864 E21.87715
G1 F1565.2 X105.168 Y117.784 E21.89047
G1 F1198 X105.338 Y117.764 E21.9033
G1 F1398.1 X104.979 Y117.491 E21.93227
G1 F1860.5 X104.631 Y117.451 E21.94918
G1 F1804.5 X97.202 Y117.45 E22.31889
G0 F3600 X97.333 Y117.6
G1 F2400 E21.31889
G0 F3600 X97.333 Y120.26
G0 X96.952 Y120.55
;TYPE:WALL-INNER
G1 F2400 E22.31889
G1 F1200 X100.763 Y120.55 E22.60408
G1 F1198 X104.574 Y120.549 E22.88976
G1 F1214.2 X104.785 Y120.541 E22.90537
G0 F3600 X105.729 Y120.104
G0 X106.264 Y119.065
;TYPE:WALL-OUTER
G1 F1176.5 X106.234 Y118.767 E22.92823
G1 F1245.7 X106.061 Y118.35 E22.96078
G1 F1265.4 X105.745 Y117.985 E22.99504
G1 F1172.6 X105.338 Y117.764 E23.03051
G1 F2400 E22.03051
G0 F3600 X105.044 Y118.716
G0 X97.605 Y119.197
G0 X96.528 Y119.874
G0 X94.564 Y119.888
G1 F2400 E23.03051
G0 F3600 X94.407 Y119.554
;TYPE:WALL-INNER
G1 F1786.6 X94.402 Y119.45 E23.03574
G1 F1800 X94.402 Y117.85 E23.11557
G1 X94.202 Y117.85 E23.12555
G1 X94.002 Y117.682 E23.13858
G1 X94.002 Y119.45 E23.22678
G1 X94.002 Y120.25 E23.2667
G1 X94.002 Y120.65 E23.28665
G1 F1694.1 X94.502 Y120.625 E23.31319
G1 F1515.8 X95.002 Y120.6 E23.34285
G1 F1442.9 X96.204 Y120.6 E23.41766
G1 F1311.5 X96.952 Y120.55 E23.46899
G1 X96.412 Y120.211 E23.51265
G1 F1442.9 X96.378 Y120.1 E23.51988
G1 X95.002 Y120.1 E23.60552
G1 F1600 X94.642 Y119.93 E23.62786
G1 F1786.6 X94.407 Y119.554 E23.65015
G1 F2400 E22.65015
G0 F3600 X94.392 Y119.554
G0 X94.578 Y117.674
G0 X94.855 Y116.597
G0 X94.855 Y83.403
G0 X94.578 Y82.326
G0 X94.564 Y80.112
G0 X94.889 Y79.906
G1 F2400 E23.65015
G1 F1431.4 X95.002 Y79.9 E23.65725
G1 F1440 X97.002 Y79.9 E23.78197
G1 F1600 X97.482 Y80.19 E23.81345
G1 F1800 X97.602 Y80.55 E23.83238
G1 X97.602 Y82.15 E23.9122
G1 X99.377 Y82.15 E24.00076
G1 X99.78 Y82.081 E24.02116
G1 X100.097 Y81.947 E24.03833
G1 X100.364 Y81.745 E24.05503
G1 X100.576 Y81.482 E24.07188
G1 X100.719 Y81.172 E24.08892
G1 X100.783 Y80.823 E24.10662
G1 X100.767 Y80.512 E24.12216
G1 X100.659 Y80.172 E24.13995
G1 X100.484 Y79.887 E24.15664
G1 X100.237 Y79.647 E24.17382
G1 X99.944 Y79.477 E24.19072
G1 X99.567 Y79.376 E24.21019
G1 X99.002 Y79.351 E24.23841
G1 X97.902 Y79.351 E24.29329
G1 F1600 X97.002 Y79.401 E24.34388
G1 F1440 X95.002 Y79.401 E24.4686
G1 F1600 X94.402 Y79.351 E24.5024
G1 F1800 X94.002 Y79.35 E24.52235
G1 X94.002 Y82.35 E24.67202
G1 X94.202 Y82.15 E24.68614
G1 X94.402 Y82.15 E24.69611
G1 X94.402 Y80.55 E24.77594
G1 X94.642 Y80.07 E24.80271
G1 F1589.4 X94.889 Y79.906 E24.81946
G0 F3600 X94.453 Y79.756
;TYPE:SKIN
G1 F1659 X94.426 Y79.802 E24.82235
G1 X94.372 Y79.802 E24.82527
G1 X94.346 Y79.756 E24.82813
G1 X94.373 Y79.71 E24.83102
G1 X94.426 Y79.71 E24.83389
G0 F3600 X97.54 Y80.012
G0 X97.982 Y80.751
G1 F1800 X97.982 Y81.77 E24.88473
G1 X99.348 Y81.77 E24.95288
G1 X99.601 Y81.717 E24.96577
G1 X99.903 Y81.619 E24.98161
G1 X100.14 Y81.407 E24.99748
G1 X100.249 Y81.284 E25.00568
G1 X100.392 Y80.939 E25.02431
G1 X100.39 Y80.575 E25.04247
G1 X100.251 Y80.245 E25.06034
G1 X100.107 Y80.029 E25.07329
G1 X99.795 Y79.83 E25.09175
G1 X99.258 Y79.733 E25.11897
G1 X97.913 Y79.732 E25.18608
G1 X97.518 Y79.775 E25.2059
G1 X97.792 Y79.972 E25.22274
G1 X97.972 Y80.489 E25.25005
G1 X97.982 Y80.751 E25.26313
G0 F3600 X98.54 Y81.569
G1 F1800 X98.181 Y81.21 E25.28846
G0 F3600 X98.181 Y80.644
G1 F1800 X99.105 Y81.569 E25.35369
G0 F3600 X99.6 Y81.498
G1 F1800 X98.033 Y79.932 E25.46421
G0 F3600 X98.599 Y79.932
G1 F1800 X99.958 Y81.291 E25.5601
G0 F3600 X100.174 Y80.941
G1 F1800 X99.165 Y79.932 E25.63129
G1 X99.095 Y79.862
G1 F2400 E24.63129
G0 F3600 X97.426 Y82.326
G0 X97.426 Y83.415
G0 X94.855 Y116.597
G0 X94.578 Y117.674
G0 X94.429 Y120.201
G1 F2400 E25.63129
G1 F1651.4 X94.376 Y120.201 E25.63417
G1 X94.349 Y120.247 E25.63707
G1 X94.375 Y120.293 E25.63994
G1 X94.429 Y120.293 E25.64288
G1 X94.456 Y120.247 E25.64578
G0 F3600 X94.312 Y120.242
G1 F2400 E24.64578
;MESH:HarriettBox-DisplayStrip-Proto7.stl(1)
G0 F3600 X96.528 Y119.874
G0 X97.605 Y119.197
G0 X99.068 Y118.703
G0 X97.178 Y118.711
G0 X96.34 Y117.818
G0 X96.349 Y116.597
G0 X105.011 Y116.616
G0 X106.209 Y117.124
G0 X107.405 Y118.386
G0 X108.49 Y118.255
G0 X111.996 Y118.61
G0 X114.872 Y118.61
G0 X115.433 Y116.582
G1 F2400 E25.64578
G0 F3600 X115.433 Y116.007
;TYPE:WALL-OUTER
G1 F1795.5 X115.234 Y116.172 E25.65871
G1 F1800 X114.634 Y116.172 E25.68864
G1 X114.634 Y118.172 E25.78842
G1 X114.554 Y118.332 E25.79735
G1 X114.434 Y118.372 E25.80366
G1 X112.434 Y118.372 E25.90344
G1 X112.274 Y118.292 E25.91236
G1 X112.234 Y117.972 E25.92845
G1 X112.234 Y116.172 E26.01825
G1 X110.043 Y116.172 E26.12756
G1 X109.548 Y116.256 E26.15261
G1 X109.334 Y116.316 E26.1637
G1 X108.949 Y116.538 E26.18587
G1 X108.637 Y116.84 E26.20754
G1 X108.404 Y117.216 E26.22961
G1 X108.268 Y117.638 E26.25173
G1 X108.239 Y118.078 E26.27372
G1 X108.313 Y118.497 E26.29495
G1 X108.501 Y118.912 E26.31768
G1 X108.776 Y119.258 E26.33973
G1 X109.134 Y119.528 E26.3621
G1 X109.539 Y119.7 E26.38406
G1 X110.128 Y119.771 E26.41365
G1 X115.834 Y119.772 E26.69833
G1 X115.834 Y78.472 E28.75879
G1 X115.834 Y77.672 E28.7987
G1 X104.843 Y77.672 E29.34705
G1 X104.518 Y77.707 E29.36336
G1 X104.086 Y77.843 E29.38595
G1 X103.698 Y78.088 E29.40884
G1 X103.379 Y78.434 E29.43232
G1 X103.169 Y78.825 E29.45447
G1 X103.063 Y79.222 E29.47497
G1 F1734.9 X103.056 Y79.591 E29.49407
G1 F1403.5 X103.196 Y79.905 E29.51607
G1 F1445.8 X103.362 Y79.369 E29.55092
G1 F1800 X103.543 Y79.063 E29.56866
G1 X103.835 Y78.828 E29.58736
G1 X104.061 Y78.726 E29.59973
G1 X104.325 Y78.674 E29.61315
G1 X112.484 Y78.672 E30.02021
G1 X112.651 Y78.76 E30.02962
G1 X112.684 Y79.072 E30.04528
G1 X114.434 Y79.072 E30.13258
G1 X114.554 Y79.112 E30.13889
G1 X114.634 Y79.272 E30.14782
G1 X114.634 Y81.272 E30.2476
G1 X115.234 Y81.272 E30.27753
G1 X115.434 Y81.472 E30.29164
G1 X115.434 Y85.309 E30.48307
G1 X115.434 Y89.146 E30.6745
G1 X115.434 Y92.983 E30.86593
G1 X115.434 Y96.82 E31.05736
G1 F1795.5 X115.434 Y100.657 E31.24927
G1 X115.434 Y104.494 E31.44117
G1 X115.434 Y108.331 E31.63308
G1 X115.434 Y112.168 E31.82499
G1 X115.434 Y116.005 E32.0169
G0 F3600 X115.279 Y116.134
G1 F2400 E31.0169
G0 F3600 X115.279 Y116.582
G0 X114.581 Y115.319
G0 X103.794 Y81.926
G0 X104.096 Y80.957
G1 F2400 E32.0169
G1 F1166.9 X103.691 Y80.737 E32.05236
G1 F1260.9 X103.372 Y80.369 E32.08705
G1 F1245.7 X103.202 Y79.956 E32.11925
G1 F1212.1 X103.196 Y79.905 E32.12305
G0 F3600 X104.096 Y80.957
G1 F1398.1 X104.455 Y81.231 E32.15206
G1 F1860.5 X104.804 Y81.271 E32.16902
G1 F1804.5 X112.235 Y81.273 E32.53882
G1 X111.884 Y80.872 E32.56534
G1 X104.804 Y80.871 E32.91768
G1 F1860.5 X104.484 Y80.858 E32.93314
G1 F1565.2 X104.267 Y80.938 E32.94641
G1 F1198 X104.096 Y80.957 E32.95931
G0 F3600 X104.255 Y81.078
G1 F2400 E31.95931
G0 F3600 X103.937 Y78.516
G0 X104.651 Y78.181
;TYPE:WALL-INNER
G1 F2400 E32.95931
G1 F1212.1 X104.862 Y78.173 E32.97495
G1 F1198 X108.673 Y78.173 E33.26062
G1 F1200 X112.484 Y78.172 E33.54582
G0 F3600 X114.972 Y78.734
G0 X115.034 Y79.272
G1 F1800 X115.034 Y80.872 E33.62565
G1 X115.234 Y80.872 E33.63562
G1 X115.434 Y81.072 E33.64974
G1 X115.434 Y78.472 E33.77945
G1 X115.434 Y78.072 E33.79941
G1 F1694.1 X114.934 Y78.097 E33.82594
G1 F1515.8 X114.434 Y78.122 E33.8556
G1 F1440 X113.232 Y78.122 E33.93056
G1 F1309.1 X112.484 Y78.172 E33.98199
G1 X113.025 Y78.51 E34.02575
G1 F1440 X113.058 Y78.622 E34.03303
G1 X114.434 Y78.622 E34.11884
G1 F1600 X114.794 Y78.792 E34.14119
G1 F1800 X115.034 Y79.272 E34.16796
G1 F2400 E33.16796
G0 F3600 X115.044 Y79.272
G0 X114.858 Y81.048
G0 X114.581 Y82.125
G0 X114.581 Y115.319
G0 X114.858 Y116.396
G0 X114.872 Y118.61
G0 X114.547 Y118.816
G1 F2400 E34.16796
G1 F1431.4 X114.434 Y118.822 E34.17506
G1 F1440 X112.434 Y118.822 E34.29979
G1 F1600 X111.954 Y118.532 E34.33126
G1 F1800 X111.834 Y118.172 E34.35019
G1 X111.834 Y116.572 E34.43002
G1 X110.059 Y116.572 E34.51857
G1 X109.655 Y116.641 E34.53902
G1 X109.337 Y116.776 E34.55626
G1 X109.071 Y116.976 E34.57286
G1 X108.86 Y117.241 E34.58976
G1 X108.716 Y117.553 E34.6069
G1 X108.652 Y117.896 E34.62431
G1 X108.669 Y118.214 E34.6402
G1 X108.775 Y118.548 E34.65768
G1 X108.949 Y118.833 E34.67434
G1 X109.199 Y119.076 E34.69173
G1 X109.49 Y119.243 E34.70847
G1 X109.868 Y119.347 E34.72803
G1 X110.434 Y119.371 E34.75629
G1 X111.534 Y119.371 E34.81117
G1 F1600 X112.434 Y119.321 E34.86177
G1 F1440 X114.434 Y119.321 E34.98649
G1 F1600 X115.034 Y119.371 E35.02028
G1 F1800 X115.434 Y119.372 E35.04024
G1 F1786.6 X115.431 Y118.311 E35.09357
G1 X115.434 Y118.172 E35.10056
G1 F1800 X115.434 Y116.405 E35.18871
G1 X115.234 Y116.572 E35.20171
G1 X115.034 Y116.572 E35.21169
G1 X115.034 Y118.172 E35.29152
G1 F1786.6 X115.029 Y118.276 E35.29675
G1 X114.794 Y118.652 E35.31904
G1 F1589.4 X114.547 Y118.816 E35.33579
G0 F3600 X115.062 Y118.919
;TYPE:SKIN
G1 F1651.4 X115.009 Y118.919 E35.33867
G1 X114.982 Y118.965 E35.34157
G1 X115.008 Y119.011 E35.34444
G1 X115.062 Y119.011 E35.34738
G1 X115.089 Y118.965 E35.35028
G0 F3600 X111.896 Y118.71
G0 X111.464 Y118.233
G1 F1800 X111.454 Y117.972 E35.36331
G1 X111.454 Y116.953 E35.41415
G1 X110.076 Y116.952 E35.4829
G1 X109.739 Y117.029 E35.50015
G1 X109.534 Y117.104 E35.51104
G1 X109.25 Y117.337 E35.52936
G1 X109.081 Y117.664 E35.54773
G1 X109.027 Y118.034 E35.56638
G1 X109.118 Y118.374 E35.58394
G1 X109.334 Y118.677 E35.60251
G1 X109.613 Y118.866 E35.61932
