;FLAVOR:Marlin
;TIME:7462
;Filament used: 11.2843m
;Layer height: 0.4
;MINX:40.2
;MINY:64.677
;MINZ:0.3
;MAXX:159.8
;MAXY:142.238
;MAXZ:50.3
;Generated with Cura_SteamEngine 5.0.0
M140 S60
M105
M190 S60
M104 S210
M105
M109 S210
M82 ;absolute extrusion mode
G21 ;metric values
 G90 ;absolute positioning
 M82 ;set extruder to absolute mode
 M107 ;start with the fan off
 G28 X0 Y0 ;move X/Y to min endstops
 G28 Z0 ;move Z to min endstops
 G1 Z10.0 F120 ;move the platform down 10mm
 G92 E0 ;zero the extruded length
 G1 F200 E3 ;extrude 3 mm of feed stock
 G92 E0 ;zero the extruded length again
 G1 F120 
 ;Put printing message on LCD screen
 M117 Printing...
G92 E0
G92 E0
G1 F2400 E-1
;LAYER_COUNT:126
;LAYER:0
M107
G0 F3600 X43.87 Y66.321 Z0.3
G0 X40.2 Y72.938
;TYPE:SKIRT
G1 F2400 E0
G1 F1800 X40.24 Y72.149 E0.03941
G1 X40.359 Y71.369 E0.07878
G1 X40.557 Y70.604 E0.1182
G1 X40.831 Y69.864 E0.15757
G1 X41.179 Y69.155 E0.19697
G1 X41.597 Y68.484 E0.23641
G1 X42.08 Y67.86 E0.27578
G1 X42.623 Y67.287 E0.31517
G1 X43.222 Y66.772 E0.35458
G1 X43.87 Y66.321 E0.39397
G1 X44.561 Y65.937 E0.43341
G1 X45.286 Y65.625 E0.47278
G1 X46.039 Y65.388 E0.51217
G1 X46.813 Y65.229 E0.55159
G1 X47.598 Y65.148 E0.59096
G1 X48 Y65.138 E0.61102
G1 X152 Y65.137 E5.7996
G1 X152.789 Y65.177 E5.83902
G1 X153.569 Y65.296 E5.87838
G1 X154.334 Y65.494 E5.91781
G1 X155.074 Y65.768 E5.95717
G1 X155.783 Y66.116 E5.99658
G1 X156.454 Y66.533 E6.03599
G1 X157.078 Y67.017 E6.07539
G1 X157.651 Y67.56 E6.11477
G1 X158.166 Y68.159 E6.15418
G1 X158.617 Y68.807 E6.19357
G1 X159.001 Y69.497 E6.23297
G1 X159.313 Y70.223 E6.27239
G1 X159.55 Y70.976 E6.31178
G1 X159.709 Y71.75 E6.3512
G1 X159.79 Y72.535 E6.39057
G1 X159.8 Y72.937 E6.41063
G1 X159.8 Y120.923 E8.80466
G1 X159.76 Y121.712 E8.84408
G1 X159.641 Y122.492 E8.88344
G1 X159.443 Y123.257 E8.92286
G1 X159.169 Y123.997 E8.96223
G1 X158.821 Y124.706 E9.00164
G1 X158.403 Y125.377 E9.04108
G1 X157.92 Y126.001 E9.08045
G1 X157.377 Y126.574 E9.11983
G1 X156.778 Y127.089 E9.15924
G1 X156.13 Y127.54 E9.19863
G1 X155.439 Y127.924 E9.23807
G1 X154.714 Y128.236 E9.27745
G1 X153.961 Y128.473 E9.31683
G1 X153.187 Y128.632 E9.35625
G1 X152.402 Y128.713 E9.39562
G1 X152 Y128.723 E9.41568
G1 X142.248 Y128.723 E9.90221
G1 X142.583 Y129.339 E9.9372
G1 X142.888 Y130.067 E9.97658
G1 X143.117 Y130.823 E10.01599
G1 X143.269 Y131.598 E10.05539
G1 X143.342 Y132.384 E10.09477
G1 X143.336 Y133.031 E10.12705
G1 X143.338 Y134.024 E10.17659
G1 X143.244 Y134.808 E10.21598
G1 X142.979 Y136.034 E10.27856
G1 X142.738 Y136.786 E10.31796
G1 X142.423 Y137.51 E10.35735
G1 X142.035 Y138.198 E10.39676
G1 X141.581 Y138.844 E10.43615
G1 X141.063 Y139.44 E10.47555
G1 X140.487 Y139.981 E10.51497
G1 X139.86 Y140.461 E10.55436
G1 X139.188 Y140.875 E10.59374
G1 X138.477 Y141.218 E10.63313
G1 X137.735 Y141.489 E10.67254
G1 X136.969 Y141.683 E10.71196
G1 X136.384 Y141.838 E10.74215
G1 X135.606 Y141.976 E10.78157
G1 X135.009 Y142.013 E10.81141
G1 X133.983 Y142.197 E10.86342
G1 X133.186 Y142.238 E10.90323
G1 X130.814 Y142.238 E11.02157
G1 X130.025 Y142.198 E11.06099
G1 X129.245 Y142.079 E11.10035
G1 X129.009 Y142.018 E11.11251
G1 X128.577 Y141.996 E11.13409
G1 X127.797 Y141.877 E11.17346
G1 X127.067 Y141.688 E11.21108
G1 X126.223 Y141.478 E11.25447
G1 X125.483 Y141.204 E11.29384
G1 X124.774 Y140.856 E11.33324
G1 X124.103 Y140.438 E11.37268
G1 X123.479 Y139.955 E11.41205
G1 X122.906 Y139.412 E11.45143
G1 X122.391 Y138.813 E11.49084
G1 X122.001 Y138.253 E11.52489
G1 X121.547 Y138.886 E11.56375
G1 X121.025 Y139.479 E11.60317
G1 X120.446 Y140.015 E11.64253
G1 X119.816 Y140.491 E11.68193
G1 X119.141 Y140.9 E11.7213
G1 X118.427 Y141.239 E11.76073
G1 X117.683 Y141.504 E11.80014
G1 X116.879 Y141.698 E11.8414
G1 X116.41 Y141.833 E11.86575
G1 X115.633 Y141.973 E11.90514
G1 X115.007 Y142.013 E11.93643
G1 X113.994 Y142.196 E11.98779
G1 X113.184 Y142.238 E12.02825
G1 X110.814 Y142.238 E12.14649
G1 X110.025 Y142.198 E12.18591
G1 X109.245 Y142.079 E12.22527
G1 X109.008 Y142.018 E12.23748
G1 X108.579 Y141.996 E12.25891
G1 X107.799 Y141.877 E12.29828
G1 X107.063 Y141.686 E12.33621
G1 X106.236 Y141.479 E12.37875
G1 X105.496 Y141.205 E12.41811
G1 X104.787 Y140.857 E12.45752
G1 X104.116 Y140.439 E12.49696
G1 X103.492 Y139.956 E12.53633
G1 X102.919 Y139.413 E12.57571
G1 X102.404 Y138.814 E12.61512
G1 X102.004 Y138.239 E12.65007
G1 X101.542 Y138.887 E12.68977
G1 X101.02 Y139.479 E12.72915
G1 X100.44 Y140.016 E12.76858
G1 X99.81 Y140.492 E12.80797
G1 X99.134 Y140.901 E12.84739
G1 X98.421 Y141.24 E12.88678
G1 X97.677 Y141.505 E12.92618
G1 X96.885 Y141.696 E12.96683
G1 X96.41 Y141.833 E12.99149
G1 X95.633 Y141.973 E13.03088
G1 X95.007 Y142.013 E13.06218
G1 X93.994 Y142.196 E13.11353
G1 X93.184 Y142.238 E13.154
G1 X90.814 Y142.238 E13.27224
G1 X90.025 Y142.198 E13.31165
G1 X89.245 Y142.079 E13.35102
G1 X89.009 Y142.018 E13.36318
G1 X88.577 Y141.996 E13.38476
G1 X87.797 Y141.877 E13.42412
G1 X87.067 Y141.688 E13.46174
G1 X86.223 Y141.478 E13.50514
G1 X85.483 Y141.204 E13.5445
G1 X84.774 Y140.856 E13.58391
G1 X84.103 Y140.438 E13.62335
G1 X83.479 Y139.955 E13.66272
G1 X82.906 Y139.412 E13.7021
G1 X82.391 Y138.813 E13.74151
G1 X82.001 Y138.253 E13.77556
G1 X81.547 Y138.886 E13.81442
G1 X81.025 Y139.479 E13.85383
G1 X80.446 Y140.015 E13.8932
G1 X79.816 Y140.491 E13.93259
G1 X79.141 Y140.9 E13.97197
G1 X78.427 Y141.239 E14.0114
G1 X77.683 Y141.504 E14.0508
G1 X76.871 Y141.7 E14.09248
G1 X76.384 Y141.838 E14.11773
G1 X75.606 Y141.976 E14.15715
G1 X75.009 Y142.013 E14.18699
G1 X73.983 Y142.197 E14.239
G1 X73.186 Y142.238 E14.27881
G1 X70.814 Y142.238 E14.39715
G1 X70.025 Y142.198 E14.43656
G1 X69.245 Y142.079 E14.47593
G1 X69.009 Y142.018 E14.48809
G1 X68.577 Y141.996 E14.50967
G1 X67.797 Y141.877 E14.54904
G1 X67.067 Y141.688 E14.58666
G1 X66.223 Y141.478 E14.63005
G1 X65.483 Y141.204 E14.66942
G1 X64.774 Y140.856 E14.70882
G1 X64.103 Y140.438 E14.74826
G1 X63.479 Y139.955 E14.78763
G1 X62.906 Y139.412 E14.82701
G1 X62.391 Y138.813 E14.86642
G1 X61.94 Y138.165 E14.90581
G1 X61.556 Y137.474 E14.94525
G1 X61.244 Y136.749 E14.98463
G1 X61.007 Y135.996 E15.02401
G1 X60.734 Y134.797 E15.08536
G1 X60.639 Y134.013 E15.12476
G1 X60.624 Y133.224 E15.16413
G1 X60.657 Y132.699 E15.19038
G1 X60.699 Y131.91 E15.22979
G1 X60.821 Y131.13 E15.26918
G1 X61.021 Y130.366 E15.30858
G1 X61.298 Y129.626 E15.348
G1 X61.647 Y128.918 E15.38738
G1 X61.769 Y128.723 E15.39886
G1 X48 Y128.723 E16.0858
G1 X47.211 Y128.683 E16.12521
G1 X46.431 Y128.564 E16.16458
G1 X45.666 Y128.366 E16.204
G1 X44.926 Y128.092 E16.24337
G1 X44.217 Y127.744 E16.28277
G1 X43.546 Y127.326 E16.32221
G1 X42.922 Y126.843 E16.36158
G1 X42.349 Y126.3 E16.40096
G1 X41.834 Y125.701 E16.44037
G1 X41.383 Y125.053 E16.47976
G1 X40.999 Y124.362 E16.5192
G1 X40.687 Y123.637 E16.55858
G1 X40.45 Y122.884 E16.59796
G1 X40.291 Y122.11 E16.63739
G1 X40.21 Y121.325 E16.67676
G1 X40.2 Y120.923 E16.69682
G1 X40.2 Y72.938 E19.0908
G0 F3600 X40.6 Y72.938
G1 F1800 X40.64 Y72.17 E19.12917
G1 X40.759 Y71.41 E19.16755
G1 X40.957 Y70.667 E19.20591
G1 X41.231 Y69.948 E19.2443
G1 X41.578 Y69.262 E19.28265
G1 X41.994 Y68.615 E19.32103
G1 X42.475 Y68.015 E19.35939
G1 X43.016 Y67.468 E19.39777
G1 X43.611 Y66.98 E19.43617
G1 X44.253 Y66.557 E19.47452
G1 X44.936 Y66.202 E19.51293
G1 X45.651 Y65.921 E19.55125
G1 X46.393 Y65.715 E19.58967
G1 X47.151 Y65.587 E19.62802
G1 X48 Y65.538 E19.67045
G1 X152 Y65.537 E24.85903
G1 X152.768 Y65.577 E24.8974
G1 X153.528 Y65.696 E24.93578
G1 X154.271 Y65.894 E24.97414
G1 X154.99 Y66.168 E25.01253
G1 X155.676 Y66.515 E25.05088
G1 X156.323 Y66.931 E25.08926
G1 X156.923 Y67.412 E25.12762
G1 X157.47 Y67.953 E25.16601
G1 X157.958 Y68.548 E25.2044
G1 X158.381 Y69.19 E25.24275
G1 X158.736 Y69.873 E25.28116
G1 X159.017 Y70.588 E25.31949
G1 X159.223 Y71.329 E25.35786
G1 X159.351 Y72.088 E25.39626
G1 X159.4 Y72.937 E25.43868
G1 X159.4 Y120.923 E27.83272
G1 X159.36 Y121.691 E27.87108
G1 X159.241 Y122.451 E27.90946
G1 X159.043 Y123.194 E27.94782
G1 X158.769 Y123.913 E27.98621
G1 X158.422 Y124.599 E28.02457
G1 X158.006 Y125.246 E28.06294
G1 X157.525 Y125.846 E28.10131
G1 X156.984 Y126.393 E28.13969
G1 X156.389 Y126.881 E28.17808
G1 X155.747 Y127.304 E28.21644
G1 X155.064 Y127.659 E28.25484
G1 X154.349 Y127.94 E28.29317
G1 X153.607 Y128.146 E28.33159
G1 X152.849 Y128.274 E28.36994
G1 X152 Y128.323 E28.41237
G1 X141.505 Y128.323 E28.93596
G1 X141.906 Y128.922 E28.97193
G1 X142.265 Y129.602 E29.01029
G1 X142.551 Y130.316 E29.04866
G1 X142.762 Y131.056 E29.08705
G1 X142.894 Y131.813 E29.12539
G1 X142.948 Y132.581 E29.1638
G1 X142.957 Y133.427 E29.20601
G1 X142.923 Y134.195 E29.24436
G1 X142.809 Y134.956 E29.28275
G1 X142.582 Y135.97 E29.33459
G1 X142.343 Y136.701 E29.37296
G1 X142.029 Y137.403 E29.41133
G1 X141.643 Y138.069 E29.44973
G1 X141.191 Y138.691 E29.48809
G1 X140.677 Y139.263 E29.52646
G1 X140.106 Y139.778 E29.56482
G1 X139.484 Y140.231 E29.60321
G1 X138.819 Y140.617 E29.64157
G1 X138.117 Y140.933 E29.67998
G1 X137.387 Y141.173 E29.71832
G1 X136.867 Y141.286 E29.74487
G1 X136.236 Y141.461 E29.77754
G1 X135.477 Y141.588 E29.81593
G1 X134.93 Y141.619 E29.84326
G1 X134.584 Y141.705 E29.86105
G1 X133.822 Y141.811 E29.89943
G1 X133.186 Y141.838 E29.93119
G1 X130.814 Y141.838 E30.04953
G1 X130.046 Y141.798 E30.0879
G1 X129.286 Y141.679 E30.12628
G1 X129.066 Y141.62 E30.13764
G1 X128.598 Y141.596 E30.16102
G1 X127.838 Y141.477 E30.1994
G1 X127.162 Y141.297 E30.2343
G1 X126.286 Y141.078 E30.27935
G1 X125.567 Y140.804 E30.31774
G1 X124.881 Y140.457 E30.35609
G1 X124.234 Y140.041 E30.39446
G1 X123.634 Y139.56 E30.43283
G1 X123.087 Y139.019 E30.47121
G1 X122.599 Y138.424 E30.5096
G1 X122.176 Y137.782 E30.54796
G1 X122.004 Y137.45 E30.56662
G1 X121.615 Y138.111 E30.60488
G1 X121.159 Y138.73 E30.64324
G1 X120.64 Y139.299 E30.68166
G1 X120.066 Y139.81 E30.72
G1 X119.441 Y140.259 E30.75839
G1 X118.773 Y140.641 E30.79679
G1 X118.07 Y140.951 E30.83512
G1 X117.338 Y141.187 E30.87349
G1 X116.26 Y141.457 E30.92893
G1 X115.502 Y141.586 E30.96729
G1 X114.926 Y141.62 E30.99608
G1 X113.833 Y141.809 E31.05142
G1 X113.184 Y141.838 E31.08383
G1 X110.814 Y141.838 E31.20207
G1 X110.046 Y141.798 E31.24044
G1 X109.286 Y141.679 E31.27881
G1 X109.066 Y141.62 E31.29018
G1 X108.6 Y141.596 E31.31346
G1 X107.84 Y141.477 E31.35184
G1 X107.157 Y141.295 E31.3871
G1 X106.299 Y141.079 E31.43124
G1 X105.58 Y140.805 E31.46963
G1 X104.894 Y140.458 E31.50798
G1 X104.247 Y140.042 E31.54636
G1 X103.647 Y139.561 E31.58472
G1 X103.1 Y139.02 E31.62311
G1 X102.612 Y138.425 E31.6615
G1 X102.189 Y137.783 E31.69985
G1 X102 Y137.449 E31.719
G1 X101.61 Y138.112 E31.75738
G1 X101.153 Y138.731 E31.79576
G1 X100.634 Y139.299 E31.83415
G1 X100.06 Y139.811 E31.87252
G1 X99.435 Y140.26 E31.91092
G1 X98.767 Y140.641 E31.94928
G1 X98.064 Y140.951 E31.98761
G1 X97.331 Y141.187 E32.02603
G1 X96.26 Y141.457 E32.08114
G1 X95.502 Y141.586 E32.1195
G1 X94.926 Y141.62 E32.14828
G1 X93.833 Y141.809 E32.20362
G1 X93.184 Y141.838 E32.23603
G1 X90.814 Y141.838 E32.35427
G1 X90.046 Y141.798 E32.39264
G1 X89.286 Y141.679 E32.43102
G1 X89.066 Y141.62 E32.44238
G1 X88.598 Y141.596 E32.46576
G1 X87.838 Y141.477 E32.50414
G1 X87.162 Y141.297 E32.53904
G1 X86.286 Y141.078 E32.58409
G1 X85.567 Y140.804 E32.62248
G1 X84.881 Y140.457 E32.66083
G1 X84.234 Y140.041 E32.69921
G1 X83.634 Y139.56 E32.73757
G1 X83.087 Y139.019 E32.77596
G1 X82.599 Y138.424 E32.81435
G1 X82.176 Y137.782 E32.85271
G1 X82.004 Y137.45 E32.87136
G1 X81.615 Y138.111 E32.90962
G1 X81.159 Y138.73 E32.94798
G1 X80.64 Y139.299 E32.9864
G1 X80.066 Y139.81 E33.02474
G1 X79.441 Y140.259 E33.06314
G1 X78.773 Y140.641 E33.10153
G1 X78.07 Y140.951 E33.13986
G1 X77.338 Y141.187 E33.17823
G1 X76.236 Y141.461 E33.23488
G1 X75.477 Y141.588 E33.27328
G1 X74.93 Y141.619 E33.30061
G1 X74.584 Y141.705 E33.3184
G1 X73.822 Y141.811 E33.35678
G1 X73.186 Y141.838 E33.38854
G1 X70.814 Y141.838 E33.50688
G1 X70.046 Y141.798 E33.54525
G1 X69.286 Y141.679 E33.58363
G1 X69.066 Y141.62 E33.59499
G1 X68.598 Y141.596 E33.61837
G1 X67.838 Y141.477 E33.65675
G1 X67.162 Y141.297 E33.69165
G1 X66.286 Y141.078 E33.7367
G1 X65.567 Y140.804 E33.77508
G1 X64.881 Y140.457 E33.81344
G1 X64.234 Y140.041 E33.85181
G1 X63.634 Y139.56 E33.89018
G1 X63.087 Y139.019 E33.92856
G1 X62.599 Y138.424 E33.96695
G1 X62.176 Y137.782 E34.00531
G1 X61.821 Y137.099 E34.04371
G1 X61.54 Y136.384 E34.08204
G1 X61.334 Y135.642 E34.12046
G1 X61.115 Y134.65 E34.17114
G1 X61.032 Y133.885 E34.20953
G1 X61.028 Y133.116 E34.2479
G1 X61.113 Y131.813 E34.31304
G1 X61.247 Y131.055 E34.35145
G1 X61.459 Y130.316 E34.3898
G1 X61.747 Y129.602 E34.42821
G1 X62.107 Y128.923 E34.46656
G1 X62.509 Y128.323 E34.50259
G1 X48 Y128.323 E35.22644
G1 X47.232 Y128.283 E35.26481
G1 X46.472 Y128.164 E35.30319
G1 X45.729 Y127.966 E35.34155
G1 X45.01 Y127.692 E35.37994
G1 X44.324 Y127.345 E35.41829
G1 X43.677 Y126.929 E35.45667
G1 X43.077 Y126.448 E35.49503
G1 X42.53 Y125.907 E35.53342
G1 X42.042 Y125.312 E35.57181
G1 X41.619 Y124.67 E35.61017
G1 X41.264 Y123.987 E35.64857
G1 X40.983 Y123.272 E35.6869
G1 X40.777 Y122.53 E35.72531
G1 X40.649 Y121.772 E35.76367
G1 X40.6 Y120.923 E35.80609
G1 X40.6 Y72.938 E38.20008
G0 F3600 X41 Y72.938
G1 F1800 X41.04 Y72.191 E38.2374
G1 X41.159 Y71.453 E38.27469
G1 X41.357 Y70.731 E38.31204
G1 X41.63 Y70.035 E38.34934
G1 X41.977 Y69.372 E38.38668
G1 X42.392 Y68.749 E38.42402
G1 X42.871 Y68.175 E38.46132
G1 X43.408 Y67.654 E38.49865
G1 X43.998 Y67.195 E38.53594
G1 X44.634 Y66.8 E38.57329
G1 X45.308 Y66.476 E38.6106
G1 X46.013 Y66.226 E38.64792
G1 X46.741 Y66.052 E38.68526
G1 X47.483 Y65.957 E38.72259
G1 X48 Y65.938 E38.7484
G1 X152 Y65.937 E43.93698
G1 X152.747 Y65.977 E43.9743
G1 X153.485 Y66.096 E44.01159
G1 X154.207 Y66.294 E44.04894
G1 X154.903 Y66.567 E44.08624
G1 X155.566 Y66.914 E44.12358
G1 X156.189 Y67.329 E44.16092
G1 X156.763 Y67.808 E44.19822
G1 X157.284 Y68.345 E44.23555
G1 X157.743 Y68.935 E44.27284
G1 X158.138 Y69.571 E44.31019
G1 X158.462 Y70.245 E44.3475
G1 X158.712 Y70.95 E44.38482
G1 X158.886 Y71.678 E44.42217
G1 X158.981 Y72.42 E44.45949
G1 X159 Y72.937 E44.4853
G1 X159 Y120.923 E46.87933
G1 X158.96 Y121.67 E46.91665
G1 X158.841 Y122.408 E46.95394
G1 X158.643 Y123.13 E46.99129
G1 X158.37 Y123.826 E47.02859
G1 X158.023 Y124.489 E47.06593
G1 X157.608 Y125.112 E47.10327
G1 X157.129 Y125.686 E47.14057
G1 X156.592 Y126.207 E47.1779
G1 X156.002 Y126.666 E47.21519
G1 X155.366 Y127.061 E47.25255
G1 X154.692 Y127.385 E47.28986
G1 X153.987 Y127.635 E47.32717
G1 X153.259 Y127.809 E47.36452
G1 X152.517 Y127.904 E47.40184
G1 X152 Y127.923 E47.42765
G1 X140.65 Y127.923 E47.9939
G1 X141.194 Y128.571 E48.03611
G1 X141.604 Y129.197 E48.07345
G1 X141.944 Y129.863 E48.11075
G1 X142.211 Y130.562 E48.14808
G1 X142.402 Y131.285 E48.18539
G1 X142.515 Y132.025 E48.22274
G1 X142.549 Y132.772 E48.26004
G1 X142.556 Y133.614 E48.30205
G1 X142.502 Y134.36 E48.33937
G1 X142.368 Y135.096 E48.37669
G1 X142.185 Y135.905 E48.41807
G1 X141.947 Y136.614 E48.45538
G1 X141.635 Y137.294 E48.49271
G1 X141.251 Y137.936 E48.53003
G1 X140.802 Y138.534 E48.56734
G1 X140.291 Y139.081 E48.60469
G1 X139.725 Y139.569 E48.64197
G1 X139.11 Y139.995 E48.67929
G1 X138.453 Y140.353 E48.71662
G1 X137.761 Y140.638 E48.75396
G1 X137.043 Y140.848 E48.79128
G1 X136.089 Y141.084 E48.84031
G1 X135.35 Y141.2 E48.87763
G1 X134.864 Y141.225 E48.90191
G1 X134.408 Y141.331 E48.92527
G1 X133.665 Y141.422 E48.96261
G1 X133.186 Y141.438 E48.98652
G1 X130.814 Y141.438 E49.10486
G1 X130.067 Y141.398 E49.14218
