;FLAVOR:Marlin
;TIME:1236
;Filament used: 0.834124m
;Layer height: 0.15
;MINX:71.376
;MINY:67.507
;MINZ:0.3
;MAXX:112.998
;MAXY:131.1
;MAXZ:4.95
;Generated with Cura_SteamEngine 5.0.0
M140 S60
M105
M190 S60
M104 S210
M105
M109 S210
M82 ;absolute extrusion mode
G21 ;metric values
 G90 ;absolute positioning
 M82 ;set extruder to absolute mode
 M107 ;start with the fan off
 G28 X0 Y0 ;move X/Y to min endstops
 G28 Z0 ;move Z to min endstops
 G1 Z10.0 F120 ;move the platform down 10mm
 G92 E0 ;zero the extruded length
 G1 F200 E3 ;extrude 3 mm of feed stock
 G92 E0 ;zero the extruded length again
 G1 F120 
 ;Put printing message on LCD screen
 M117 Printing...
G92 E0
G92 E0
G1 F2400 E-1
;LAYER_COUNT:32
;LAYER:0
M107
G0 F3600 X72.377 Y68.636 Z0.3
G0 X71.376 Y71.753
;TYPE:SKIRT
G1 F2400 E0
G1 F1800 X71.386 Y71.064 E0.03438
G1 X71.434 Y70.53 E0.06113
G1 X71.561 Y70.008 E0.08793
G1 X71.763 Y69.512 E0.11465
G1 X72.037 Y69.051 E0.1414
G1 X72.377 Y68.636 E0.16817
G1 X72.774 Y68.276 E0.19491
G1 X73.221 Y67.979 E0.22168
G1 X73.706 Y67.751 E0.24842
G1 X74.22 Y67.598 E0.27517
G1 X74.885 Y67.517 E0.3086
G1 X75.306 Y67.507 E0.32961
G1 X91.18 Y67.507 E1.12156
G1 X91.763 Y67.515 E1.15065
G1 X92.436 Y67.562 E1.18431
G1 X92.685 Y67.591 E1.19682
G1 X95.43 Y68.007 E1.33533
G1 X98.135 Y68.339 E1.47129
G1 X100.856 Y68.595 E1.60764
G1 X103.544 Y68.771 E1.74204
G1 X106.312 Y68.874 E1.88023
G1 X109.432 Y68.911 E2.0359
G1 X109.966 Y68.958 E2.06264
G1 X110.488 Y69.083 E2.08942
G1 X110.985 Y69.284 E2.11617
G1 X111.447 Y69.557 E2.14294
G1 X111.863 Y69.895 E2.16968
G1 X112.224 Y70.292 E2.19645
G1 X112.522 Y70.738 E2.22321
G1 X112.751 Y71.223 E2.24997
G1 X112.905 Y71.736 E2.27669
G1 X112.988 Y72.409 E2.31052
G1 X112.998 Y72.83 E2.33153
G1 X112.998 Y126.809 E5.02456
G1 X112.989 Y127.536 E5.06083
G1 X112.942 Y128.07 E5.08757
G1 X112.817 Y128.591 E5.1143
G1 X112.615 Y129.088 E5.14107
G1 X112.342 Y129.55 E5.16784
G1 X112.004 Y129.966 E5.19458
G1 X111.607 Y130.327 E5.22135
G1 X111.161 Y130.625 E5.24811
G1 X110.676 Y130.853 E5.27485
G1 X110.162 Y131.007 E5.30162
G1 X109.49 Y131.09 E5.3354
G1 X109.069 Y131.1 E5.35641
G1 X93.193 Y131.099 E6.14847
G1 X92.594 Y131.091 E6.17836
G1 X92 Y131.053 E6.20805
G1 X91.733 Y131.023 E6.22146
G1 X88.866 Y130.589 E6.36612
G1 X86.135 Y130.257 E6.50337
G1 X83.478 Y130.009 E6.63651
G1 X80.722 Y129.831 E6.77429
G1 X77.99 Y129.731 E6.91068
G1 X74.943 Y129.696 E7.06271
G1 X74.409 Y129.65 E7.08945
G1 X73.887 Y129.525 E7.11623
G1 X73.39 Y129.323 E7.14299
G1 X72.928 Y129.051 E7.16974
G1 X72.512 Y128.712 E7.19651
G1 X72.151 Y128.316 E7.22325
G1 X71.853 Y127.87 E7.25001
G1 X71.624 Y127.385 E7.27677
G1 X71.47 Y126.872 E7.30349
G1 X71.386 Y126.194 E7.33757
G1 X71.376 Y125.765 E7.35898
G1 X71.376 Y71.753 E10.05365
G0 F3600 X71.776 Y71.759
G1 F1800 X71.786 Y71.07 E10.08803
G1 X71.834 Y70.566 E10.11329
G1 X71.96 Y70.077 E10.13848
G1 X72.161 Y69.613 E10.16371
G1 X72.433 Y69.187 E10.18892
G1 X72.769 Y68.809 E10.21416
G1 X73.16 Y68.488 E10.23939
G1 X73.596 Y68.233 E10.26459
G1 X74.068 Y68.051 E10.28983
G1 X74.562 Y67.944 E10.31505
G1 X75.216 Y67.908 E10.34773
G1 X91.175 Y67.907 E11.14392
G1 X91.758 Y67.915 E11.17301
G1 X92.404 Y67.96 E11.20532
G1 X92.625 Y67.986 E11.21642
G1 X95.393 Y68.406 E11.3561
G1 X98.082 Y68.735 E11.49125
G1 X100.829 Y68.994 E11.62891
G1 X103.539 Y69.171 E11.7644
G1 X106.292 Y69.273 E11.90184
G1 X109.427 Y69.311 E12.05826
G1 X109.931 Y69.357 E12.08351
G1 X110.421 Y69.482 E12.10874
G1 X110.885 Y69.682 E12.13395
G1 X111.312 Y69.953 E12.15918
G1 X111.691 Y70.288 E12.18441
G1 X112.012 Y70.678 E12.20961
G1 X112.268 Y71.114 E12.23484
G1 X112.452 Y71.585 E12.26007
G1 X112.56 Y72.079 E12.28529
G1 X112.597 Y72.74 E12.31832
G1 X112.598 Y126.804 E15.01559
G1 X112.589 Y127.531 E15.05186
G1 X112.543 Y128.034 E15.07706
G1 X112.418 Y128.524 E15.10229
G1 X112.217 Y128.988 E15.12752
G1 X111.946 Y129.415 E15.15275
G1 X111.611 Y129.794 E15.17798
G1 X111.221 Y130.115 E15.20318
G1 X110.785 Y130.371 E15.22841
G1 X110.314 Y130.554 E15.25362
G1 X109.82 Y130.662 E15.27885
G1 X109.159 Y130.699 E15.31187
G1 X93.198 Y130.699 E16.10817
G1 X92.401 Y130.682 E16.14794
G1 X91.792 Y130.627 E16.17845
G1 X88.937 Y130.195 E16.32251
G1 X86.184 Y129.86 E16.46087
G1 X83.47 Y129.606 E16.59686
G1 X80.764 Y129.432 E16.73214
G1 X78.008 Y129.332 E16.86973
G1 X74.948 Y129.296 E17.02241
G1 X74.444 Y129.25 E17.04766
G1 X73.954 Y129.125 E17.07289
G1 X73.49 Y128.925 E17.09809
G1 X73.063 Y128.655 E17.1233
G1 X72.684 Y128.32 E17.14853
G1 X72.363 Y127.93 E17.17373
G1 X72.106 Y127.494 E17.19898
G1 X71.922 Y127.023 E17.22421
G1 X71.814 Y126.529 E17.24944
G1 X71.777 Y125.852 E17.28327
G1 X71.776 Y71.759 E19.98198
G1 F2400 E18.98198
;MESH:HarriettBox-PCBStrip-Proto7.stl(1)
G0 F3600 X74.311 Y71.759
G0 X75.406 Y71.759
G0 X84.078 Y71.667
G1 F2400 E19.98198
G0 F3600 X84.078 Y71.933
;TYPE:WALL-OUTER
G1 F1302 X85.488 Y71.933 E20.07923
G1 F1304.3 X86.898 Y71.933 E20.1763
G1 F1306.7 X88.308 Y71.933 E20.27321
G1 F1309.1 X89.718 Y71.933 E20.36993
G1 F1311.5 X91.128 Y71.932 E20.46648
G1 F1309.1 X91.792 Y71.935 E20.51203
G1 F1382 X92.307 Y71.974 E20.54559
G1 F1531.9 X92.588 Y72.073 E20.56306
G1 F1674.4 X92.828 Y72.228 E20.57838
G1 F1827.4 X93.032 Y72.438 E20.59277
G1 F1961.9 X93.181 Y72.691 E20.60621
G1 F2093 X93.272 Y73.027 E20.62114
G1 F2250 X93.248 Y73.485 E20.63945
G1 F2293 X93.145 Y73.756 E20.6508
G1 F2195.1 X92.957 Y74.021 E20.66409
G1 F2045.5 X92.675 Y74.247 E20.67996
G1 F1875 X92.296 Y74.395 E20.69945
G1 F1686.2 X91.756 Y74.429 E20.72826
G1 F1596.5 X91.128 Y74.431 E20.76359
G1 X84.835 Y74.431 E21.11758
G1 X84.411 Y74.882 E21.1524
G1 X91.766 Y74.881 E21.56612
G1 F1670.5 X92.307 Y74.806 E21.59548
G1 F1855.7 X92.746 Y74.626 E21.61845
G1 F2028.2 X93.039 Y74.408 E21.63462
G1 F2162.2 X93.286 Y74.129 E21.65009
G1 F2257.1 X93.461 Y73.827 E21.66398
G1 F2271.3 X93.583 Y73.43 E21.6804
G1 F2215.4 X93.603 Y73.018 E21.69712
G1 F2099.1 X93.492 Y72.513 E21.71924
G1 F1935.5 X93.287 Y72.131 E21.73936
G1 F1751.8 X92.999 Y71.815 E21.76127
G1 F1582.4 X92.629 Y71.573 E21.78636
G1 F1440 X92.221 Y71.433 E21.81326
G1 F1340.8 X91.794 Y71.383 E21.84206
G1 F1309.1 X87.96 Y71.383 E22.10507
G1 F1311.5 X84.126 Y71.382 E22.3676
G1 F1409 X83.602 Y71.345 E22.40108
G1 F1647.6 X83.078 Y71.308 E22.42971
G1 F1800 X75.176 Y71.307 E22.82394
G1 X75.176 Y125.907 E25.54795
G1 X87.167 Y125.906 E26.14618
G1 X87.619 Y125.836 E26.169
G1 X87.876 Y125.762 E26.18234
G1 X88.26 Y125.541 E26.20445
G1 X88.573 Y125.238 E26.22618
G1 X88.806 Y124.862 E26.24825
G1 X88.941 Y124.441 E26.27031
G1 X88.97 Y124 E26.29236
G1 X88.897 Y123.581 E26.31357
G1 X88.707 Y123.164 E26.33644
G1 X88.431 Y122.819 E26.35848
G1 X88.076 Y122.55 E26.3807
G1 X87.669 Y122.379 E26.40272
G1 X87.08 Y122.308 E26.43232
G1 X84.376 Y122.307 E26.56723
G1 X84.376 Y124.017 E26.65254
G1 X84.332 Y124.134 E26.65877
G1 X84.176 Y124.207 E26.66737
G1 X81.976 Y124.207 E26.77713
G1 X81.82 Y124.134 E26.78572
G1 X81.776 Y124.007 E26.79242
G1 X81.776 Y122.307 E26.87724
G1 X78.476 Y122.307 E27.04188
G1 X78.359 Y122.27 E27.048
G1 X78.278 Y122.142 E27.05555
G1 X78.276 Y122.107 E27.0573
G1 X78.276 Y75.107 E29.40214
G1 X78.359 Y74.944 E29.41127
G1 X78.476 Y74.907 E29.41739
G1 X81.776 Y74.907 E29.58203
G1 X81.776 Y73.196 E29.66739
G1 X81.82 Y73.079 E29.67363
G1 X81.976 Y73.006 E29.68222
G1 X83.926 Y73.006 E29.77951
G1 X83.926 Y72.196 E29.81992
G1 F1509.4 X84.078 Y71.933 E29.83799
G0 F3600 X84.278 Y71.933
G0 X84.278 Y71.667
G0 X81.438 Y72.668
G0 X81.376 Y73.176
;TYPE:WALL-INNER
G1 F1800 X81.51 Y72.827 E29.85664
G1 X81.872 Y72.614 E29.87759
G1 X81.976 Y72.606 E29.8828
G1 X83.526 Y72.606 E29.96013
G1 X83.526 Y72.177 E29.98153
G1 X83.942 Y71.707 E30.01285
G1 X81.976 Y71.708 E30.11093
G1 X75.576 Y71.707 E30.43023
G1 X75.576 Y125.507 E33.11432
G1 X87.151 Y125.506 E33.6918
G1 X87.557 Y125.437 E33.71234
G1 X87.869 Y125.305 E33.72925
G1 X88.139 Y125.102 E33.7461
G1 X88.35 Y124.838 E33.76296
G1 X88.493 Y124.529 E33.77995
G1 X88.557 Y124.18 E33.79765
G1 X88.541 Y123.868 E33.81323
G1 X88.434 Y123.53 E33.83092
G1 X88.257 Y123.242 E33.84779
G1 X88.012 Y123.005 E33.86479
G1 X87.715 Y122.833 E33.88192
G1 X87.299 Y122.725 E33.90336
G1 X86.173 Y122.707 E33.95954
G1 X84.776 Y122.707 E34.02924
G1 X84.776 Y124.037 E34.09559
G1 X84.642 Y124.387 E34.11429
G1 X84.28 Y124.599 E34.13522
G1 X84.176 Y124.607 E34.14042
G1 X81.976 Y124.607 E34.25018
G1 X81.51 Y124.386 E34.27591
G1 X81.376 Y124.007 E34.29597
G1 X81.376 Y122.707 E34.36083
G1 X78.476 Y122.707 E34.50551
G1 X78.287 Y122.677 E34.51505
G1 X78.125 Y122.594 E34.52414
G1 X77.949 Y122.396 E34.53735
G1 X77.876 Y122.107 E34.55222
G1 X77.876 Y75.107 E36.89706
G1 X77.949 Y74.818 E36.91193
G1 X78.125 Y74.62 E36.92515
G1 X78.372 Y74.515 E36.93854
G1 X78.476 Y74.507 E36.94375
G1 X81.376 Y74.507 E37.08843
G1 X81.376 Y73.176 E37.15483
G0 F3600 X81.366 Y73.176
G0 X81.797 Y72.164
;TYPE:SKIN
G1 F1318.7 X81.958 Y72.157 E37.16581
G1 F1338.3 X83.077 Y72.157 E37.24089
G0 F3600 X81.438 Y72.668
G0 X77.938 Y74.569
G0 X77.938 Y122.645
G0 X81.438 Y124.545
G0 X84.714 Y124.545
G0 X85.156 Y124.023
G1 F1800 X84.969 Y124.569 E37.26969
G1 X84.881 Y124.674 E37.27652
G1 F1575.5 X84.439 Y124.999 E37.30779
G1 F1348.3 X84.356 Y125.049 E37.31425
G1 F1509.4 X85.003 Y125.126 E37.35301
G1 F1800 X87.122 Y125.126 E37.45873
G1 X87.577 Y125.033 E37.4819
G1 X87.78 Y124.915 E37.49361
G1 X88.021 Y124.641 E37.51182
G1 X88.169 Y124.288 E37.53091
G1 X88.176 Y124.165 E37.53706
G1 X88.131 Y123.851 E37.55289
G1 X88.02 Y123.585 E37.56726
G1 X87.767 Y123.297 E37.58639
G1 X87.448 Y123.136 E37.60422
G1 X87.02 Y123.088 E37.6257
G1 X85.157 Y123.088 E37.71865
G1 X85.156 Y124.023 E37.7653
G0 F3600 X84.356 Y125.049
G1 F1316.3 X84.172 Y125.057 E37.77786
G1 F1333.3 X81.982 Y125.057 E37.92536
G0 F3600 X81.184 Y124.569
G1 F1800 X80.996 Y124.054 E37.95271
G1 X80.996 Y123.087 E38.00096
G1 X78.48 Y123.087 E38.12648
G1 X78.14 Y123.026 E38.14372
G1 X77.869 Y122.872 E38.15927
G1 X77.598 Y122.534 E38.18088
G1 X77.496 Y122.107 E38.20278
G1 X77.496 Y75.105 E40.54772
G1 X77.641 Y74.6 E40.57393
G1 X77.927 Y74.298 E40.59469
G1 X78.204 Y74.167 E40.60997
G1 X78.48 Y74.127 E40.62389
G1 X80.996 Y74.127 E40.74941
G1 X80.996 Y73.16 E40.79765
G1 X81.185 Y72.641 E40.82521
G1 X81.27 Y72.54 E40.8318
G1 F1575.5 X81.714 Y72.214 E40.86319
G1 F1348.3 X81.797 Y72.164 E40.86965
G1 F1509.4 X81.148 Y72.087 E40.90853
G1 F1800 X75.957 Y72.088 E41.16751
G1 X75.956 Y122.35 E43.67509
G1 X75.957 Y125.126 E43.81359
G1 X81.184 Y125.127 E44.07436
G1 F1607.1 X81.86 Y125.078 E44.11223
G1 F1390 X81.982 Y125.057 E44.12023
G1 F1531.9 X81.285 Y124.678 E44.16674
G1 F1800 X81.184 Y124.569 E44.17415
G0 F3600 X76.276 Y124.925
G1 F1800 X76.156 Y124.805 E44.18262
G0 F3600 X76.156 Y124.24
G1 F1800 X76.842 Y124.925 E44.23099
G0 F3600 X77.407 Y124.925
G1 F1800 X76.156 Y123.674 E44.31925
G0 F3600 X76.156 Y123.108
G1 F1800 X77.973 Y124.925 E44.44745
G0 F3600 X78.539 Y124.925
G1 F1800 X76.156 Y122.543 E44.61555
G0 F3600 X76.156 Y121.977
G1 F1800 X79.104 Y124.925 E44.82355
G0 F3600 X79.67 Y124.925
G1 F1800 X77.841 Y123.095 E44.95263
G0 F3600 X77.489 Y122.744
G1 F1800 X76.156 Y121.411 E45.04668
G0 F3600 X76.156 Y120.845
G1 F1800 X77.3 Y121.99 E45.12743
G0 F3600 X77.3 Y121.424
G1 F1800 X76.156 Y120.28 E45.20814
G0 F3600 X76.156 Y119.714
G1 F1800 X77.3 Y120.858 E45.28886
G0 F3600 X77.3 Y120.293
G1 F1800 X76.156 Y119.148 E45.36961
G0 F3600 X76.156 Y118.583
G1 F1800 X77.3 Y119.727 E45.45032
G0 F3600 X77.3 Y119.161
G1 F1800 X76.156 Y118.017 E45.53104
G0 F3600 X76.156 Y117.451
G1 F1800 X77.3 Y118.595 E45.61176
G0 F3600 X77.3 Y118.03
G1 F1800 X76.156 Y116.886 E45.69247
G0 F3600 X76.156 Y116.32
G1 F1800 X77.3 Y117.464 E45.77319
G0 F3600 X77.3 Y116.898
G1 F1800 X76.156 Y115.754 E45.8539
G0 F3600 X76.156 Y115.189
G1 F1800 X77.3 Y116.333 E45.93462
G0 F3600 X77.3 Y115.766
G1 F1800 X76.156 Y114.623 E46.0153
G0 F3600 X76.156 Y114.057
G1 F1800 X77.3 Y115.201 E46.09601
G0 F3600 X77.3 Y114.635
G1 F1800 X76.156 Y113.492 E46.17669
G0 F3600 X76.156 Y112.926
G1 F1800 X77.3 Y114.069 E46.25737
G0 F3600 X77.3 Y113.504
G1 F1800 X76.156 Y112.36 E46.33809
G0 F3600 X76.156 Y111.794
G1 F1800 X77.3 Y112.938 E46.4188
G0 F3600 X77.3 Y112.372
G1 F1800 X76.156 Y111.229 E46.49948
G0 F3600 X76.156 Y110.663
G1 F1800 X77.3 Y111.807 E46.5802
G0 F3600 X77.3 Y111.241
G1 F1800 X76.156 Y110.097 E46.66091
G0 F3600 X76.156 Y109.532
G1 F1800 X77.3 Y110.675 E46.74159
G0 F3600 X77.299 Y110.109
G1 F1800 X76.156 Y108.966 E46.82224
G0 F3600 X76.156 Y108.4
G1 F1800 X77.299 Y109.543 E46.90288
G0 F3600 X77.299 Y108.977
G1 F1800 X76.156 Y107.835 E46.98349
G0 F3600 X76.156 Y107.269
G1 F1800 X77.299 Y108.412 E47.06414
G0 F3600 X77.299 Y107.846
G1 F1800 X76.156 Y106.703 E47.14478
G0 F3600 X76.156 Y106.138
G1 F1800 X77.299 Y107.28 E47.22539
G0 F3600 X77.299 Y106.715
G1 F1800 X76.156 Y105.572 E47.30604
G0 F3600 X76.156 Y105.006
G1 F1800 X77.299 Y106.149 E47.38668
G0 F3600 X77.299 Y105.583
G1 F1800 X76.156 Y104.441 E47.46729
G0 F3600 X76.156 Y103.875
G1 F1800 X77.299 Y105.018 E47.54794
G0 F3600 X77.298 Y104.451
G1 F1800 X76.156 Y103.309 E47.62851
G0 F3600 X76.156 Y102.744
G1 F1800 X77.298 Y103.886 E47.70909
G0 F3600 X77.298 Y103.32
G1 F1800 X76.156 Y102.178 E47.78966
G0 F3600 X76.156 Y101.612
G1 F1800 X77.298 Y102.754 E47.87023
G0 F3600 X77.298 Y102.188
G1 F1800 X76.156 Y101.046 E47.95081
G0 F3600 X76.156 Y100.481
G1 F1800 X77.298 Y101.623 E48.03138
G0 F3600 X77.298 Y101.057
G1 F1800 X76.156 Y99.915 E48.11196
G0 F3600 X76.156 Y99.349
G1 F1800 X77.298 Y100.491 E48.19253
G0 F3600 X77.298 Y99.926
G1 F1800 X76.156 Y98.784 E48.27311
G0 F3600 X76.156 Y98.217
G1 F1800 X77.298 Y99.36 E48.35372
G0 F3600 X77.298 Y98.794
G1 F1800 X76.156 Y97.652 E48.43429
G0 F3600 X76.156 Y97.086
G1 F1800 X77.298 Y98.228 E48.51486
G0 F3600 X77.298 Y97.662
G1 F1800 X76.156 Y96.52 E48.59544
G0 F3600 X76.156 Y95.955
G1 F1800 X77.298 Y97.097 E48.67601
G0 F3600 X77.298 Y96.531
G1 F1800 X76.156 Y95.389 E48.75659
G0 F3600 X76.156 Y94.823
G1 F1800 X77.298 Y95.965 E48.83716
G0 F3600 X77.298 Y95.4
G1 F1800 X76.156 Y94.258 E48.91773
G0 F3600 X76.156 Y93.692
G1 F1800 X77.298 Y94.834 E48.99831
G0 F3600 X77.298 Y94.268
G1 F1800 X76.156 Y93.126 E49.07888
G0 F3600 X76.156 Y92.56
G1 F1800 X77.298 Y93.702 E49.15946
G0 F3600 X77.298 Y93.137
G1 F1800 X76.156 Y91.995 E49.24003
G0 F3600 X76.156 Y91.429
G1 F1800 X77.297 Y92.57 E49.32054
G0 F3600 X77.297 Y92.005
G1 F1800 X76.156 Y90.863 E49.40107
G0 F3600 X76.156 Y90.298
G1 F1800 X77.297 Y91.439 E49.48158
G0 F3600 X77.297 Y90.873
G1 F1800 X76.156 Y89.732 E49.56208
G0 F3600 X76.156 Y89.166
G1 F1800 X77.297 Y90.308 E49.64262
G0 F3600 X77.297 Y89.742
G1 F1800 X76.156 Y88.601 E49.72312
G0 F3600 X76.156 Y88.035
G1 F1800 X77.297 Y89.176 E49.80363
G0 F3600 X77.297 Y88.611
G1 F1800 X76.156 Y87.469 E49.88417
G0 F3600 X76.156 Y86.904
G1 F1800 X77.297 Y88.045 E49.96467
G0 F3600 X77.297 Y87.479
G1 F1800 X76.156 Y86.338 E50.04517
G0 F3600 X76.156 Y85.772
G1 F1800 X77.297 Y86.914 E50.12571
G0 F3600 X77.296 Y86.347
G1 F1800 X76.156 Y85.207 E50.20615
G0 F3600 X76.156 Y84.641
G1 F1800 X77.296 Y85.781 E50.28658
G0 F3600 X77.296 Y85.216
G1 F1800 X76.156 Y84.075 E50.36705
G0 F3600 X76.156 Y83.51
G1 F1800 X77.296 Y84.65 E50.44748
G0 F3600 X77.296 Y84.084
G1 F1800 X76.156 Y82.944 E50.52792
G0 F3600 X76.156 Y82.378
G1 F1800 X77.296 Y83.519 E50.60838
G0 F3600 X77.296 Y82.953
G1 F1800 X76.156 Y81.812 E50.68885
G0 F3600 X76.156 Y81.247
G1 F1800 X77.296 Y82.387 E50.76929
G0 F3600 X77.296 Y81.822
G1 F1800 X76.156 Y80.681 E50.84975
G0 F3600 X76.156 Y80.115
G1 F1800 X77.296 Y81.256 E50.93022
G0 F3600 X77.295 Y80.69
