;FLAVOR:Marlin
;TIME:11150
;Filament used: 18.1163m
;Layer height: 0.3
;MINX:37.2
;MINY:60.553
;MINZ:0.3
;MAXX:162.8
;MAXY:143.992
;MAXZ:68.7
;Generated with Cura_SteamEngine 5.0.0
M140 S60
M105
M190 S60
M104 S210
M105
M109 S210
M82 ;absolute extrusion mode
G21 ;metric values
 G90 ;absolute positioning
 M82 ;set extruder to absolute mode
 M107 ;start with the fan off
 G28 X0 Y0 ;move X/Y to min endstops
 G28 Z0 ;move Z to min endstops
 G1 Z10.0 F120 ;move the platform down 10mm
 G92 E0 ;zero the extruded length
 G1 F200 E3 ;extrude 3 mm of feed stock
 G92 E0 ;zero the extruded length again
 G1 F120 
 ;Put printing message on LCD screen
 M117 Printing...
G92 E0
G92 E0
G1 F2400 E-1
;LAYER_COUNT:229
;LAYER:0
M107
G0 F3600 X40.87 Y62.008 Z0.3
G0 X37.2 Y68.625
;TYPE:SKIRT
G1 F2400 E0
G1 F3000 X37.24 Y67.836 E0.03941
G1 X37.359 Y67.056 E0.07878
G1 X37.557 Y66.291 E0.1182
G1 X37.831 Y65.551 E0.15757
G1 X38.179 Y64.842 E0.19697
G1 X38.597 Y64.171 E0.23641
G1 X39.08 Y63.547 E0.27578
G1 X39.623 Y62.974 E0.31517
G1 X40.222 Y62.459 E0.35458
G1 X40.87 Y62.008 E0.39397
G1 X41.561 Y61.624 E0.43341
G1 X42.286 Y61.312 E0.47278
G1 X43.039 Y61.075 E0.51217
G1 X43.813 Y60.916 E0.55159
G1 X44.598 Y60.835 E0.59096
G1 X45 Y60.825 E0.61102
G1 X155 Y60.824 E6.09894
G1 X155.789 Y60.864 E6.13836
G1 X156.569 Y60.983 E6.17772
G1 X157.334 Y61.181 E6.21715
G1 X158.074 Y61.455 E6.25651
G1 X158.783 Y61.803 E6.29592
G1 X159.454 Y62.22 E6.33533
G1 X160.078 Y62.704 E6.37473
G1 X160.651 Y63.247 E6.41411
G1 X161.166 Y63.846 E6.45353
G1 X161.617 Y64.494 E6.49291
G1 X162.001 Y65.184 E6.53231
G1 X162.313 Y65.91 E6.57173
G1 X162.55 Y66.663 E6.61112
G1 X162.709 Y67.437 E6.65054
G1 X162.79 Y68.222 E6.68991
G1 X162.8 Y68.624 E6.70997
G1 X162.8 Y119.978 E9.27203
G1 X162.76 Y120.767 E9.31145
G1 X162.641 Y121.547 E9.35081
G1 X162.443 Y122.312 E9.39024
G1 X162.169 Y123.052 E9.4296
G1 X161.821 Y123.761 E9.46901
G1 X161.403 Y124.432 E9.50845
G1 X160.92 Y125.056 E9.54782
G1 X160.377 Y125.629 E9.5872
G1 X159.778 Y126.144 E9.62661
G1 X159.13 Y126.595 E9.666
G1 X158.439 Y126.979 E9.70544
G1 X157.714 Y127.291 E9.74482
G1 X156.961 Y127.528 E9.7842
G1 X156.187 Y127.687 E9.82362
G1 X155.402 Y127.768 E9.86299
G1 X155 Y127.778 E9.88306
G1 X139.22 Y127.778 E10.67032
G1 X139.572 Y128.214 E10.69828
G1 X140.004 Y128.876 E10.73772
G1 X140.366 Y129.577 E10.77708
G1 X140.656 Y130.312 E10.8165
G1 X140.869 Y131.072 E10.85588
G1 X141.005 Y131.85 E10.89528
G1 X141.061 Y132.638 E10.93469
G1 X141.068 Y133.335 E10.96947
G1 X141.039 Y134.124 E11.00886
G1 X140.93 Y134.907 E11.0483
G1 X140.742 Y135.674 E11.0877
G1 X140.51 Y136.39 E11.12525
G1 X140.23 Y137.129 E11.16467
G1 X139.877 Y137.835 E11.20405
G1 X139.455 Y138.503 E11.24347
G1 X138.967 Y139.124 E11.28288
G1 X138.419 Y139.692 E11.32225
G1 X137.816 Y140.202 E11.36165
G1 X137.165 Y140.649 E11.40105
G1 X136.472 Y141.027 E11.44043
G1 X135.744 Y141.334 E11.47985
G1 X134.989 Y141.565 E11.51924
G1 X134.387 Y141.709 E11.55012
G1 X133.541 Y141.87 E11.59309
G1 X132.763 Y142.005 E11.63248
G1 X131.811 Y142.063 E11.68007
G1 X131.292 Y142.063 E11.70596
G1 X130.835 Y142.145 E11.72912
G1 X129.84 Y142.209 E11.77887
G1 X129.051 Y142.209 E11.81823
G1 X128.262 Y142.169 E11.85764
G1 X127.627 Y142.072 E11.88969
G1 X126.785 Y142.031 E11.93175
G1 X126.004 Y141.91 E11.97118
G1 X125.253 Y141.777 E12.00923
G1 X124.688 Y141.642 E12.03821
G1 X123.923 Y141.444 E12.07763
G1 X123.183 Y141.17 E12.117
G1 X122.474 Y140.822 E12.1564
G1 X121.803 Y140.404 E12.19585
G1 X121.179 Y139.921 E12.23521
G1 X120.768 Y139.531 E12.26348
G1 X120.055 Y140.166 E12.31111
G1 X119.408 Y140.618 E12.35049
G1 X118.718 Y141.002 E12.38989
G1 X117.992 Y141.314 E12.42931
G1 X117.239 Y141.551 E12.46869
G1 X116.606 Y141.71 E12.50126
G1 X115.831 Y141.86 E12.54064
G1 X114.961 Y142.008 E12.58467
G1 X114.034 Y142.063 E12.631
G1 X113.512 Y142.063 E12.65704
G1 X113.04 Y142.147 E12.68096
G1 X112.058 Y142.209 E12.73005
G1 X111.271 Y142.209 E12.76931
G1 X110.482 Y142.169 E12.80872
G1 X109.847 Y142.072 E12.84077
G1 X109.005 Y142.031 E12.88283
G1 X108.224 Y141.91 E12.92226
G1 X107.473 Y141.777 E12.96031
G1 X106.908 Y141.642 E12.98929
G1 X106.143 Y141.444 E13.02871
G1 X105.403 Y141.17 E13.06808
G1 X104.694 Y140.822 E13.10748
G1 X104.023 Y140.404 E13.14693
G1 X103.399 Y139.921 E13.18629
G1 X103.002 Y139.545 E13.21357
G1 X102.262 Y140.198 E13.26281
G1 X101.611 Y140.646 E13.30224
G1 X100.918 Y141.025 E13.34164
G1 X100.191 Y141.332 E13.38101
G1 X99.436 Y141.564 E13.42042
G1 X98.807 Y141.714 E13.45268
G1 X97.981 Y141.87 E13.49462
G1 X97.203 Y142.005 E13.53401
G1 X96.251 Y142.063 E13.5816
G1 X95.733 Y142.063 E13.60744
G1 X95.256 Y142.148 E13.63161
G1 X94.273 Y142.21 E13.68075
G1 X93.502 Y142.21 E13.71922
G1 X92.713 Y142.17 E13.75863
G1 X92.071 Y142.072 E13.79103
G1 X91.225 Y142.031 E13.83329
G1 X90.444 Y141.91 E13.87272
G1 X89.693 Y141.777 E13.91077
G1 X89.128 Y141.642 E13.93975
G1 X88.363 Y141.444 E13.97917
G1 X87.623 Y141.17 E14.01854
G1 X86.914 Y140.822 E14.05794
G1 X86.243 Y140.404 E14.09739
G1 X85.619 Y139.921 E14.13675
G1 X85.221 Y139.544 E14.1641
G1 X84.476 Y140.202 E14.21369
G1 X83.825 Y140.649 E14.25309
G1 X83.132 Y141.027 E14.29247
G1 X82.404 Y141.334 E14.33189
G1 X81.649 Y141.565 E14.37128
G1 X81.047 Y141.709 E14.40216
G1 X80.201 Y141.87 E14.44513
G1 X79.423 Y142.005 E14.48452
G1 X78.471 Y142.063 E14.53211
G1 X77.953 Y142.063 E14.55795
G1 X77.476 Y142.148 E14.58212
G1 X76.493 Y142.21 E14.63126
G1 X75.725 Y142.21 E14.66958
G1 X74.936 Y142.17 E14.70899
G1 X74.3 Y142.073 E14.74109
G1 X73.457 Y142.033 E14.78319
G1 X72.677 Y141.914 E14.82256
G1 X71.913 Y141.777 E14.86128
G1 X71.348 Y141.642 E14.89026
G1 X70.583 Y141.444 E14.92969
G1 X69.843 Y141.17 E14.96905
G1 X69.134 Y140.822 E15.00846
G1 X68.463 Y140.404 E15.0479
G1 X67.839 Y139.921 E15.08727
G1 X67.266 Y139.378 E15.12665
G1 X66.751 Y138.779 E15.16606
G1 X66.3 Y138.131 E15.20545
G1 X65.916 Y137.44 E15.24489
G1 X65.604 Y136.715 E15.28427
G1 X65.375 Y136.028 E15.3204
G1 X65.151 Y135.271 E15.35978
G1 X65.004 Y134.495 E15.39918
G1 X64.937 Y133.708 E15.43859
G1 X64.949 Y132.918 E15.47801
G1 X65.032 Y131.646 E15.5416
G1 X65.187 Y130.871 E15.58103
G1 X65.42 Y130.117 E15.62041
G1 X65.728 Y129.39 E15.6598
G1 X66.108 Y128.698 E15.69918
G1 X66.556 Y128.047 E15.73861
G1 X66.778 Y127.778 E15.75601
G1 X45 Y127.778 E16.84252
G1 X44.211 Y127.738 E16.88193
G1 X43.431 Y127.619 E16.9213
G1 X42.666 Y127.421 E16.96072
G1 X41.926 Y127.147 E17.00009
G1 X41.217 Y126.799 E17.03949
G1 X40.546 Y126.381 E17.07893
G1 X39.922 Y125.898 E17.1183
G1 X39.349 Y125.355 E17.15769
G1 X38.834 Y124.756 E17.1971
G1 X38.383 Y124.108 E17.23648
G1 X37.999 Y123.417 E17.27592
G1 X37.687 Y122.692 E17.3153
G1 X37.45 Y121.939 E17.35469
G1 X37.291 Y121.165 E17.39411
G1 X37.21 Y120.38 E17.43348
G1 X37.2 Y119.978 E17.45354
G1 X37.2 Y68.625 E20.01555
G0 F3600 X37.6 Y68.625
G1 F3000 X37.64 Y67.857 E20.05392
G1 X37.759 Y67.097 E20.0923
G1 X37.957 Y66.354 E20.13066
G1 X38.231 Y65.635 E20.16905
G1 X38.578 Y64.949 E20.2074
G1 X38.994 Y64.302 E20.24578
G1 X39.475 Y63.702 E20.28414
G1 X40.016 Y63.155 E20.32253
G1 X40.611 Y62.667 E20.36092
G1 X41.253 Y62.244 E20.39927
G1 X41.936 Y61.889 E20.43768
G1 X42.651 Y61.608 E20.47601
G1 X43.393 Y61.402 E20.51442
G1 X44.151 Y61.274 E20.55278
G1 X45 Y61.225 E20.5952
G1 X155 Y61.224 E26.08313
G1 X155.768 Y61.264 E26.12149
G1 X156.528 Y61.383 E26.15987
G1 X157.271 Y61.581 E26.19823
G1 X157.99 Y61.855 E26.23662
G1 X158.676 Y62.202 E26.27498
G1 X159.323 Y62.618 E26.31335
G1 X159.923 Y63.099 E26.35172
G1 X160.47 Y63.64 E26.3901
G1 X160.958 Y64.235 E26.42849
G1 X161.381 Y64.877 E26.46685
G1 X161.736 Y65.56 E26.50525
G1 X162.017 Y66.275 E26.54358
G1 X162.223 Y67.016 E26.58195
G1 X162.351 Y67.775 E26.62035
G1 X162.4 Y68.624 E26.66278
G1 X162.4 Y119.978 E29.22484
G1 X162.36 Y120.746 E29.26321
G1 X162.241 Y121.506 E29.30158
G1 X162.043 Y122.249 E29.33995
G1 X161.769 Y122.968 E29.37833
G1 X161.422 Y123.654 E29.41669
G1 X161.006 Y124.301 E29.45506
G1 X160.525 Y124.901 E29.49343
G1 X159.984 Y125.448 E29.53181
G1 X159.389 Y125.936 E29.5702
G1 X158.747 Y126.359 E29.60856
G1 X158.064 Y126.714 E29.64696
G1 X157.349 Y126.995 E29.68529
G1 X156.607 Y127.201 E29.72371
G1 X155.849 Y127.329 E29.76206
G1 X155 Y127.378 E29.80449
G1 X138.321 Y127.378 E30.63661
G1 X138.778 Y127.866 E30.66996
G1 X139.261 Y128.465 E30.70835
G1 X139.678 Y129.111 E30.74671
G1 X140.026 Y129.797 E30.78509
G1 X140.302 Y130.515 E30.82347
G1 X140.501 Y131.258 E30.86184
G1 X140.622 Y132.018 E30.90024
G1 X140.663 Y132.786 E30.93861
G1 X140.669 Y133.521 E30.97528
G1 X140.62 Y134.288 E31.01362
G1 X140.492 Y135.047 E31.05202
G1 X140.287 Y135.788 E31.09038
G1 X140.123 Y136.287 E31.11658
G1 X139.848 Y137.005 E31.15494
G1 X139.499 Y137.691 E31.19334
G1 X139.082 Y138.337 E31.2317
G1 X138.599 Y138.936 E31.27009
G1 X138.057 Y139.481 E31.30844
G1 X137.462 Y139.968 E31.3468
G1 X136.819 Y140.39 E31.38517
G1 X136.135 Y140.743 E31.42357
G1 X135.419 Y141.023 E31.46193
G1 X134.677 Y141.228 E31.50033
G1 X133.516 Y141.469 E31.55949
G1 X132.675 Y141.613 E31.60206
G1 X131.812 Y141.663 E31.64518
G1 X131.256 Y141.663 E31.67292
G1 X130.764 Y141.751 E31.69786
G1 X129.84 Y141.809 E31.74405
G1 X129.051 Y141.809 E31.78341
G1 X128.283 Y141.769 E31.82178
G1 X127.664 Y141.672 E31.85304
G1 X126.806 Y141.631 E31.89589
G1 X126.046 Y141.51 E31.93429
G1 X125.294 Y141.377 E31.97239
G1 X124.729 Y141.242 E32.00137
G1 X123.986 Y141.044 E32.03973
G1 X123.267 Y140.77 E32.07812
G1 X122.581 Y140.423 E32.11647
G1 X121.934 Y140.007 E32.15485
G1 X121.334 Y139.526 E32.19321
G1 X120.766 Y138.959 E32.23325
G1 X120.291 Y139.444 E32.26712
G1 X119.699 Y139.935 E32.30549
G1 X119.059 Y140.362 E32.34388
G1 X118.379 Y140.72 E32.38222
G1 X117.665 Y141.006 E32.42059
G1 X116.925 Y141.216 E32.45897
G1 X115.735 Y141.47 E32.51967
G1 X114.874 Y141.616 E32.56324
G1 X114.035 Y141.663 E32.60517
G1 X113.477 Y141.663 E32.633
G1 X112.97 Y141.753 E32.65869
G1 X112.058 Y141.809 E32.70428
G1 X111.271 Y141.809 E32.74354
G1 X110.503 Y141.769 E32.78191
G1 X109.884 Y141.672 E32.81317
G1 X109.026 Y141.631 E32.85602
G1 X108.266 Y141.51 E32.89442
G1 X107.514 Y141.377 E32.93252
G1 X106.949 Y141.242 E32.9615
G1 X106.206 Y141.044 E32.99986
G1 X105.487 Y140.77 E33.03825
G1 X104.801 Y140.423 E33.0766
G1 X104.154 Y140.007 E33.11498
G1 X103.554 Y139.526 E33.15334
G1 X102.999 Y138.975 E33.19236
G1 X102.502 Y139.477 E33.2276
G1 X101.907 Y139.965 E33.266
G1 X101.264 Y140.387 E33.30437
G1 X100.581 Y140.741 E33.34275
G1 X99.865 Y141.022 E33.38112
G1 X99.124 Y141.227 E33.41948
G1 X97.937 Y141.471 E33.47994
G1 X97.115 Y141.613 E33.52155
G1 X96.251 Y141.663 E33.56473
G1 X95.698 Y141.663 E33.59232
G1 X95.185 Y141.754 E33.61831
G1 X94.273 Y141.81 E33.6639
G1 X93.502 Y141.81 E33.70236
G1 X92.734 Y141.77 E33.74073
G1 X92.109 Y141.672 E33.77229
G1 X91.246 Y141.631 E33.8154
G1 X90.486 Y141.51 E33.85379
G1 X89.734 Y141.377 E33.89189
G1 X89.169 Y141.242 E33.92087
G1 X88.426 Y141.044 E33.95924
G1 X87.707 Y140.77 E33.99762
G1 X87.021 Y140.423 E34.03598
G1 X86.374 Y140.007 E34.07435
G1 X85.774 Y139.526 E34.11272
G1 X85.219 Y138.976 E34.1517
G1 X84.717 Y139.481 E34.18722
G1 X84.122 Y139.968 E34.22558
G1 X83.479 Y140.39 E34.26396
G1 X82.795 Y140.743 E34.30236
G1 X82.079 Y141.023 E34.34071
G1 X81.337 Y141.228 E34.37912
G1 X80.176 Y141.469 E34.43828
G1 X79.335 Y141.613 E34.48084
G1 X78.471 Y141.663 E34.52402
G1 X77.918 Y141.663 E34.55161
G1 X77.405 Y141.754 E34.5776
G1 X76.493 Y141.81 E34.62319
G1 X75.725 Y141.81 E34.6615
G1 X74.957 Y141.77 E34.69987
G1 X74.338 Y141.673 E34.73113
G1 X73.478 Y141.633 E34.77408
G1 X72.718 Y141.514 E34.81246
G1 X71.954 Y141.377 E34.85119
G1 X71.389 Y141.242 E34.88017
G1 X70.646 Y141.044 E34.91853
G1 X69.927 Y140.77 E34.95692
G1 X69.241 Y140.423 E34.99527
G1 X68.594 Y140.007 E35.03365
G1 X67.994 Y139.526 E35.07201
G1 X67.447 Y138.985 E35.11039
G1 X66.959 Y138.39 E35.14879
G1 X66.536 Y137.748 E35.18714
G1 X66.181 Y137.065 E35.22555
G1 X65.9 Y136.35 E35.26387
G1 X65.739 Y135.857 E35.28975
G1 X65.526 Y135.118 E35.32812
G1 X65.39 Y134.361 E35.36649
G1 X65.334 Y133.594 E35.40486
G1 X65.356 Y132.855 E35.44174
G1 X65.361 Y132.33 E35.46794
G1 X65.449 Y131.566 E35.5063
G1 X65.616 Y130.815 E35.54469
G1 X65.86 Y130.086 E35.58304
G1 X66.178 Y129.386 E35.6214
G1 X66.567 Y128.722 E35.65979
G1 X67.203 Y127.891 E35.712
G1 X67.68 Y127.378 E35.74695
G1 X45 Y127.378 E36.87846
G1 X44.232 Y127.338 E36.91682
G1 X43.472 Y127.219 E36.9552
G1 X42.729 Y127.021 E36.99356
G1 X42.01 Y126.747 E37.03195
G1 X41.324 Y126.4 E37.07031
G1 X40.677 Y125.984 E37.10868
G1 X40.077 Y125.503 E37.14705
G1 X39.53 Y124.962 E37.18543
G1 X39.042 Y124.367 E37.22382
G1 X38.619 Y123.725 E37.26218
G1 X38.264 Y123.042 E37.30058
G1 X37.983 Y122.327 E37.33891
G1 X37.777 Y121.585 E37.37733
G1 X37.649 Y120.827 E37.41568
G1 X37.6 Y119.978 E37.45811
G1 X37.6 Y68.625 E40.02012
G0 F3600 X38 Y68.625
G1 F3000 X38.04 Y67.878 E40.05744
G1 X38.159 Y67.14 E40.09473
G1 X38.357 Y66.418 E40.13208
G1 X38.63 Y65.722 E40.16938
G1 X38.977 Y65.059 E40.20672
G1 X39.392 Y64.436 E40.24406
G1 X39.871 Y63.862 E40.28136
G1 X40.408 Y63.341 E40.31869
G1 X40.998 Y62.882 E40.35598
G1 X41.634 Y62.487 E40.39334
G1 X42.308 Y62.163 E40.43065
G1 X43.013 Y61.913 E40.46796
G1 X43.741 Y61.739 E40.50531
G1 X44.483 Y61.644 E40.54263
G1 X45 Y61.625 E40.56844
G1 X155 Y61.624 E46.05636
G1 X155.747 Y61.664 E46.09368
G1 X156.485 Y61.783 E46.13098
G1 X157.207 Y61.981 E46.16833
G1 X157.903 Y62.254 E46.20563
G1 X158.566 Y62.601 E46.24296
G1 X159.189 Y63.016 E46.28031
G1 X159.763 Y63.495 E46.3176
G1 X160.284 Y64.032 E46.35493
G1 X160.743 Y64.622 E46.39223
G1 X161.138 Y65.258 E46.42958
G1 X161.462 Y65.932 E46.46689
G1 X161.712 Y66.637 E46.50421
G1 X161.886 Y67.365 E46.54155
G1 X161.981 Y68.107 E46.57887
G1 X162 Y68.624 E46.60468
G1 X162 Y119.978 E49.16674
G1 X161.96 Y120.725 E49.20406
G1 X161.841 Y121.463 E49.24136
G1 X161.643 Y122.185 E49.27871
G1 X161.37 Y122.881 E49.31601
G1 X161.023 Y123.544 E49.35334
G1 X160.608 Y124.167 E49.39069
G1 X160.129 Y124.741 E49.42799
G1 X159.592 Y125.262 E49.46531
G1 X159.002 Y125.721 E49.50261
G1 X158.366 Y126.116 E49.53996
G1 X157.692 Y126.44 E49.57727
G1 X156.987 Y126.69 E49.61459
G1 X156.259 Y126.864 E49.65193
G1 X155.517 Y126.959 E49.68925
G1 X155 Y126.978 E49.71506
G1 X137.286 Y126.978 E50.59882
G1 X137.849 Y127.461 E50.63583
G1 X138.234 Y127.858 E50.66342
G1 X138.948 Y128.716 E50.7191
G1 X139.352 Y129.346 E50.75644
G1 X139.686 Y130.016 E50.79379
G1 X139.946 Y130.717 E50.83109
G1 X140.13 Y131.442 E50.86841
G1 X140.236 Y132.183 E50.90576
G1 X140.262 Y132.93 E50.94305
G1 X140.264 Y133.701 E50.98151
G1 X140.196 Y134.446 E51.01883
G1 X140.049 Y135.179 E51.05613
G1 X139.825 Y135.893 E51.09347
G1 X139.465 Y136.88 E51.14588
G1 X139.122 Y137.545 E51.18321
G1 X138.709 Y138.169 E51.22054
G1 X138.232 Y138.745 E51.25785
G1 X137.697 Y139.267 E51.29515
G1 X137.108 Y139.729 E51.33249
G1 X136.474 Y140.126 E51.36981
G1 X135.801 Y140.453 E51.40714
G1 X135.097 Y140.706 E51.44446
G1 X134.349 Y140.885 E51.48284
G1 X133.422 Y141.078 E51.53008
G1 X132.588 Y141.22 E51.57228
G1 X131.812 Y141.263 E51.61106
G1 X131.225 Y141.263 E51.64034
G1 X130.694 Y141.357 E51.66725
G1 X129.84 Y141.409 E51.70993
G1 X129.051 Y141.409 E51.74929
G1 X128.304 Y141.369 E51.78662
G1 X127.704 Y141.272 E51.81694
G1 X126.828 Y141.231 E51.86069
G1 X126.089 Y141.11 E51.89805
G1 X125.337 Y140.977 E51.93615
G1 X124.772 Y140.842 E51.96513
G1 X124.05 Y140.644 E52.00248
G1 X123.354 Y140.371 E52.03978
G1 X122.691 Y140.024 E52.07711
G1 X122.068 Y139.609 E52.11446
