;FLAVOR:Marlin
;TIME:7474
;Filament used: 12.9766m
;Layer height: 0.4
;MINX:39.335
;MINY:57.488
;MINZ:0.3
;MAXX:160.653
;MAXY:137.602
;MAXZ:50.7
;POSTPROCESSED
;Generated with Cura_SteamEngine 5.0.0
M140 S60
M105
M190 S60
M104 S210
M105
M109 S210
M82 ;absolute extrusion mode
G21 ;metric values
 G90 ;absolute positioning
 M82 ;set extruder to absolute mode
 M107 ;start with the fan off
 G28 X0 Y0 ;move X/Y to min endstops
 G28 Z0 ;move Z to min endstops
 G1 Z10.0 F120 ;move the platform down 10mm
 G92 E0 ;zero the extruded length
 G1 F200 E3 ;extrude 3 mm of feed stock
 G92 E0 ;zero the extruded length again
 G1 F120 
 ;Put printing message on LCD screen
 M117 Printing...
G92 E0
G92 E0
G1 F2400 E-0.8
;LAYER_COUNT:127
;LAYER:0
M107
G0 F3600 X126.002 Y59.319 Z0.3
G0 X125.599 Y60.25
;TYPE:SKIRT
G1 F2400 E0
G1 F1800 X126.002 Y59.319 E0.05061
G1 X126.327 Y58.744 E0.08356
G1 X126.467 Y58.577 E0.09444
G1 X126.658 Y58.472 E0.10531
G1 X126.961 Y58.441 E0.12051
G1 X127.209 Y58.332 E0.13402
G1 X127.45 Y58.281 E0.14631
G1 X128.375 Y58.281 E0.19246
G1 X128.529 Y58.174 E0.20182
G1 X128.774 Y58.122 E0.21431
G1 X131.229 Y58.122 E0.33679
G1 X131.444 Y58.162 E0.3477
G1 X131.628 Y58.282 E0.35866
G1 X132.552 Y58.282 E0.40476
G1 X132.793 Y58.333 E0.41705
G1 X133.041 Y58.442 E0.43056
G1 X133.366 Y58.482 E0.4469
G1 X133.552 Y58.595 E0.45776
G1 X133.965 Y59.259 E0.49677
G1 X134.345 Y60.108 E0.54318
G1 X134.396 Y60.32 E0.55406
G1 X134.368 Y60.536 E0.56492
G1 X134.17 Y60.821 E0.58224
G1 X133.85 Y61.075 E0.60262
G1 X133.657 Y61.177 E0.61351
G1 X132.759 Y61.204 E0.65833
G1 X132.52 Y61.154 E0.67051
G1 X132.27 Y61.045 E0.68412
G1 X131.783 Y61.045 E0.70842
G1 X131.568 Y61.005 E0.71933
G1 X131.369 Y60.885 E0.73092
G1 X128.635 Y60.884 E0.86732
G1 X128.376 Y61.023 E0.88198
G1 X127.731 Y61.044 E0.91418
G1 X127.481 Y61.153 E0.92779
G1 X127.242 Y61.203 E0.93997
G1 X126.532 Y61.204 E0.97539
G1 X126.317 Y61.165 E0.98629
G1 X125.832 Y60.831 E1.01567
G1 X125.684 Y60.671 E1.02655
G1 X125.603 Y60.468 E1.03745
G1 X125.599 Y60.25 E1.04833
G0 F3600 X126 Y60.408
G1 F1800 X126.009 Y60.267 E1.05538
G1 X126.374 Y59.469 E1.09916
G1 X126.674 Y58.942 E1.12941
G1 X126.767 Y58.858 E1.13566
G1 X127.045 Y58.841 E1.14956
G1 X127.45 Y58.681 E1.17128
G1 X128.533 Y58.681 E1.22531
G1 X128.633 Y58.581 E1.23237
G1 X128.774 Y58.522 E1.23999
G1 X131.229 Y58.522 E1.36248
G1 X131.37 Y58.581 E1.3701
G1 X131.471 Y58.682 E1.37723
G1 X132.552 Y58.682 E1.43116
G1 X132.957 Y58.842 E1.45288
G1 X133.27 Y58.881 E1.46862
G1 X133.618 Y59.457 E1.50219
G1 X133.98 Y60.27 E1.54659
G1 X133.992 Y60.394 E1.55281
G1 X133.921 Y60.508 E1.55951
G1 X133.601 Y60.762 E1.57989
G1 X133.477 Y60.805 E1.58644
G1 X132.76 Y60.804 E1.62221
G1 X132.355 Y60.645 E1.64392
G1 X131.783 Y60.645 E1.67246
G1 X131.499 Y60.485 E1.68872
G1 X128.506 Y60.484 E1.83804
G1 X128.22 Y60.644 E1.85439
G1 X127.646 Y60.644 E1.88303
G1 X127.241 Y60.803 E1.90473
G1 X126.531 Y60.804 E1.94015
G1 X126.411 Y60.764 E1.94647
G1 X126.071 Y60.51 E1.96764
G1 X126 Y60.408 E1.97384
G1 F2400 E1.17384
G0 F3600 X112.76 Y60.804
G1 F2400 E1.97384
G1 F1800 X112.355 Y60.645 E1.99555
G1 X111.783 Y60.645 E2.02408
G1 X111.499 Y60.485 E2.04035
G1 X108.506 Y60.484 E2.18967
G1 X108.22 Y60.644 E2.20602
G1 X107.646 Y60.644 E2.23465
G1 X107.241 Y60.803 E2.25636
G1 X106.531 Y60.804 E2.29178
G1 X106.411 Y60.764 E2.29809
G1 X106.071 Y60.51 E2.31927
G1 X106 Y60.408 E2.32547
G1 X106.009 Y60.267 E2.33252
G1 X106.374 Y59.469 E2.3763
G1 X106.674 Y58.942 E2.40655
G1 X106.767 Y58.858 E2.4128
G1 X107.045 Y58.841 E2.4267
G1 X107.45 Y58.681 E2.44842
G1 X108.533 Y58.681 E2.50245
G1 X108.633 Y58.581 E2.50951
G1 X108.774 Y58.522 E2.51713
G1 X111.229 Y58.522 E2.63961
G1 X111.37 Y58.581 E2.64724
G1 X111.471 Y58.682 E2.65437
G1 X112.552 Y58.682 E2.7083
G1 X112.957 Y58.842 E2.73002
G1 X113.27 Y58.881 E2.74576
G1 X113.618 Y59.457 E2.77933
G1 X113.98 Y60.27 E2.82373
G1 X113.992 Y60.394 E2.82995
G1 X113.921 Y60.508 E2.83665
G1 X113.601 Y60.762 E2.85703
G1 X113.477 Y60.805 E2.86358
G1 X112.76 Y60.804 E2.89935
G1 F2400 E2.09935
G0 F3600 X105.599 Y60.25
G1 F2400 E2.89935
G1 F1800 X106.002 Y59.319 E2.94996
G1 X106.327 Y58.744 E2.98292
G1 X106.467 Y58.577 E2.99379
G1 X106.658 Y58.472 E3.00466
G1 X106.961 Y58.441 E3.01986
G1 X107.209 Y58.332 E3.03337
G1 X107.45 Y58.281 E3.04566
G1 X108.375 Y58.281 E3.09181
G1 X108.529 Y58.174 E3.10117
G1 X108.774 Y58.122 E3.11366
G1 X111.229 Y58.122 E3.23614
G1 X111.444 Y58.162 E3.24705
G1 X111.628 Y58.282 E3.25801
G1 X112.552 Y58.282 E3.30411
G1 X112.793 Y58.333 E3.3164
G1 X113.041 Y58.442 E3.32992
G1 X113.366 Y58.482 E3.34625
G1 X113.552 Y58.595 E3.35711
G1 X113.965 Y59.259 E3.39612
G1 X114.345 Y60.108 E3.44253
G1 X114.396 Y60.32 E3.45341
G1 X114.368 Y60.536 E3.46427
G1 X114.17 Y60.821 E3.48159
G1 X113.85 Y61.075 E3.50197
G1 X113.657 Y61.177 E3.51286
G1 X112.759 Y61.204 E3.55768
G1 X112.52 Y61.154 E3.56986
G1 X112.27 Y61.045 E3.58347
G1 X111.783 Y61.045 E3.60777
G1 X111.568 Y61.005 E3.61868
G1 X111.369 Y60.885 E3.63027
G1 X108.635 Y60.884 E3.76667
G1 X108.376 Y61.023 E3.78134
G1 X107.731 Y61.044 E3.81353
G1 X107.481 Y61.153 E3.82714
G1 X107.242 Y61.203 E3.83932
G1 X106.532 Y61.204 E3.87474
G1 X106.317 Y61.165 E3.88564
G1 X105.832 Y60.831 E3.91502
G1 X105.684 Y60.671 E3.9259
G1 X105.603 Y60.468 E3.9368
G1 X105.599 Y60.25 E3.94768
G1 F2400 E3.14768
G0 F3600 X101.5 Y65.934
G1 F2400 E3.94768
G1 F1800 X101.715 Y65.974 E3.95859
G1 X101.901 Y66.087 E3.96945
G1 X102.034 Y66.26 E3.98033
G1 X102.1 Y66.534 E3.99439
G1 X102.1 Y66.846 E4.00996
G1 X160 Y66.846 E6.8986
G1 X160.215 Y66.886 E6.90951
G1 X160.401 Y66.999 E6.92037
G1 X160.534 Y67.172 E6.93126
G1 X160.6 Y67.446 E6.94532
G1 X160.6 Y71.104 E7.12782
G1 X160.56 Y71.319 E7.13873
G1 X160.447 Y71.505 E7.14959
G1 X160.274 Y71.638 E7.16047
G1 X160 Y71.704 E7.17453
G1 X40 Y71.704 E13.16136
G1 X39.785 Y71.664 E13.17227
G1 X39.599 Y71.551 E13.18313
G1 X39.466 Y71.378 E13.19401
G1 X39.4 Y71.104 E13.20807
G1 X39.4 Y67.445 E13.39062
G1 X39.44 Y67.23 E13.40153
G1 X39.553 Y67.044 E13.41239
G1 X39.726 Y66.911 E13.42328
G1 X40 Y66.845 E13.43734
G1 X97.9 Y66.845 E16.32598
G1 X97.94 Y66.319 E16.3523
G1 X98.053 Y66.133 E16.36316
G1 X98.226 Y66 E16.37404
G1 X98.5 Y65.934 E16.3881
G1 X101.5 Y65.934 E16.53778
G1 F2400 E15.73778
G0 F3600 X98.136 Y67.245
G1 F2400 E16.53778
G1 F1800 X98.3 Y67.081 E16.54935
G1 X98.3 Y66.534 E16.57664
G1 X98.339 Y66.415 E16.58288
G1 X98.5 Y66.334 E16.59188
G1 X101.5 Y66.334 E16.74155
G1 X101.619 Y66.373 E16.74779
G1 X101.7 Y66.534 E16.75679
G1 X101.7 Y67.082 E16.78413
G1 X101.864 Y67.246 E16.7957
G1 X160 Y67.246 E19.69611
G1 X160.119 Y67.285 E19.70236
G1 X160.2 Y67.446 E19.71135
G1 X160.2 Y71.104 E19.89385
G1 X160.161 Y71.223 E19.9001
G1 X160 Y71.304 E19.90909
G1 X40 Y71.304 E25.89591
G1 X39.881 Y71.265 E25.90216
G1 X39.8 Y71.104 E25.91115
G1 X39.8 Y67.445 E26.0937
G1 X39.839 Y67.326 E26.09995
G1 X40 Y67.245 E26.10894
G1 X98.136 Y67.245 E29.00936
G1 F2400 E28.20936
G0 F3600 X91.783 Y60.645
G1 F2400 E29.00936
G1 F1800 X91.499 Y60.485 E29.02562
G1 X88.506 Y60.484 E29.17494
G1 X88.22 Y60.644 E29.19129
G1 X87.646 Y60.644 E29.21993
G1 X87.241 Y60.803 E29.24164
G1 X86.531 Y60.804 E29.27706
G1 X86.411 Y60.764 E29.28337
G1 X86.071 Y60.51 E29.30454
G1 X86 Y60.408 E29.31074
G1 X86.009 Y60.267 E29.31779
G1 X86.374 Y59.469 E29.36157
G1 X86.674 Y58.942 E29.39182
G1 X86.767 Y58.858 E29.39808
G1 X87.045 Y58.841 E29.41197
G1 X87.45 Y58.681 E29.4337
G1 X88.533 Y58.681 E29.48773
G1 X88.633 Y58.581 E29.49478
G1 X88.774 Y58.522 E29.50241
G1 X91.229 Y58.522 E29.62489
G1 X91.37 Y58.581 E29.63251
G1 X91.471 Y58.682 E29.63964
G1 X92.552 Y58.682 E29.69357
G1 X92.957 Y58.842 E29.7153
G1 X93.27 Y58.881 E29.73103
G1 X93.618 Y59.457 E29.76461
G1 X93.98 Y60.27 E29.80901
G1 X93.992 Y60.394 E29.81522
G1 X93.921 Y60.508 E29.82192
G1 X93.601 Y60.762 E29.84231
G1 X93.477 Y60.805 E29.84885
G1 X92.76 Y60.804 E29.88463
G1 X92.355 Y60.645 E29.90633
G1 X91.783 Y60.645 E29.93487
G1 F2400 E29.13487
G0 F3600 X85.599 Y60.25
G1 F2400 E29.93487
G1 F1800 X86.002 Y59.319 E29.98548
G1 X86.327 Y58.744 E30.01843
G1 X86.467 Y58.577 E30.02931
G1 X86.658 Y58.472 E30.04018
G1 X86.961 Y58.441 E30.05538
G1 X87.209 Y58.332 E30.06889
G1 X87.45 Y58.281 E30.08118
G1 X88.375 Y58.281 E30.12733
G1 X88.529 Y58.174 E30.13668
G1 X88.774 Y58.122 E30.14918
G1 X91.229 Y58.122 E30.27166
G1 X91.444 Y58.162 E30.28257
G1 X91.628 Y58.282 E30.29353
G1 X92.552 Y58.282 E30.33963
G1 X92.793 Y58.333 E30.35192
G1 X93.041 Y58.442 E30.36543
G1 X93.366 Y58.482 E30.38177
G1 X93.552 Y58.595 E30.39263
G1 X93.965 Y59.259 E30.43164
G1 X94.345 Y60.108 E30.47805
G1 X94.396 Y60.32 E30.48892
G1 X94.368 Y60.536 E30.49979
G1 X94.17 Y60.821 E30.5171
G1 X93.85 Y61.075 E30.53749
G1 X93.657 Y61.177 E30.54838
G1 X92.759 Y61.204 E30.5932
G1 X92.52 Y61.154 E30.60538
G1 X92.27 Y61.045 E30.61899
G1 X91.783 Y61.045 E30.64328
G1 X91.568 Y61.005 E30.6542
G1 X91.369 Y60.885 E30.66579
G1 X88.635 Y60.884 E30.80219
G1 X88.376 Y61.023 E30.81685
G1 X87.731 Y61.044 E30.84905
G1 X87.481 Y61.153 E30.86266
G1 X87.242 Y61.203 E30.87484
G1 X86.532 Y61.204 E30.91026
G1 X86.317 Y61.165 E30.92116
G1 X85.832 Y60.831 E30.95054
G1 X85.684 Y60.671 E30.96141
G1 X85.603 Y60.468 E30.97232
G1 X85.599 Y60.25 E30.9832
G1 F2400 E30.1832
G0 F3600 X72.76 Y60.804
G1 F2400 E30.9832
G1 F1800 X72.355 Y60.645 E31.0049
G1 X71.783 Y60.645 E31.03344
G1 X71.499 Y60.485 E31.0497
G1 X68.506 Y60.484 E31.19903
G1 X68.22 Y60.644 E31.21537
G1 X67.646 Y60.644 E31.24401
G1 X67.241 Y60.803 E31.26572
G1 X66.524 Y60.804 E31.30149
G1 X66.403 Y60.763 E31.30786
G1 X66.069 Y60.509 E31.3288
G1 X65.998 Y60.406 E31.33504
G1 X66.008 Y60.267 E31.34199
G1 X66.363 Y59.488 E31.3847
G1 X66.673 Y58.943 E31.41598
G1 X66.766 Y58.859 E31.42224
G1 X67.042 Y58.842 E31.43603
G1 X67.447 Y58.682 E31.45776
G1 X68.531 Y58.682 E31.51184
G1 X68.632 Y58.581 E31.51896
G1 X68.773 Y58.522 E31.52659
G1 X71.229 Y58.522 E31.64912
G1 X71.37 Y58.581 E31.65674
G1 X71.471 Y58.682 E31.66387
G1 X72.552 Y58.682 E31.7178
G1 X72.957 Y58.842 E31.73953
G1 X73.27 Y58.881 E31.75526
G1 X73.618 Y59.457 E31.78884
G1 X73.98 Y60.27 E31.83324
G1 X73.992 Y60.394 E31.83945
G1 X73.921 Y60.508 E31.84615
G1 X73.601 Y60.762 E31.86654
G1 X73.477 Y60.805 E31.87308
G1 X72.76 Y60.804 E31.90886
G1 F2400 E31.10886
G0 F3600 X65.599 Y60.245
G1 F2400 E31.90886
G1 F1800 X65.991 Y59.339 E31.95811
G1 X66.325 Y58.745 E31.9921
G1 X66.466 Y58.578 E32.00301
G1 X66.657 Y58.473 E32.01388
G1 X66.958 Y58.442 E32.02898
G1 X67.206 Y58.333 E32.04249
G1 X67.447 Y58.282 E32.05478
G1 X68.372 Y58.282 E32.10093
G1 X68.528 Y58.174 E32.1104
G1 X68.773 Y58.122 E32.12289
G1 X71.229 Y58.122 E32.24542
G1 X71.444 Y58.162 E32.25633
G1 X71.628 Y58.282 E32.26729
G1 X72.552 Y58.282 E32.31339
G1 X72.793 Y58.333 E32.32568
G1 X73.041 Y58.442 E32.3392
G1 X73.366 Y58.482 E32.35553
G1 X73.552 Y58.595 E32.36639
G1 X73.965 Y59.259 E32.4054
G1 X74.345 Y60.108 E32.45181
G1 X74.396 Y60.32 E32.46269
G1 X74.368 Y60.536 E32.47355
G1 X74.17 Y60.821 E32.49087
G1 X73.85 Y61.075 E32.51125
G1 X73.657 Y61.177 E32.52214
G1 X72.759 Y61.204 E32.56696
G1 X72.52 Y61.154 E32.57914
G1 X72.27 Y61.045 E32.59275
G1 X71.783 Y61.045 E32.61705
G1 X71.568 Y61.005 E32.62796
G1 X71.369 Y60.885 E32.63955
G1 X68.635 Y60.884 E32.77595
G1 X68.376 Y61.023 E32.79062
G1 X67.731 Y61.044 E32.82281
G1 X67.481 Y61.153 E32.83642
G1 X67.242 Y61.203 E32.8486
G1 X66.525 Y61.204 E32.88437
G1 X66.31 Y61.165 E32.89527
G1 X65.827 Y60.828 E32.92466
G1 X65.68 Y60.666 E32.93557
G1 X65.601 Y60.463 E32.94644
G1 X65.599 Y60.245 E32.95731
G1 F2400 E32.15731
G0 F3600 X39.799 Y72.116
G0 X39.8 Y72.781
G1 F2400 E32.95731
G1 F1800 X39.839 Y72.662 E32.96356
G1 X40 Y72.581 E32.97255
G1 X160 Y72.58 E38.95938
G1 X160.119 Y72.619 E38.96563
G1 X160.2 Y72.78 E38.97462
G1 X160.2 Y129.562 E41.80748
G1 X160.161 Y129.681 E41.81373
G1 X160 Y129.762 E41.82272
G1 X40 Y129.763 E47.80955
G1 X39.881 Y129.724 E47.81579
G1 X39.8 Y129.563 E47.82479
G1 X39.8 Y72.781 E50.65765
G0 F3600 X39.4 Y72.781
G1 F1800 X39.44 Y72.566 E50.66856
G1 X39.553 Y72.38 E50.67942
G1 X39.726 Y72.247 E50.69031
G1 X40 Y72.181 E50.70437
G1 X160 Y72.18 E56.69119
G1 X160.215 Y72.22 E56.7021
G1 X160.401 Y72.333 E56.71296
G1 X160.534 Y72.506 E56.72385
G1 X160.6 Y72.78 E56.73791
G1 X160.6 Y129.562 E59.57077
G1 X160.56 Y129.777 E59.58168
G1 X160.447 Y129.963 E59.59254
G1 X160.274 Y130.096 E59.60343
G1 X160 Y130.162 E59.61749
G1 X40 Y130.163 E65.60431
G1 X39.785 Y130.123 E65.61522
G1 X39.599 Y130.01 E65.62608
G1 X39.466 Y129.837 E65.63697
G1 X39.4 Y129.563 E65.65103
G1 X39.4 Y72.781 E68.48389
G1 F2400 E67.68389
G0 F3600 X39.335 Y72.781
G0 X39.347 Y130.216
G0 X39.4 Y130.917
G1 F2400 E68.48389
G1 F1800 X39.44 Y130.702 E68.4948
G1 X39.553 Y130.516 E68.50566
G1 X39.726 Y130.383 E68.51655
G1 X40 Y130.317 E68.53061
G1 X160 Y130.316 E74.51743
G1 X160.215 Y130.356 E74.52835
G1 X160.401 Y130.469 E74.5392
G1 X160.534 Y130.642 E74.55009
G1 X160.6 Y130.916 E74.56415
G1 X160.6 Y134.419 E74.73892
G1 X160.56 Y134.634 E74.74983
G1 X160.447 Y134.82 E74.76068
G1 X160.274 Y134.953 E74.77157
G1 X160 Y135.019 E74.78563
G1 X102.1 Y135.019 E77.67427
G1 X102.1 Y135.919 E77.71918
G1 X102.06 Y136.134 E77.73009
G1 X101.947 Y136.32 E77.74094
G1 X101.774 Y136.453 E77.75183
G1 X101.5 Y136.519 E77.76589
G1 X98.5 Y136.519 E77.91556
G1 X98.285 Y136.479 E77.92647
G1 X98.099 Y136.366 E77.93733
G1 X97.966 Y136.193 E77.94822
G1 X97.9 Y135.919 E77.96228
G1 X97.9 Y135.019 E78.00718
G1 X40 Y135.019 E80.89582
G1 X39.785 Y134.979 E80.90673
G1 X39.599 Y134.866 E80.91759
G1 X39.466 Y134.693 E80.92848
G1 X39.4 Y134.419 E80.94254
G1 X39.4 Y130.917 E81.11725
G0 F3600 X39.8 Y130.917
G1 F1800 X39.839 Y130.798 E81.1235
G1 X40 Y130.717 E81.13249
G1 X160 Y130.716 E87.11932
G1 X160.119 Y130.755 E87.12557
G1 X160.2 Y130.916 E87.13456
G1 X160.2 Y134.419 E87.30932
G1 X160.161 Y134.538 E87.31557
G1 X160 Y134.619 E87.32456
G1 X101.864 Y134.619 E90.22498
G1 X101.7 Y134.783 E90.23655
G1 X101.7 Y135.919 E90.29322
G1 X101.661 Y136.038 E90.29947
G1 X101.5 Y136.119 E90.30846
G1 X98.5 Y136.119 E90.45813
G1 X98.381 Y136.08 E90.46438
G1 X98.3 Y135.919 E90.47337
G1 X98.3 Y134.783 E90.53005
G1 X98.136 Y134.619 E90.54162
G1 X40 Y134.619 E93.44204
G1 X39.881 Y134.58 E93.44828
G1 X39.8 Y134.419 E93.45728
G1 X39.8 Y130.917 E93.63199
G0 F3600 X40.005 Y130.836
;TYPE:SUPPORT
G1 F1800 X40.005 Y134.499 E93.81474
G0 F3600 X39.919 Y133.349
G1 F1800 X160.079 Y133.35 E99.80955
G0 F3600 X160.02 Y134.499
G1 F1800 X160.02 Y130.836 E99.99229
G0 F3600 X157.353 Y130.836
G1 F1800 X157.353 Y134.499 E100.17504
G0 F3600 X154.686 Y134.499
G1 F1800 X154.686 Y130.836 E100.35779
G0 F3600 X152.019 Y130.836
G1 F1800 X152.019 Y134.499 E100.54054
G0 F3600 X149.352 Y134.499
G1 F1800 X149.352 Y130.836 E100.72329
G0 F3600 X146.685 Y130.836
G1 F1800 X146.685 Y134.499 E100.90603
G0 F3600 X144.018 Y134.499
G1 F1800 X144.018 Y130.836 E101.08878
G0 F3600 X141.351 Y130.836
G1 F1800 X141.351 Y134.499 E101.27153
G0 F3600 X138.684 Y134.499
G1 F1800 X138.684 Y130.836 E101.45428
G0 F3600 X136.017 Y130.836
G1 F1800 X136.017 Y134.499 E101.63702
G0 F3600 X133.35 Y134.499
G1 F1800 X133.35 Y130.836 E101.81977
G0 F3600 X130.683 Y130.836
G1 F1800 X130.683 Y134.499 E102.00252
G0 F3600 X128.016 Y134.499
G1 F1800 X128.016 Y130.836 E102.18527
G0 F3600 X125.349 Y130.836
G1 F1800 X125.349 Y134.499 E102.36802
G0 F3600 X122.682 Y134.499
G1 F1800 X122.682 Y130.836 E102.55076
G0 F3600 X120.015 Y130.836
G1 F1800 X120.015 Y134.499 E102.73351
G0 F3600 X117.348 Y134.499
G1 F1800 X117.348 Y130.836 E102.91626
G0 F3600 X114.681 Y130.836
